( pcb2gcode 2.5.0 )
( Software-independent Gcode )

( This file uses 3 drill bit sizes. )
( Bit sizes: [0.8mm] [1mm] [1.5mm] )

G94       (Millimeters per minute feed rate.)
G21       (Units == Millimeters.)
G90       (Absolute coordinates.)
G00 S20000     (RPM spindle speed.)

G00 Z30.00000 (Retract)
T1
M5      (Spindle stop.)
G04 P1.00000
(MSG, Change tool bit to drill size 0.8mm)
M6      (Tool change.)
M0      (Temporary machine stop.)
M3      (Spindle on clockwise.)
G0 Z3.50000
G04 P1.00000

G81 R3.50000 Z-1.75000 F200.00000 X-40.68100 Y23.82500
X-44.78500 Y19.50700
X-49.78500 Y19.50700
X-42.07800 Y10.99800
X-42.07800 Y6.93400
X-52.23800 Y10.99800
X-52.23800 Y6.93400
X-67.73200 Y6.04500
X-67.73200 Y9.22000
X-77.89200 Y6.04500
X-77.89200 Y9.22000
X-75.69300 Y16.20500
X-70.69300 Y16.20500
X-67.22400 Y16.33200
X-62.01700 Y16.33200
X-62.01700 Y26.49200
X-67.22400 Y26.49200
X-71.48000 Y27.88900
X-73.98000 Y27.88900
X-70.14500 Y32.46100
X-73.95500 Y35.89000
X-71.41500 Y35.89000
X-68.87500 Y35.89000
X-66.33500 Y35.89000
X-63.79500 Y35.89000
X-61.25500 Y35.89000
X-56.42900 Y30.42900
X-58.71500 Y35.89000
X-56.17500 Y35.89000
X-51.98400 Y36.01700
X-56.17500 Y43.51000
X-58.71500 Y43.51000
X-61.25500 Y43.51000
X-63.79500 Y43.51000
X-66.33500 Y43.51000
X-68.87500 Y43.51000
X-71.41500 Y43.51000
X-73.95500 Y43.51000
X-76.49500 Y43.51000
X-79.03500 Y43.51000
X-81.57500 Y43.51000
X-84.11500 Y43.51000
X-86.65500 Y43.51000
X-89.19500 Y43.51000
X-94.27500 Y47.95500
X-94.27500 Y44.62800
X-102.40300 Y49.22500
X-109.26100 Y44.65300
X-106.01500 Y38.66400
X-106.01500 Y41.20400
X-104.43500 Y44.62800
X-98.59300 Y40.84300
X-95.03700 Y40.84300
X-89.19500 Y35.89000
X-86.65500 Y35.89000
X-84.11500 Y35.89000
X-81.57500 Y35.89000
X-79.03500 Y35.89000
X-76.49500 Y35.89000
X-75.14500 Y32.46100
X-94.02100 Y23.82500
X-98.08500 Y16.71300
X-104.18100 Y23.82500
X-117.64300 Y19.73800
X-116.37300 Y21.01800
X-117.64300 Y22.27800
X-124.22200 Y31.01300
X-116.17500 Y38.66400
X-116.17500 Y41.20400
X-120.81800 Y41.19900
X-124.22200 Y41.17300
X-116.14400 Y46.99000
X-116.14400 Y51.99000
X-120.94500 Y56.41300
X-120.81800 Y51.35900
X-127.94000 Y43.70300
X-127.94000 Y41.16300
X-127.94000 Y38.62300
X-127.94000 Y36.08300
X-135.56000 Y36.08300
X-139.36000 Y37.36300
X-145.35400 Y37.25500
X-153.96500 Y46.17700
X-145.35400 Y42.25500
X-139.36000 Y42.36300
X-135.56000 Y38.62300
X-135.56000 Y41.16300
X-135.56000 Y43.70300
X-129.20000 Y49.60600
X-129.20000 Y52.10600
X-139.74100 Y70.56100
X-139.74100 Y76.14900
X-129.58100 Y70.56100
X-129.58100 Y76.14900
X-123.23100 Y83.00700
X-124.51100 Y84.27700
X-124.50100 Y88.08700
X-121.97100 Y84.27700
X-114.34100 Y88.08700
X-109.76900 Y85.34200
X-106.97500 Y86.14200
X-109.76900 Y80.72100
X-115.61100 Y75.13300
X-105.45100 Y75.13300
X-95.54500 Y65.86200
X-95.54500 Y76.02200
X-95.54500 Y79.19700
X-99.35500 Y79.19700
X-99.99000 Y75.38700
X-106.97500 Y81.14200
X-99.35500 Y89.35700
X-95.54500 Y89.35700
X-85.38500 Y89.35700
X-77.76500 Y86.14200
X-70.14500 Y89.35700
X-61.50900 Y83.00700
X-61.25500 Y79.19700
X-66.33500 Y76.14900
X-70.14500 Y79.19700
X-70.14500 Y75.38700
X-72.64500 Y75.38700
X-77.76500 Y81.14200
X-82.21000 Y76.02200
X-85.38500 Y79.19700
X-85.38500 Y75.38700
X-82.21000 Y65.86200
X-86.65500 Y58.36900
X-86.65500 Y50.74900
X-76.45500 Y47.32000
X-71.45500 Y47.32000
X-61.25500 Y53.28900
X-58.71500 Y49.73300
X-51.98400 Y46.17700
X-48.55500 Y49.73300
X-51.09500 Y53.28900
X-66.33500 Y65.98900
X-50.84100 Y83.00700
X-48.80900 Y86.81700
X-49.31700 Y75.13300
X-26.96500 Y45.41500
X-31.96500 Y45.41500
X-8.20900 Y84.27700
X-13.20900 Y84.27700
G80

G00 Z30.00000 (Retract)
T6
M5      (Spindle stop.)
G04 P1.00000
(MSG, Change tool bit to drill size 1mm)
M6      (Tool change.)
M0      (Temporary machine stop.)
M3      (Spindle on clockwise.)
G0 Z3.50000
G04 P1.00000

G81 R3.50000 Z-1.75000 F200.00000 X-11.09000 Y19.76100
X-11.09000 Y30.42900
X-22.90100 Y36.77900
X-14.18700 Y52.78100
X-6.68700 Y52.78100
X-6.76500 Y72.08500
X-14.26500 Y72.08500
X-26.31000 Y53.67000
X-22.90100 Y49.47900
X-28.01000 Y53.67000
X-29.71000 Y53.67000
X-31.41000 Y53.67000
X-33.11000 Y53.67000
X-42.20500 Y46.63400
X-42.20500 Y41.63400
X-36.49000 Y30.42900
X-36.49000 Y19.76100
X-42.07800 Y15.06200
X-52.23800 Y15.06200
X-67.60500 Y12.64900
X-77.76500 Y12.64900
X-91.98900 Y11.63300
X-91.98900 Y9.09300
X-94.52900 Y11.63300
X-97.06900 Y11.63300
X-94.52900 Y9.09300
X-97.06900 Y9.09300
X-99.60900 Y11.63300
X-102.14900 Y11.63300
X-99.60900 Y9.09300
X-102.14900 Y9.09300
X-123.73900 Y14.91200
X-129.63500 Y15.33900
X-129.63500 Y27.33900
X-123.73900 Y27.61200
X-140.88400 Y48.50800
X-140.88400 Y53.50800
X-144.75000 Y71.06900
X-144.75000 Y73.60900
X-144.75000 Y76.14900
X-145.58300 Y85.29300
X-132.88300 Y85.29300
X-109.28600 Y56.10800
X-106.72500 Y50.36800
X-111.72500 Y50.36800
X-114.36600 Y56.10800
X-111.82600 Y56.10800
X-103.16500 Y79.19700
X-103.16500 Y89.35700
X-81.57500 Y79.19700
X-81.57500 Y89.35700
X-66.33500 Y89.35700
X-66.33500 Y79.19700
X-51.09500 Y60.02000
X-51.09500 Y57.48000
X-42.63300 Y71.57700
X-37.63300 Y71.57700
G80

G00 Z30.00000 (Retract)
T10
M5      (Spindle stop.)
G04 P1.00000
(MSG, Change tool bit to drill size 1.5mm)
M6      (Tool change.)
M0      (Temporary machine stop.)
M3      (Spindle on clockwise.)
G0 Z3.50000
G04 P1.00000

G81 R3.50000 Z-1.75000 F200.00000 X-14.52500 Y8.58500
X-6.64500 Y6.55300
X-6.64500 Y93.42100
X-153.45700 Y93.42100
X-153.45700 Y6.55300

X-4.74000 Y15.69700
X-4.74000 Y20.77700
X-4.74000 Y26.49200
X-4.74000 Y31.57200
X-4.10500 Y39.57300
X-37.12500 Y8.58500
X-57.82600 Y7.95000
X-62.90600 Y7.95000
X-19.34500 Y39.57300
X-43.47500 Y61.41700
X-28.23500 Y61.41700
X-28.23500 Y68.31500
X-28.23500 Y73.31500
X-21.63700 Y82.75300
X-17.00800 Y94.43700
X-22.08800 Y94.43700
X-27.09200 Y94.43700
X-32.17200 Y94.43700
X-37.17600 Y94.43700
X-42.25600 Y94.43700
X-47.23400 Y94.43700
X-44.23700 Y82.75300
X-52.31400 Y94.43700
X-65.11600 Y94.43700
X-70.19600 Y94.43700
X-75.27600 Y94.43700
X-80.25400 Y94.43700
X-85.33400 Y94.43700
X-90.31300 Y94.43700
X-95.39300 Y94.43700
X-114.34100 Y94.43700
X-119.42100 Y94.43700
X-133.64500 Y94.43700
X-138.72500 Y94.43700
X-143.80500 Y94.43700
X-153.45700 Y85.03300
X-153.45700 Y62.43300
X-153.96500 Y39.70000
X-153.96500 Y34.62000
X-153.96500 Y26.46900
X-153.96500 Y21.38900
X-153.96500 Y16.30900
X-142.40500 Y7.56900
X-141.83500 Y15.33900
X-141.88500 Y27.38900
X-127.68500 Y21.38900
X-119.80500 Y7.56900
G80

G00 Z30.000 ( All done -- retract )

M5      (Spindle off.)
G04 P1.000000
M9      (Coolant off.)
M2      (Program end.)

