( pcb2gcode 1.1.5 )
      
G94     ( Millimeters per minute feed rate. )
G21     ( Units == Millimeters. )

G90     ( Absolute coordinates.        )
S20000  ( RPM spindle speed.           )
F100.00000
M3      ( Spindle on clockwise.        )

G64 P1.00000 ( set maximum deviation from commanded toolpath )

G04 P0 ( dwell for no time -- G64 should not smooth over this point )
G00 Z3.00000 ( retract )

G00 X74.58108 Y-1.49352 ( rapid move to begin. )
G01 Z-0.20000
G04 P0 ( dwell for no time -- G64 should not smooth over this point )
X74.58108 Y-1.49352
X74.53028 Y-1.49352
X74.50488 Y-1.51892
X74.42868 Y-1.54432
X74.40328 Y-1.56972
X74.32708 Y-1.59512
X74.30168 Y-1.62052
X74.22548 Y-1.64592
X74.17468 Y-1.69672
X74.09848 Y-1.74752
X74.02228 Y-1.77292
X73.97148 Y-1.82372
X73.89528 Y-1.84912
X73.81908 Y-1.92532
X73.71748 Y-2.00152
X73.61588 Y-2.07772
X73.41268 Y-2.25552
X73.10788 Y-2.56032
X72.93008 Y-2.76352
X72.85388 Y-2.86512
X72.77768 Y-2.96672
X72.70148 Y-3.06832
X72.67608 Y-3.14452
X72.62528 Y-3.19532
X72.59988 Y-3.27152
X72.54908 Y-3.32232
X72.49828 Y-3.39852
X72.47288 Y-3.47472
X72.44748 Y-3.50012
X72.42208 Y-3.57632
X72.39668 Y-3.60172
X72.37128 Y-3.67792
X72.34588 Y-3.70332
X72.32048 Y-3.77952
X72.29508 Y-3.85572
X72.26968 Y-3.88112
X72.24428 Y-3.95732
X72.21888 Y-4.03352
X72.19348 Y-4.10972
X72.16808 Y-4.18592
X72.14268 Y-4.21132
X72.14268 Y-4.28752
X72.11728 Y-4.31292
X72.11728 Y-4.36372
X72.09188 Y-4.38912
X72.09188 Y-4.46532
X72.06648 Y-4.49072
X72.06648 Y-4.56692
X72.04108 Y-4.59232
X72.04108 Y-4.66852
X72.01568 Y-4.69392
X72.01568 Y-4.82092
X71.99028 Y-4.84632
X71.99028 Y-4.99872
X71.96488 Y-5.02412
X71.96488 Y-5.25272
X71.93948 Y-5.27812
X71.93948 Y-6.70052
X71.96488 Y-6.72592
X71.96488 Y-6.95452
X71.99028 Y-6.97992
X71.99028 Y-7.13232
X72.01568 Y-7.15772
X72.01568 Y-7.28472
X72.04108 Y-7.31012
X72.04108 Y-7.38632
X72.06648 Y-7.41172
X72.06648 Y-7.48792
X72.09188 Y-7.51332
X72.09188 Y-7.58952
X72.11728 Y-7.61492
X72.11728 Y-7.66572
X72.14268 Y-7.69112
X72.14268 Y-7.76732
X72.16808 Y-7.79272
X72.19348 Y-7.86892
X72.21888 Y-7.94512
X72.24428 Y-8.02132
X72.26968 Y-8.04672
X72.26968 Y-8.09752
X72.29508 Y-8.12292
X72.32048 Y-8.19912
X72.34588 Y-8.27532
X72.37128 Y-8.30072
X72.39668 Y-8.37692
X72.42208 Y-8.40232
X72.44748 Y-8.47852
X72.47288 Y-8.50392
X72.49828 Y-8.58012
X72.54908 Y-8.63092
X72.59988 Y-8.70712
X72.62528 Y-8.78332
X72.67608 Y-8.83412
X72.70148 Y-8.91032
X72.77768 Y-8.98652
X72.85388 Y-9.08812
X72.93008 Y-9.18972
X73.10788 Y-9.39292
X73.41268 Y-9.69772
X73.61588 Y-9.87552
X73.71748 Y-9.95172
X73.81908 Y-10.02792
X73.92068 Y-10.10412
X73.99688 Y-10.12952
X74.04768 Y-10.18032
X74.12388 Y-10.20572
X74.17468 Y-10.25652
X74.25088 Y-10.30732
X74.32708 Y-10.33272
X74.35248 Y-10.35812
X74.42868 Y-10.38352
X74.45408 Y-10.40892
X74.53028 Y-10.43432
X74.55568 Y-10.45972
X74.63188 Y-10.48512
X74.70808 Y-10.51052
X74.73348 Y-10.53592
X74.80968 Y-10.56132
X74.88588 Y-10.58672
X74.96208 Y-10.61212
X75.03828 Y-10.63752
X75.06368 Y-10.66292
X75.13988 Y-10.66292
X75.16528 Y-10.68832
X75.21608 Y-10.68832
X75.24148 Y-10.71372
X75.31768 Y-10.71372
X75.34308 Y-10.73912
X75.41928 Y-10.73912
X75.44468 Y-10.76452
X75.52088 Y-10.76452
X75.54628 Y-10.78992
X75.67328 Y-10.78992
X75.69868 Y-10.81532
X75.85108 Y-10.81532
X75.87648 Y-10.84072
X76.10508 Y-10.84072
X76.13048 Y-10.86612
X77.55288 Y-10.86612
X77.57828 Y-10.84072
X77.80688 Y-10.84072
X77.83228 Y-10.81532
X77.98468 Y-10.81532
X78.01008 Y-10.78992
X78.13708 Y-10.78992
X78.16248 Y-10.76452
X78.23868 Y-10.76452
X78.26408 Y-10.73912
X78.34028 Y-10.73912
X78.36568 Y-10.71372
X78.44188 Y-10.71372
X78.46728 Y-10.68832
X78.54348 Y-10.68832
X78.56888 Y-10.66292
X78.61968 Y-10.66292
X78.64508 Y-10.63752
X78.72128 Y-10.61212
X78.79748 Y-10.58672
X78.87368 Y-10.56132
X78.94988 Y-10.53592
X78.97528 Y-10.51052
X79.02608 Y-10.51052
X79.05148 Y-10.48512
X79.12768 Y-10.45972
X79.15308 Y-10.43432
X79.22928 Y-10.40892
X79.25468 Y-10.38352
X79.33088 Y-10.35812
X79.35628 Y-10.33272
X79.43248 Y-10.30732
X79.48328 Y-10.25652
X79.55948 Y-10.23112
X79.61028 Y-10.18032
X79.68648 Y-10.12952
X79.76268 Y-10.10412
X79.83888 Y-10.02792
X79.94048 Y-9.95172
X80.04208 Y-9.87552
X80.24528 Y-9.69772
X80.55008 Y-9.39292
X80.72788 Y-9.18972
X80.80408 Y-9.08812
X80.88028 Y-8.98652
X80.95648 Y-8.88492
X80.98188 Y-8.80872
X81.03268 Y-8.75792
X81.08348 Y-8.68172
X81.10888 Y-8.60552
X81.15968 Y-8.55472
X81.18508 Y-8.47852
X81.21048 Y-8.45312
X81.23588 Y-8.37692
X81.26128 Y-8.35152
X81.28668 Y-8.27532
X81.31208 Y-8.24992
X81.33748 Y-8.17372
X81.36288 Y-8.14832
X81.36288 Y-8.09752
X81.38828 Y-8.07212
X81.41368 Y-7.99592
X81.43908 Y-7.91972
X81.46448 Y-7.84352
X81.48988 Y-7.76732
X81.51528 Y-7.74192
X81.51528 Y-7.69112
X81.54068 Y-7.66572
X81.54068 Y-7.58952
X81.56608 Y-7.56412
X81.56608 Y-7.48792
X81.59148 Y-7.46252
X81.59148 Y-7.38632
X81.61688 Y-7.36092
X81.61688 Y-7.28472
X81.64228 Y-7.25932
X81.64228 Y-7.13232
X81.66768 Y-7.10692
X81.66768 Y-6.95452
X81.69308 Y-6.92912
X81.69308 Y-6.70052
X81.71848 Y-6.67512
X81.71848 Y-5.25272
X81.69308 Y-5.22732
X81.69308 Y-4.99872
X81.66768 Y-4.97332
X81.66768 Y-4.82092
X81.64228 Y-4.79552
X81.64228 Y-4.66852
X81.61688 Y-4.64312
X81.61688 Y-4.56692
X81.59148 Y-4.54152
X81.59148 Y-4.46532
X81.56608 Y-4.43992
X81.56608 Y-4.36372
X81.54068 Y-4.33832
X81.54068 Y-4.26212
X81.51528 Y-4.23672
X81.51528 Y-4.18592
X81.48988 Y-4.16052
X81.46448 Y-4.08432
X81.43908 Y-4.00812
X81.41368 Y-3.93192
X81.38828 Y-3.85572
X81.36288 Y-3.83032
X81.36288 Y-3.77952
X81.33748 Y-3.75412
X81.31208 Y-3.67792
X81.28668 Y-3.65252
X81.26128 Y-3.57632
X81.23588 Y-3.55092
X81.21048 Y-3.47472
X81.18508 Y-3.44932
X81.15968 Y-3.37312
X81.10888 Y-3.32232
X81.08348 Y-3.24612
X81.03268 Y-3.19532
X80.98188 Y-3.11912
X80.95648 Y-3.04292
X80.88028 Y-2.96672
X80.80408 Y-2.86512
X80.72788 Y-2.76352
X80.55008 Y-2.56032
X80.24528 Y-2.25552
X80.04208 Y-2.07772
X79.94048 Y-2.00152
X79.83888 Y-1.92532
X79.73728 Y-1.84912
X79.66108 Y-1.82372
X79.61028 Y-1.77292
X79.53408 Y-1.72212
X79.45788 Y-1.69672
X79.40708 Y-1.64592
X79.33088 Y-1.62052
X79.30548 Y-1.59512
X79.22928 Y-1.56972
X79.20388 Y-1.54432
X79.12768 Y-1.51892
X79.10228 Y-1.49352
X79.02608 Y-1.46812
X79.00068 Y-1.44272
X78.94988 Y-1.44272
X78.92448 Y-1.41732
X78.84828 Y-1.39192
X78.77208 Y-1.36652
X78.69588 Y-1.34112
X78.61968 Y-1.31572
X78.59428 Y-1.29032
X78.54348 Y-1.29032
X78.51808 Y-1.26492
X75.11448 Y-1.26492
X75.08908 Y-1.29032
X75.03828 Y-1.29032
X75.01288 Y-1.31572
X74.93668 Y-1.34112
X74.86048 Y-1.36652
X74.78428 Y-1.39192
X74.70808 Y-1.41732
X74.68268 Y-1.44272
X74.60648 Y-1.46812
X74.58108 Y-1.49352
G04 P0 ( dwell for no time -- G64 should not smooth over this point )
G00 Z3.00000 ( retract )

G00 X4.57868 Y-1.49352 ( rapid move to begin. )
G01 Z-0.20000
G04 P0 ( dwell for no time -- G64 should not smooth over this point )
X4.57868 Y-1.49352
X4.52788 Y-1.49352
X4.50248 Y-1.51892
X4.42628 Y-1.54432
X4.40088 Y-1.56972
X4.32468 Y-1.59512
X4.29928 Y-1.62052
X4.22308 Y-1.64592
X4.17228 Y-1.69672
X4.09608 Y-1.74752
X4.01988 Y-1.77292
X3.96908 Y-1.82372
X3.89288 Y-1.84912
X3.81668 Y-1.92532
X3.71508 Y-2.00152
X3.61348 Y-2.07772
X3.41028 Y-2.25552
X3.10548 Y-2.56032
X2.92768 Y-2.76352
X2.85148 Y-2.86512
X2.77528 Y-2.96672
X2.69908 Y-3.06832
X2.67368 Y-3.14452
X2.62288 Y-3.19532
X2.59748 Y-3.27152
X2.54668 Y-3.32232
X2.49588 Y-3.39852
X2.47048 Y-3.47472
X2.44508 Y-3.50012
X2.41968 Y-3.57632
X2.39428 Y-3.60172
X2.36888 Y-3.67792
X2.34348 Y-3.70332
X2.31808 Y-3.77952
X2.29268 Y-3.85572
X2.26728 Y-3.88112
X2.24188 Y-3.95732
X2.21648 Y-4.03352
X2.19108 Y-4.10972
X2.16568 Y-4.18592
X2.14028 Y-4.21132
X2.14028 Y-4.28752
X2.11488 Y-4.31292
X2.11488 Y-4.36372
X2.08948 Y-4.38912
X2.08948 Y-4.46532
X2.06408 Y-4.49072
X2.06408 Y-4.56692
X2.03868 Y-4.59232
X2.03868 Y-4.66852
X2.01328 Y-4.69392
X2.01328 Y-4.82092
X1.98788 Y-4.84632
X1.98788 Y-4.99872
X1.96248 Y-5.02412
X1.96248 Y-5.25272
X1.93708 Y-5.27812
X1.93708 Y-6.70052
X1.96248 Y-6.72592
X1.96248 Y-6.95452
X1.98788 Y-6.97992
X1.98788 Y-7.13232
X2.01328 Y-7.15772
X2.01328 Y-7.28472
X2.03868 Y-7.31012
X2.03868 Y-7.38632
X2.06408 Y-7.41172
X2.06408 Y-7.48792
X2.08948 Y-7.51332
X2.08948 Y-7.58952
X2.11488 Y-7.61492
X2.11488 Y-7.66572
X2.14028 Y-7.69112
X2.14028 Y-7.76732
X2.16568 Y-7.79272
X2.19108 Y-7.86892
X2.21648 Y-7.94512
X2.24188 Y-8.02132
X2.26728 Y-8.04672
X2.26728 Y-8.09752
X2.29268 Y-8.12292
X2.31808 Y-8.19912
X2.34348 Y-8.27532
X2.36888 Y-8.30072
X2.39428 Y-8.37692
X2.41968 Y-8.40232
X2.44508 Y-8.47852
X2.47048 Y-8.50392
X2.49588 Y-8.58012
X2.54668 Y-8.63092
X2.59748 Y-8.70712
X2.62288 Y-8.78332
X2.67368 Y-8.83412
X2.69908 Y-8.91032
X2.77528 Y-8.98652
X2.85148 Y-9.08812
X2.92768 Y-9.18972
X3.10548 Y-9.39292
X3.41028 Y-9.69772
X3.61348 Y-9.87552
X3.71508 Y-9.95172
X3.81668 Y-10.02792
X3.91828 Y-10.10412
X3.99448 Y-10.12952
X4.04528 Y-10.18032
X4.12148 Y-10.20572
X4.17228 Y-10.25652
X4.24848 Y-10.30732
X4.32468 Y-10.33272
X4.35008 Y-10.35812
X4.42628 Y-10.38352
X4.45168 Y-10.40892
X4.52788 Y-10.43432
X4.55328 Y-10.45972
X4.62948 Y-10.48512
X4.70568 Y-10.51052
X4.73108 Y-10.53592
X4.80728 Y-10.56132
X4.88348 Y-10.58672
X4.95968 Y-10.61212
X5.03588 Y-10.63752
X5.06128 Y-10.66292
X5.13748 Y-10.66292
X5.16288 Y-10.68832
X5.21368 Y-10.68832
X5.23908 Y-10.71372
X5.31528 Y-10.71372
X5.34068 Y-10.73912
X5.41688 Y-10.73912
X5.44228 Y-10.76452
X5.51848 Y-10.76452
X5.54388 Y-10.78992
X5.67088 Y-10.78992
X5.69628 Y-10.81532
X5.84868 Y-10.81532
X5.87408 Y-10.84072
X6.10268 Y-10.84072
X6.12808 Y-10.86612
X7.55048 Y-10.86612
X7.57588 Y-10.84072
X7.80448 Y-10.84072
X7.82988 Y-10.81532
X7.98228 Y-10.81532
X8.00768 Y-10.78992
X8.13468 Y-10.78992
X8.16008 Y-10.76452
X8.23628 Y-10.76452
X8.26168 Y-10.73912
X8.33788 Y-10.73912
X8.36328 Y-10.71372
X8.43948 Y-10.71372
X8.46488 Y-10.68832
X8.54108 Y-10.68832
X8.56648 Y-10.66292
X8.61728 Y-10.66292
X8.64268 Y-10.63752
X8.71888 Y-10.61212
X8.79508 Y-10.58672
X8.87128 Y-10.56132
X8.94748 Y-10.53592
X8.97288 Y-10.51052
X9.02368 Y-10.51052
X9.04908 Y-10.48512
X9.12528 Y-10.45972
X9.15068 Y-10.43432
X9.22688 Y-10.40892
X9.25228 Y-10.38352
X9.32848 Y-10.35812
X9.35388 Y-10.33272
X9.43008 Y-10.30732
X9.48088 Y-10.25652
X9.55708 Y-10.23112
X9.60788 Y-10.18032
X9.68408 Y-10.12952
X9.76028 Y-10.10412
X9.83648 Y-10.02792
X9.93808 Y-9.95172
X10.03968 Y-9.87552
X10.24288 Y-9.69772
X10.54768 Y-9.39292
X10.72548 Y-9.18972
X10.80168 Y-9.08812
X10.87788 Y-8.98652
X10.95408 Y-8.88492
X10.97948 Y-8.80872
X11.03028 Y-8.75792
X11.08108 Y-8.68172
X11.10648 Y-8.60552
X11.15728 Y-8.55472
X11.18268 Y-8.47852
X11.20808 Y-8.45312
X11.23348 Y-8.37692
X11.25888 Y-8.35152
X11.28428 Y-8.27532
X11.30968 Y-8.24992
X11.33508 Y-8.17372
X11.36048 Y-8.14832
X11.36048 Y-8.09752
X11.38588 Y-8.07212
X11.41128 Y-7.99592
X11.43668 Y-7.91972
X11.46208 Y-7.84352
X11.48748 Y-7.76732
X11.51288 Y-7.74192
X11.51288 Y-7.69112
X11.53828 Y-7.66572
X11.53828 Y-7.58952
X11.56368 Y-7.56412
X11.56368 Y-7.48792
X11.58908 Y-7.46252
X11.58908 Y-7.38632
X11.61448 Y-7.36092
X11.61448 Y-7.28472
X11.63988 Y-7.25932
X11.63988 Y-7.13232
X11.66528 Y-7.10692
X11.66528 Y-6.95452
X11.69068 Y-6.92912
X11.69068 Y-6.70052
X11.71608 Y-6.67512
X11.71608 Y-5.25272
X11.69068 Y-5.22732
X11.69068 Y-4.99872
X11.66528 Y-4.97332
X11.66528 Y-4.82092
X11.63988 Y-4.79552
X11.63988 Y-4.66852
X11.61448 Y-4.64312
X11.61448 Y-4.56692
X11.58908 Y-4.54152
X11.58908 Y-4.46532
X11.56368 Y-4.43992
X11.56368 Y-4.36372
X11.53828 Y-4.33832
X11.53828 Y-4.26212
X11.51288 Y-4.23672
X11.51288 Y-4.18592
X11.48748 Y-4.16052
X11.46208 Y-4.08432
X11.43668 Y-4.00812
X11.41128 Y-3.93192
X11.38588 Y-3.85572
X11.36048 Y-3.83032
X11.36048 Y-3.77952
X11.33508 Y-3.75412
X11.30968 Y-3.67792
X11.28428 Y-3.65252
X11.25888 Y-3.57632
X11.23348 Y-3.55092
X11.20808 Y-3.47472
X11.18268 Y-3.44932
X11.15728 Y-3.37312
X11.10648 Y-3.32232
X11.08108 Y-3.24612
X11.03028 Y-3.19532
X10.97948 Y-3.11912
X10.95408 Y-3.04292
X10.87788 Y-2.96672
X10.80168 Y-2.86512
X10.72548 Y-2.76352
X10.54768 Y-2.56032
X10.24288 Y-2.25552
X10.03968 Y-2.07772
X9.93808 Y-2.00152
X9.83648 Y-1.92532
X9.73488 Y-1.84912
X9.65868 Y-1.82372
X9.60788 Y-1.77292
X9.53168 Y-1.72212
X9.45548 Y-1.69672
X9.40468 Y-1.64592
X9.32848 Y-1.62052
X9.30308 Y-1.59512
X9.22688 Y-1.56972
X9.20148 Y-1.54432
X9.12528 Y-1.51892
X9.09988 Y-1.49352
X9.02368 Y-1.46812
X8.99828 Y-1.44272
X8.94748 Y-1.44272
X8.92208 Y-1.41732
X8.84588 Y-1.39192
X8.76968 Y-1.36652
X8.69348 Y-1.34112
X8.61728 Y-1.31572
X8.59188 Y-1.29032
X8.54108 Y-1.29032
X8.51568 Y-1.26492
X5.11208 Y-1.26492
X5.08668 Y-1.29032
X5.03588 Y-1.29032
X5.01048 Y-1.31572
X4.93428 Y-1.34112
X4.85808 Y-1.36652
X4.78188 Y-1.39192
X4.70568 Y-1.41732
X4.68028 Y-1.44272
X4.60408 Y-1.46812
X4.57868 Y-1.49352
G04 P0 ( dwell for no time -- G64 should not smooth over this point )
G00 Z3.00000 ( retract )

G00 X13.59568 Y-9.87552 ( rapid move to begin. )
G01 Z-0.20000
G04 P0 ( dwell for no time -- G64 should not smooth over this point )
X13.59568 Y-9.87552
X12.22408 Y-11.22172
X8.33788 Y-15.10792
X8.28708 Y-15.18412
X8.26168 Y-15.26032
X8.23628 Y-15.28572
X8.23628 Y-15.33652
X8.21088 Y-15.36192
X8.21088 Y-15.43812
X8.18548 Y-15.46352
X8.18548 Y-93.79712
X8.16008 Y-93.82252
X8.13468 Y-93.89872
X8.10928 Y-93.92412
X8.10928 Y-93.97492
X8.08388 Y-94.00032
X8.08388 Y-94.05112
X8.05848 Y-94.07652
X8.05848 Y-95.29572
X8.08388 Y-95.32112
X8.08388 Y-95.37192
X8.10928 Y-95.39732
X8.10928 Y-95.44812
X8.13468 Y-95.47352
X8.16008 Y-95.54972
X8.18548 Y-95.57512
X8.38868 Y-95.77832
X8.46488 Y-95.80372
X8.51568 Y-95.85452
X8.59188 Y-95.87992
X8.61728 Y-95.90532
X8.66808 Y-95.90532
X8.69348 Y-95.93072
X8.82048 Y-95.93072
X8.84588 Y-95.95612
X9.86188 Y-95.95612
X9.88728 Y-95.93072
X10.01428 Y-95.93072
X10.03968 Y-95.90532
X10.09048 Y-95.90532
X10.11588 Y-95.87992
X10.19208 Y-95.85452
X10.24288 Y-95.80372
X10.31908 Y-95.77832
X10.49688 Y-95.57512
X10.52228 Y-95.49892
X10.52228 Y-95.42272
X10.54768 Y-95.39732
X10.54768 Y-95.24492
X10.57308 Y-95.21952
X10.57308 Y-94.10192
X10.54768 Y-94.07652
X10.54768 Y-93.92412
X10.52228 Y-93.89872
X10.52228 Y-93.79712
X10.49688 Y-93.77172
X10.47148 Y-93.69552
X10.47148 Y-16.63192
X11.71608 Y-15.41272
X15.39908 Y-11.75512
X19.38688 Y-11.75512
X19.41228 Y-11.72972
X20.68228 Y-11.72972
X20.70768 Y-11.75512
X23.19688 Y-11.75512
X23.22228 Y-11.72972
X24.49228 Y-11.72972
X24.51768 Y-11.75512
X27.00688 Y-11.75512
X27.03228 Y-11.72972
X28.30228 Y-11.72972
X28.32768 Y-11.75512
X30.81688 Y-11.75512
X30.84228 Y-11.72972
X32.11228 Y-11.72972
X32.13768 Y-11.75512
X47.27608 Y-11.75512
X48.31748 Y-12.79652
X48.36828 Y-12.79652
X48.39368 Y-12.82192
X48.44448 Y-12.82192
X48.49528 Y-12.87272
X48.54608 Y-12.87272
X48.59688 Y-12.92352
X48.64768 Y-12.92352
X48.77468 Y-13.05052
X48.85088 Y-13.07592
X49.10488 Y-13.35532
X49.13028 Y-13.43152
X49.20648 Y-13.50772
X49.20648 Y-13.55852
X49.28268 Y-13.63472
X49.28268 Y-13.68552
X49.30808 Y-13.71092
X49.30808 Y-13.76172
X49.33348 Y-13.78712
X49.33348 Y-13.83792
X49.35888 Y-13.86332
X49.35888 Y-17.80032
X46.48868 Y-20.64512
X43.97408 Y-20.64512
X43.94868 Y-20.61972
X43.87248 Y-20.56892
X43.79628 Y-20.54352
X43.74548 Y-20.49272
X43.66928 Y-20.46732
X43.64388 Y-20.44192
X43.56768 Y-20.44192
X43.54228 Y-20.41652
X43.41528 Y-20.41652
X43.38988 Y-20.39112
X43.31368 Y-20.39112
X42.42468 Y-19.50212
X42.34848 Y-19.47672
X42.32308 Y-19.45132
X42.24688 Y-19.42592
X42.17068 Y-19.40052
X42.11988 Y-19.40052
X42.09448 Y-19.37512
X39.19888 Y-19.37512
X39.12268 Y-19.29892
X39.04648 Y-19.24812
X38.97028 Y-19.22272
X37.21768 Y-19.22272
X37.19228 Y-19.24812
X37.11608 Y-19.29892
X36.96368 Y-19.45132
X36.91288 Y-19.52752
X36.88748 Y-19.60372
X36.83668 Y-19.65452
X36.81128 Y-19.73072
X36.78588 Y-19.75612
X36.78588 Y-19.83232
X36.76048 Y-19.85772
X36.76048 Y-19.98472
X36.73508 Y-20.01012
X36.73508 Y-21.02612
X36.76048 Y-21.05152
X36.76048 Y-21.17852
X36.78588 Y-21.20392
X36.78588 Y-21.28012
X36.81128 Y-21.30552
X36.83668 Y-21.38172
X36.86208 Y-21.38172
X36.22708 Y-22.01672
X35.87148 Y-22.39772
X35.87148 Y-22.44852
X35.84608 Y-22.47392
X35.84608 Y-22.55012
X35.82068 Y-22.57552
X35.82068 Y-22.65172
X35.79528 Y-22.67712
X35.79528 Y-22.80412
X35.76988 Y-22.82952
X35.76988 Y-23.43912
X35.74448 Y-23.46452
X35.74448 Y-23.64232
X35.71908 Y-23.66772
X35.71908 Y-23.76932
X35.69368 Y-23.79472
X35.69368 Y-23.87092
X35.66828 Y-23.89632
X35.59208 Y-23.97252
X35.51588 Y-24.02332
X35.46508 Y-24.02332
X35.41428 Y-24.07412
X35.36348 Y-24.07412
X35.28728 Y-24.15032
X35.21108 Y-24.20112
X34.85548 Y-24.55672
X34.83008 Y-24.63292
X34.77928 Y-24.68372
X34.75388 Y-24.75992
X34.70308 Y-24.81072
X34.70308 Y-24.86152
X34.67768 Y-24.88692
X34.67768 Y-24.93772
X34.65228 Y-24.96312
X34.65228 Y-25.49652
X34.67768 Y-25.52192
X34.67768 Y-25.57272
X34.70308 Y-25.59812
X34.70308 Y-25.64892
X34.72848 Y-25.67432
X34.72848 Y-25.72512
X34.75388 Y-25.75052
X34.75388 Y-25.80132
X34.80468 Y-25.85212
X34.80468 Y-25.90292
X34.85548 Y-25.95372
X34.88088 Y-26.02992
X35.00788 Y-26.15692
X35.16028 Y-26.30932
X35.33808 Y-26.46172
X35.41428 Y-26.48712
X35.46508 Y-26.53792
X35.54128 Y-26.56332
X35.56668 Y-26.58872
X35.61748 Y-26.58872
X35.66828 Y-26.63952
X35.71908 Y-26.63952
X35.74448 Y-26.66492
X35.79528 Y-26.66492
X35.82068 Y-26.69032
X35.87148 Y-26.69032
X35.89688 Y-26.71572
X36.55728 Y-26.71572
X36.58268 Y-26.69032
X36.70968 Y-26.69032
X36.73508 Y-26.66492
X36.81128 Y-26.66492
X36.83668 Y-26.63952
X36.91288 Y-26.61412
X36.96368 Y-26.56332
X37.03988 Y-26.53792
X37.09068 Y-26.48712
X37.24308 Y-26.33472
X37.29388 Y-26.25852
X37.31928 Y-26.18232
X37.34468 Y-26.15692
X37.37008 Y-26.08072
X37.37008 Y-26.02992
X37.39548 Y-26.00452
X37.39548 Y-25.95372
X37.42088 Y-25.92832
X37.42088 Y-25.77592
X37.70028 Y-25.49652
X37.70028 Y-25.44572
X37.72568 Y-25.42032
X37.72568 Y-25.34412
X37.75108 Y-25.31872
X37.75108 Y-25.24252
X37.77648 Y-25.21712
X37.77648 Y-25.09012
X37.80188 Y-25.06472
X37.80188 Y-24.53132
X37.82728 Y-24.50592
X37.82728 Y-24.35352
X37.85268 Y-24.32812
X37.85268 Y-24.22652
X37.87808 Y-24.20112
X37.87808 Y-24.12492
X37.90348 Y-24.09952
X37.90348 Y-24.04872
X37.92888 Y-24.02332
X38.66548 Y-23.26132
X39.09728 Y-22.80412
X39.14808 Y-22.72792
X39.17348 Y-22.65172
X39.19888 Y-22.62632
X39.19888 Y-22.57552
X39.22428 Y-22.55012
X39.22428 Y-22.47392
X39.24968 Y-22.44852
X39.24968 Y-21.66112
X40.92608 Y-21.66112
X41.51028 Y-22.27072
X41.51028 Y-22.39772
X41.53568 Y-22.42312
X41.53568 Y-22.47392
X41.56108 Y-22.49932
X41.56108 Y-22.57552
X41.58648 Y-22.60092
X41.61188 Y-22.67712
X41.63728 Y-22.70252
X41.68808 Y-22.77872
X41.84048 Y-22.93112
X41.91668 Y-22.98192
X41.99288 Y-23.00732
X42.04368 Y-23.05812
X42.11988 Y-23.08352
X42.14528 Y-23.10892
X42.22148 Y-23.10892
X42.24688 Y-23.13432
X42.37388 Y-23.13432
X42.39928 Y-23.15972
X43.41528 Y-23.15972
X43.44068 Y-23.13432
X43.56768 Y-23.13432
X43.59308 Y-23.10892
X43.66928 Y-23.10892
X43.69468 Y-23.08352
X43.77088 Y-23.05812
X43.82168 Y-23.00732
X43.89788 Y-22.98192
X43.94868 Y-22.93112
X47.70788 Y-22.93112
X47.73328 Y-22.90572
X47.80948 Y-22.90572
X47.83488 Y-22.88032
X47.88568 Y-22.88032
X47.91108 Y-22.85492
X47.98728 Y-22.82952
X48.01268 Y-22.80412
X51.21308 Y-19.62912
X55.65808 Y-19.62912
X67.90088 Y-31.87192
X67.97708 Y-31.89732
X68.02788 Y-31.94812
X68.10408 Y-31.97352
X68.25648 Y-32.12592
X68.40888 Y-32.27832
X68.53588 Y-32.43072
X68.56128 Y-32.50692
X68.61208 Y-32.55772
X68.61208 Y-32.60852
X77.55288 Y-41.54932
X77.55288 Y-106.70032
X77.45128 Y-106.80192
X77.42588 Y-106.87812
X69.78048 Y-114.49812
X69.70428 Y-114.52352
X67.82468 Y-116.40312
X45.49808 Y-116.40312
X45.47268 Y-116.37772
X45.39648 Y-116.32692
X45.32028 Y-116.30152
X45.26948 Y-116.25072
X45.19328 Y-116.22532
X45.16788 Y-116.19992
X45.09168 Y-116.19992
X45.06628 Y-116.17452
X44.93928 Y-116.17452
X44.91388 Y-116.14912
X43.89788 Y-116.14912
X43.87248 Y-116.17452
X43.74548 Y-116.17452
X43.72008 Y-116.19992
X43.64388 Y-116.19992
X43.61848 Y-116.22532
X43.54228 Y-116.25072
X43.49148 Y-116.30152
X43.41528 Y-116.32692
X43.36448 Y-116.37772
X43.21208 Y-116.53012
X43.16128 Y-116.60632
X43.13588 Y-116.68252
X43.11048 Y-116.70792
X43.08508 Y-116.78412
X43.08508 Y-116.83492
X43.05968 Y-116.86032
X43.05968 Y-116.91112
X43.03428 Y-116.93652
X43.03428 Y-118.15572
X43.05968 Y-118.18112
X43.05968 Y-118.23192
X43.08508 Y-118.25732
X43.08508 Y-118.33352
X43.11048 Y-118.35892
X43.13588 Y-118.43512
X43.16128 Y-118.46052
X43.21208 Y-118.53672
X43.36448 Y-118.68912
X43.44068 Y-118.73992
X43.51688 Y-118.76532
X43.56768 Y-118.81612
X43.64388 Y-118.84152
X43.66928 Y-118.86692
X43.74548 Y-118.86692
X43.77088 Y-118.89232
X43.89788 Y-118.89232
X43.92328 Y-118.91772
X44.93928 Y-118.91772
X44.96468 Y-118.89232
X45.09168 Y-118.89232
X45.11708 Y-118.86692
X45.19328 Y-118.86692
X45.21868 Y-118.84152
X45.29488 Y-118.81612
X45.34568 Y-118.76532
X45.42188 Y-118.73992
X45.47268 Y-118.68912
X69.04388 Y-118.68912
X69.06928 Y-118.66372
X69.14548 Y-118.66372
X69.17088 Y-118.63832
X69.22168 Y-118.63832
X69.24708 Y-118.61292
X69.32328 Y-118.58752
X69.34868 Y-118.56212
X72.62528 Y-115.28552
X72.65068 Y-115.20932
X72.82848 Y-115.03152
X72.90468 Y-114.92992
X73.76828 Y-114.06632
X73.86988 Y-113.99012
X74.07308 Y-113.81232
X74.14928 Y-113.78692
X79.68648 Y-108.22432
X79.73728 Y-108.14812
X79.76268 Y-108.07192
X79.78808 Y-108.04652
X79.78808 Y-107.99572
X79.81348 Y-107.97032
X79.81348 Y-107.89412
X79.83888 Y-107.86872
X79.83888 Y-77.23632
X79.96588 Y-77.23632
X79.99128 Y-77.26172
X81.00728 Y-77.26172
X81.03268 Y-77.23632
X81.15968 Y-77.23632
X81.18508 Y-77.21092
X81.26128 Y-77.21092
X81.28668 Y-77.18552
X81.36288 Y-77.16012
X81.41368 Y-77.10932
X81.48988 Y-77.08392
X81.54068 Y-77.03312
X81.69308 Y-76.88072
X81.71848 Y-76.80452
X81.71848 Y-74.89952
X81.69308 Y-74.87412
X81.54068 Y-74.72172
X81.46448 Y-74.67092
X81.38828 Y-74.64552
X81.33748 Y-74.59472
X81.26128 Y-74.56932
X81.23588 Y-74.54392
X81.15968 Y-74.54392
X81.13428 Y-74.51852
X81.00728 Y-74.51852
X80.98188 Y-74.49312
X79.96588 Y-74.49312
X79.94048 Y-74.51852
X79.83888 Y-74.51852
X79.83888 Y-40.33012
X79.81348 Y-40.30472
X79.81348 Y-40.22852
X79.78808 Y-40.20312
X79.78808 Y-40.15232
X79.76268 Y-40.12692
X79.73728 Y-40.05072
X79.68648 Y-39.99992
X57.15668 Y-17.47012
X57.08048 Y-17.44472
X57.05508 Y-17.41932
X56.97888 Y-17.39392
X56.90268 Y-17.36852
X56.85188 Y-17.36852
X56.82648 Y-17.34312
X51.64488 Y-17.34312
X51.64488 Y-12.64412
X51.61948 Y-12.61872
X51.61948 Y-12.54252
X51.59408 Y-12.51712
X51.59408 Y-12.46632
X51.56868 Y-12.44092
X51.54328 Y-12.36472
X51.49248 Y-12.31392
X48.77468 Y-9.59612
X48.69848 Y-9.57072
X48.67308 Y-9.54532
X48.59688 Y-9.51992
X48.52068 Y-9.49452
X48.46988 Y-9.49452
X48.44448 Y-9.46912
X14.17988 Y-9.46912
X14.15448 Y-9.49452
X14.07828 Y-9.49452
X14.05288 Y-9.51992
X14.00208 Y-9.51992
X13.97668 Y-9.54532
X13.90048 Y-9.57072
X13.87508 Y-9.59612
X13.59568 Y-9.87552
G04 P0 ( dwell for no time -- G64 should not smooth over this point )
G00 Z3.00000 ( retract )

G00 X30.30888 Y-12.08532 ( rapid move to begin. )
G01 Z-0.20000
G04 P0 ( dwell for no time -- G64 should not smooth over this point )
X30.30888 Y-12.08532
X30.28348 Y-12.11072
X30.25808 Y-12.18692
X30.23268 Y-12.21232
X30.23268 Y-12.26312
X30.20728 Y-12.28852
X30.20728 Y-12.33932
X30.18188 Y-12.36472
X30.18188 Y-13.58392
X30.20728 Y-13.60932
X30.20728 Y-13.66012
X30.23268 Y-13.68552
X30.23268 Y-13.73632
X30.25808 Y-13.76172
X30.28348 Y-13.83792
X30.30888 Y-13.86332
X30.51208 Y-14.06652
X30.58828 Y-14.09192
X30.63908 Y-14.14272
X30.71528 Y-14.16812
X30.74068 Y-14.19352
X30.79148 Y-14.19352
X30.81688 Y-14.21892
X30.94388 Y-14.21892
X30.96928 Y-14.24432
X31.98528 Y-14.24432
X32.01068 Y-14.21892
X32.13768 Y-14.21892
X32.16308 Y-14.19352
X32.21388 Y-14.19352
X32.23928 Y-14.16812
X32.31548 Y-14.14272
X32.34088 Y-14.11732
X33.38228 Y-14.11732
X35.71908 Y-16.45412
X35.79528 Y-16.47952
X35.82068 Y-16.50492
X35.89688 Y-16.53032
X35.97308 Y-16.55572
X36.02388 Y-16.55572
X36.04928 Y-16.58112
X36.73508 Y-16.58112
X36.73508 Y-16.80972
X37.11608 Y-16.80972
X37.14148 Y-16.78432
X37.21768 Y-16.78432
X37.24308 Y-16.75892
X37.34468 Y-16.75892
X37.37008 Y-16.73352
X37.52248 Y-16.73352
X37.54788 Y-16.70812
X38.71628 Y-16.70812
X38.74168 Y-16.73352
X38.89408 Y-16.73352
X38.91948 Y-16.75892
X39.02108 Y-16.75892
X39.04648 Y-16.78432
X39.12268 Y-16.78432
X39.14808 Y-16.80972
X39.50368 Y-16.80972
X39.50368 Y-16.58112
X40.84988 Y-16.58112
X40.87528 Y-16.55572
X40.95148 Y-16.55572
X40.97688 Y-16.53032
X41.02768 Y-16.53032
X41.05308 Y-16.50492
X41.12928 Y-16.47952
X41.15468 Y-16.45412
X41.56108 Y-16.04772
X41.58648 Y-15.97152
X41.63728 Y-15.92072
X41.66268 Y-15.84452
X42.01828 Y-15.51432
X42.09448 Y-15.46352
X42.19608 Y-15.38732
X42.24688 Y-15.38732
X42.32308 Y-15.31112
X46.94588 Y-15.31112
X46.99668 Y-15.36192
X47.07288 Y-15.38732
X47.12368 Y-15.43812
X48.85088 Y-15.43812
X48.90168 Y-15.38732
X48.97788 Y-15.36192
X49.02868 Y-15.31112
X49.18108 Y-15.15872
X49.23188 Y-15.08252
X49.25728 Y-15.00632
X49.28268 Y-14.98092
X49.30808 Y-14.90472
X49.30808 Y-14.85392
X49.33348 Y-14.82852
X49.33348 Y-14.77772
X49.35888 Y-14.75232
X49.35888 Y-13.83792
X49.33348 Y-13.81252
X49.33348 Y-13.76172
X49.30808 Y-13.73632
X49.30808 Y-13.68552
X49.28268 Y-13.66012
X49.28268 Y-13.60932
X49.20648 Y-13.53312
X49.20648 Y-13.48232
X49.13028 Y-13.40612
X49.10488 Y-13.32992
X48.82548 Y-13.07592
X48.74928 Y-13.05052
X48.62228 Y-12.92352
X48.57148 Y-12.92352
X48.52068 Y-12.87272
X48.46988 Y-12.87272
X48.41908 Y-12.82192
X48.36828 Y-12.82192
X48.34288 Y-12.79652
X48.29208 Y-12.79652
X48.26668 Y-12.77112
X47.45388 Y-12.77112
X47.42848 Y-12.79652
X47.30148 Y-12.79652
X47.27608 Y-12.82192
X47.19988 Y-12.82192
X47.17448 Y-12.84732
X47.09828 Y-12.87272
X47.04748 Y-12.92352
X46.97128 Y-12.94892
X46.92048 Y-12.99972
X46.84428 Y-13.02512
X41.10388 Y-13.02512
X41.07848 Y-13.05052
X41.00228 Y-13.05052
X40.97688 Y-13.07592
X40.92608 Y-13.07592
X40.90068 Y-13.10132
X40.82448 Y-13.12672
X40.79908 Y-13.15212
X39.63068 Y-14.29512
X39.50368 Y-14.29512
X39.50368 Y-14.01572
X36.93828 Y-14.01572
X34.88088 Y-11.95832
X34.80468 Y-11.93292
X34.77928 Y-11.90752
X34.70308 Y-11.88212
X34.62688 Y-11.85672
X34.57608 Y-11.85672
X34.55068 Y-11.83132
X32.34088 Y-11.83132
X32.29008 Y-11.78052
X32.21388 Y-11.75512
X32.11228 Y-11.75512
X32.08688 Y-11.72972
X30.81688 Y-11.72972
X30.79148 Y-11.75512
X30.66448 Y-11.75512
X30.63908 Y-11.78052
X30.56288 Y-11.83132
X30.48668 Y-11.85672
X30.30888 Y-12.05992
X30.30888 Y-12.08532
G04 P0 ( dwell for no time -- G64 should not smooth over this point )
G00 Z3.00000 ( retract )

G00 X22.68888 Y-12.08532 ( rapid move to begin. )
G01 Z-0.20000
G04 P0 ( dwell for no time -- G64 should not smooth over this point )
X22.68888 Y-12.08532
X22.66348 Y-12.11072
X22.63808 Y-12.18692
X22.61268 Y-12.21232
X22.61268 Y-12.26312
X22.58728 Y-12.28852
X22.58728 Y-12.33932
X22.56188 Y-12.36472
X22.56188 Y-13.58392
X22.58728 Y-13.60932
X22.58728 Y-13.66012
X22.61268 Y-13.68552
X22.61268 Y-13.73632
X22.63808 Y-13.76172
X22.66348 Y-13.83792
X22.68888 Y-13.86332
X22.89208 Y-14.06652
X22.96828 Y-14.09192
X23.01908 Y-14.14272
X23.09528 Y-14.16812
X23.12068 Y-14.19352
X23.17148 Y-14.19352
X23.19688 Y-14.21892
X23.32388 Y-14.21892
X23.34928 Y-14.24432
X24.36528 Y-14.24432
X24.39068 Y-14.21892
X24.51768 Y-14.21892
X24.54308 Y-14.19352
X24.59388 Y-14.19352
X24.61928 Y-14.16812
X24.69548 Y-14.14272
X24.72088 Y-14.11732
X26.80368 Y-14.11732
X26.82908 Y-14.14272
X26.90528 Y-14.16812
X26.93068 Y-14.19352
X26.98148 Y-14.19352
X27.00688 Y-14.21892
X27.13388 Y-14.21892
X27.15928 Y-14.24432
X28.17528 Y-14.24432
X28.20068 Y-14.21892
X28.32768 Y-14.21892
X28.35308 Y-14.19352
X28.40388 Y-14.19352
X28.42928 Y-14.16812
X28.50548 Y-14.14272
X28.55628 Y-14.09192
X28.63248 Y-14.06652
X28.81028 Y-13.86332
X28.83568 Y-13.78712
X28.86108 Y-13.76172
X28.88648 Y-13.68552
X28.91188 Y-13.60932
X28.93728 Y-13.53312
X28.93728 Y-12.33932
X28.91188 Y-12.31392
X28.91188 Y-12.26312
X28.88648 Y-12.23772
X28.88648 Y-12.18692
X28.86108 Y-12.16152
X28.83568 Y-12.08532
X28.81028 Y-12.05992
X28.60708 Y-11.85672
X28.53088 Y-11.83132
X28.48008 Y-11.78052
X28.40388 Y-11.75512
X28.30228 Y-11.75512
X28.27688 Y-11.72972
X27.00688 Y-11.72972
X26.98148 Y-11.75512
X26.85448 Y-11.75512
X26.82908 Y-11.78052
X26.75288 Y-11.83132
X24.72088 Y-11.83132
X24.67008 Y-11.78052
X24.59388 Y-11.75512
X24.49228 Y-11.75512
X24.46688 Y-11.72972
X23.19688 Y-11.72972
X23.17148 Y-11.75512
X23.04448 Y-11.75512
X23.01908 Y-11.78052
X22.94288 Y-11.83132
X22.86668 Y-11.85672
X22.68888 Y-12.05992
X22.68888 Y-12.08532
G04 P0 ( dwell for no time -- G64 should not smooth over this point )
G00 Z3.00000 ( retract )

G00 X18.87888 Y-12.08532 ( rapid move to begin. )
G01 Z-0.20000
G04 P0 ( dwell for no time -- G64 should not smooth over this point )
X18.87888 Y-12.08532
X18.85348 Y-12.11072
X18.82808 Y-12.18692
X18.80268 Y-12.21232
X18.80268 Y-12.26312
X18.77728 Y-12.28852
X18.77728 Y-12.33932
X18.75188 Y-12.36472
X18.75188 Y-12.41552
X18.62488 Y-12.51712
X16.46588 Y-12.51712
X16.44048 Y-12.54252
X16.36428 Y-12.54252
X16.33888 Y-12.56792
X16.28808 Y-12.56792
X16.26268 Y-12.59332
X16.18648 Y-12.61872
X16.16108 Y-12.64412
X14.48468 Y-14.29512
X13.92588 Y-14.29512
X13.90048 Y-14.32052
X13.72268 Y-14.32052
X13.69728 Y-14.34592
X13.64648 Y-14.34592
X13.62108 Y-14.37132
X13.57028 Y-14.37132
X13.54488 Y-14.39672
X13.46868 Y-14.39672
X13.44328 Y-14.42212
X13.36708 Y-14.44752
X13.31628 Y-14.49832
X13.24008 Y-14.52372
X13.21468 Y-14.54912
X13.06228 Y-14.67612
X12.93528 Y-14.80312
X12.80828 Y-14.95552
X12.78288 Y-15.03172
X12.75748 Y-15.05712
X12.73208 Y-15.13332
X12.68128 Y-15.18412
X12.65588 Y-15.26032
X12.65588 Y-15.31112
X12.63048 Y-15.33652
X12.63048 Y-15.38732
X12.60508 Y-15.41272
X12.60508 Y-15.46352
X12.57968 Y-15.48892
X12.57968 Y-15.66672
X12.55428 Y-15.69212
X12.55428 Y-16.70812
X12.57968 Y-16.73352
X12.57968 Y-16.91132
X12.60508 Y-16.93672
X12.60508 Y-16.98752
X12.63048 Y-17.01292
X12.63048 Y-17.06372
X12.65588 Y-17.08912
X12.65588 Y-17.16532
X12.68128 Y-17.19072
X12.73208 Y-17.26692
X12.75748 Y-17.34312
X12.78288 Y-17.36852
X12.80828 Y-17.44472
X12.93528 Y-17.57172
X13.06228 Y-17.69872
X13.21468 Y-17.82572
X13.29088 Y-17.85112
X13.29088 Y-19.60372
X13.24008 Y-19.60372
X13.21468 Y-19.62912
X13.06228 Y-19.75612
X12.93528 Y-19.88312
X12.80828 Y-20.03552
X12.78288 Y-20.11172
X12.75748 Y-20.13712
X12.73208 Y-20.21332
X12.68128 Y-20.26412
X12.65588 Y-20.34032
X12.65588 Y-20.39112
X12.63048 Y-20.41652
X12.63048 Y-20.46732
X12.60508 Y-20.49272
X12.60508 Y-20.54352
X12.57968 Y-20.56892
X12.57968 Y-20.74672
X12.55428 Y-20.77212
X12.55428 Y-21.78812
X12.57968 Y-21.81352
X12.57968 Y-21.99132
X12.60508 Y-22.01672
X12.60508 Y-22.06752
X12.63048 Y-22.09292
X12.63048 Y-22.14372
X12.65588 Y-22.16912
X12.65588 Y-22.24532
X12.68128 Y-22.27072
X12.73208 Y-22.34692
X12.75748 Y-22.42312
X12.78288 Y-22.44852
X12.80828 Y-22.52472
X12.93528 Y-22.65172
X13.06228 Y-22.77872
X13.21468 Y-22.90572
X13.29088 Y-22.93112
X13.29088 Y-24.68372
X13.24008 Y-24.68372
X13.21468 Y-24.70912
X13.06228 Y-24.83612
X12.93528 Y-24.96312
X12.80828 Y-25.11552
X12.78288 Y-25.19172
X12.75748 Y-25.21712
X12.73208 Y-25.29332
X12.68128 Y-25.34412
X12.65588 Y-25.42032
X12.65588 Y-25.47112
X12.63048 Y-25.49652
X12.63048 Y-25.54732
X12.60508 Y-25.57272
X12.60508 Y-25.62352
X12.57968 Y-25.64892
X12.57968 Y-25.82672
X12.55428 Y-25.85212
X12.55428 Y-26.86812
X12.57968 Y-26.89352
X12.57968 Y-27.07132
X12.60508 Y-27.09672
X12.60508 Y-27.14752
X12.63048 Y-27.17292
X12.63048 Y-27.22372
X12.65588 Y-27.24912
X12.65588 Y-27.32532
X12.68128 Y-27.35072
X12.73208 Y-27.42692
X12.75748 Y-27.50312
X12.78288 Y-27.52852
X12.80828 Y-27.60472
X12.93528 Y-27.73172
X13.06228 Y-27.85872
X13.21468 Y-27.98572
X13.29088 Y-28.01112
X13.31628 Y-28.03652
X13.39248 Y-28.06192
X13.44328 Y-28.11272
X13.51948 Y-28.13812
X13.57028 Y-28.13812
X13.59568 Y-28.16352
X13.64648 Y-28.16352
X13.67188 Y-28.18892
X13.72268 Y-28.18892
X13.74808 Y-28.21432
X13.90048 Y-28.21432
X13.92588 Y-28.23972
X14.99268 Y-28.23972
X15.01808 Y-28.21432
X15.17048 Y-28.21432
X15.19588 Y-28.18892
X15.24668 Y-28.18892
X15.27208 Y-28.16352
X15.32288 Y-28.16352
X15.34828 Y-28.13812
X15.42448 Y-28.13812
X15.44988 Y-28.11272
X15.52608 Y-28.08732
X15.57688 Y-28.03652
X15.65308 Y-28.01112
X15.67848 Y-27.98572
X15.83088 Y-27.85872
X15.95788 Y-27.73172
X16.08488 Y-27.57932
X16.11028 Y-27.50312
X18.65028 Y-27.50312
X20.09808 Y-28.97632
X20.12348 Y-29.05252
X20.14888 Y-29.12872
X20.17428 Y-29.20492
X20.19968 Y-29.23032
X20.22508 Y-29.30652
X20.42828 Y-29.48432
X20.50448 Y-29.50972
X20.55528 Y-29.56052
X20.63148 Y-29.58592
X20.65688 Y-29.61132
X20.70768 Y-29.61132
X20.73308 Y-29.63672
X20.86008 Y-29.63672
X20.88548 Y-29.66212
X21.90148 Y-29.66212
X21.92688 Y-29.63672
X22.05388 Y-29.63672
X22.07928 Y-29.61132
X22.13008 Y-29.61132
X22.15548 Y-29.58592
X22.23168 Y-29.56052
X22.28248 Y-29.50972
X22.35868 Y-29.48432
X22.53648 Y-29.28112
X22.56188 Y-29.20492
X22.58728 Y-29.17952
X22.61268 Y-29.10332
X22.63808 Y-29.02712
X22.66348 Y-28.95092
X22.66348 Y-27.75712
X22.63808 Y-27.73172
X22.63808 Y-27.68092
X22.61268 Y-27.65552
X22.61268 Y-27.60472
X22.58728 Y-27.57932
X22.56188 Y-27.50312
X22.53648 Y-27.47772
X22.33328 Y-27.27452
X22.25708 Y-27.24912
X22.20628 Y-27.19832
X22.13008 Y-27.17292
X22.10468 Y-27.14752
X22.05388 Y-27.14752
X22.02848 Y-27.12212
X21.92688 Y-27.12212
X20.14888 Y-25.34412
X20.07268 Y-25.31872
X20.04728 Y-25.29332
X19.97108 Y-25.26792
X19.89488 Y-25.24252
X19.84408 Y-25.24252
X19.81868 Y-25.21712
X16.13568 Y-25.21712
X16.11028 Y-25.14092
X16.08488 Y-25.11552
X15.95788 Y-24.96312
X15.83088 Y-24.83612
X15.67848 Y-24.70912
X15.60228 Y-24.68372
X15.57688 Y-24.60752
X15.57688 Y-22.95652
X15.65308 Y-22.93112
X15.67848 Y-22.90572
X15.83088 Y-22.77872
X15.95788 Y-22.65172
X16.08488 Y-22.49932
X16.11028 Y-22.42312
X16.13568 Y-22.39772
X16.18648 Y-22.32152
X16.21188 Y-22.24532
X16.23728 Y-22.21992
X16.23728 Y-22.16912
X16.26268 Y-22.14372
X16.26268 Y-22.06752
X16.28808 Y-22.04212
X16.28808 Y-21.99132
X16.31348 Y-21.96592
X16.31348 Y-21.81352
X16.33888 Y-21.78812
X16.33888 Y-20.72132
X16.31348 Y-20.69592
X16.31348 Y-20.54352
X16.28808 Y-20.51812
X16.28808 Y-20.46732
X16.26268 Y-20.44192
X16.26268 Y-20.36572
X16.23728 Y-20.34032
X16.23728 Y-20.28952
X16.21188 Y-20.26412
X16.18648 Y-20.18792
X16.13568 Y-20.13712
X16.11028 Y-20.06092
X16.08488 Y-20.03552
X15.95788 Y-19.88312
X15.83088 Y-19.75612
X15.67848 Y-19.62912
X15.60228 Y-19.60372
X15.57688 Y-19.52752
X15.57688 Y-17.87652
X15.65308 Y-17.85112
X15.67848 Y-17.82572
X15.83088 Y-17.69872
X15.95788 Y-17.57172
X16.08488 Y-17.41932
X16.11028 Y-17.34312
X16.13568 Y-17.31772
X16.18648 Y-17.24152
X16.21188 Y-17.16532
X16.23728 Y-17.13992
X16.23728 Y-17.08912
X16.26268 Y-17.06372
X16.26268 Y-16.98752
X16.28808 Y-16.96212
X16.28808 Y-16.91132
X16.31348 Y-16.88592
X16.31348 Y-16.73352
X16.33888 Y-16.70812
X16.33888 Y-16.12392
X17.68508 Y-14.80312
X19.84408 Y-14.80312
X19.86948 Y-14.77772
X19.94568 Y-14.77772
X19.97108 Y-14.75232
X20.02188 Y-14.75232
X20.04728 Y-14.72692
X20.12348 Y-14.70152
X20.14888 Y-14.67612
X20.63148 Y-14.21892
X20.70768 Y-14.21892
X20.73308 Y-14.19352
X20.78388 Y-14.19352
X20.80928 Y-14.16812
X20.88548 Y-14.14272
X20.93628 Y-14.09192
X21.01248 Y-14.06652
X21.19028 Y-13.86332
X21.21568 Y-13.78712
X21.24108 Y-13.76172
X21.26648 Y-13.68552
X21.29188 Y-13.60932
X21.31728 Y-13.53312
X21.31728 Y-12.33932
X21.29188 Y-12.31392
X21.29188 Y-12.26312
X21.26648 Y-12.23772
X21.26648 Y-12.18692
X21.24108 Y-12.16152
X21.21568 Y-12.08532
X21.19028 Y-12.05992
X20.98708 Y-11.85672
X20.91088 Y-11.83132
X20.86008 Y-11.78052
X20.78388 Y-11.75512
X20.68228 Y-11.75512
X20.65688 Y-11.72972
X19.38688 Y-11.72972
X19.36148 Y-11.75512
X19.23448 Y-11.75512
X19.20908 Y-11.78052
X19.13288 Y-11.83132
X19.05668 Y-11.85672
X18.87888 Y-12.05992
X18.87888 Y-12.08532
G04 P0 ( dwell for no time -- G64 should not smooth over this point )
G00 Z3.00000 ( retract )

G00 X2.87688 Y-14.70152 ( rapid move to begin. )
G01 Z-0.20000
G04 P0 ( dwell for no time -- G64 should not smooth over this point )
X2.87688 Y-14.70152
X2.77528 Y-14.80312
X2.64828 Y-14.95552
X2.62288 Y-15.03172
X2.59748 Y-15.05712
X2.57208 Y-15.13332
X2.52128 Y-15.18412
X2.49588 Y-15.26032
X2.49588 Y-15.31112
X2.47048 Y-15.33652
X2.47048 Y-15.38732
X2.44508 Y-15.41272
X2.44508 Y-15.46352
X2.41968 Y-15.48892
X2.41968 Y-15.66672
X2.39428 Y-15.69212
X2.39428 Y-16.70812
X2.41968 Y-16.73352
X2.41968 Y-16.91132
X2.44508 Y-16.93672
X2.44508 Y-16.98752
X2.47048 Y-17.01292
X2.47048 Y-17.06372
X2.49588 Y-17.08912
X2.49588 Y-17.16532
X2.52128 Y-17.19072
X2.57208 Y-17.26692
X2.59748 Y-17.34312
X2.62288 Y-17.36852
X2.64828 Y-17.44472
X2.77528 Y-17.57172
X2.90228 Y-17.69872
X3.05468 Y-17.82572
X3.13088 Y-17.85112
X3.15628 Y-17.87652
X3.23248 Y-17.90192
X3.28328 Y-17.95272
X3.35948 Y-17.97812
X3.41028 Y-17.97812
X3.43568 Y-18.00352
X3.48648 Y-18.00352
X3.51188 Y-18.02892
X3.56268 Y-18.02892
X3.58808 Y-18.05432
X3.74048 Y-18.05432
X3.76588 Y-18.07972
X4.83268 Y-18.07972
X4.85808 Y-18.05432
X5.01048 Y-18.05432
X5.03588 Y-18.02892
X5.08668 Y-18.02892
X5.11208 Y-18.00352
X5.16288 Y-18.00352
X5.18828 Y-17.97812
X5.26448 Y-17.97812
X5.28988 Y-17.95272
X5.36608 Y-17.92732
X5.41688 Y-17.87652
X5.49308 Y-17.85112
X5.51848 Y-17.82572
X5.67088 Y-17.69872
X5.79788 Y-17.57172
X5.92488 Y-17.41932
X5.95028 Y-17.34312
X5.97568 Y-17.31772
X6.02648 Y-17.24152
X6.05188 Y-17.16532
X6.07728 Y-17.13992
X6.07728 Y-17.08912
X6.10268 Y-17.06372
X6.10268 Y-16.98752
X6.12808 Y-16.96212
X6.12808 Y-16.91132
X6.15348 Y-16.88592
X6.15348 Y-16.73352
X6.17888 Y-16.70812
X6.17888 Y-15.64132
X6.15348 Y-15.61592
X6.15348 Y-15.46352
X6.12808 Y-15.43812
X6.12808 Y-15.38732
X6.10268 Y-15.36192
X6.10268 Y-15.28572
X6.07728 Y-15.26032
X6.07728 Y-15.20952
X6.05188 Y-15.18412
X6.02648 Y-15.10792
X5.97568 Y-15.05712
X5.95028 Y-14.98092
X5.92488 Y-14.95552
X5.79788 Y-14.80312
X5.67088 Y-14.67612
X5.51848 Y-14.54912
X5.44228 Y-14.52372
X5.41688 Y-14.49832
X5.34068 Y-14.44752
X5.26448 Y-14.42212
X5.23908 Y-14.39672
X5.16288 Y-14.39672
X5.13748 Y-14.37132
X5.08668 Y-14.37132
X5.06128 Y-14.34592
X5.01048 Y-14.34592
X4.98508 Y-14.32052
X4.80728 Y-14.32052
X4.78188 Y-14.29512
X3.76588 Y-14.29512
X3.74048 Y-14.32052
X3.56268 Y-14.32052
X3.53728 Y-14.34592
X3.48648 Y-14.34592
X3.46108 Y-14.37132
X3.41028 Y-14.37132
X3.38488 Y-14.39672
X3.30868 Y-14.39672
X3.28328 Y-14.42212
X3.20708 Y-14.44752
X3.15628 Y-14.49832
X3.08008 Y-14.52372
X3.05468 Y-14.54912
X2.90228 Y-14.67612
X2.87688 Y-14.70152
G04 P0 ( dwell for no time -- G64 should not smooth over this point )
G00 Z3.00000 ( retract )

G00 X41.81508 Y-15.71752 ( rapid move to begin. )
G01 Z-0.20000
G04 P0 ( dwell for no time -- G64 should not smooth over this point )
X41.81508 Y-15.71752
X41.66268 Y-15.86992
X41.63728 Y-15.94612
X41.58648 Y-15.99692
X41.56108 Y-16.07312
X41.51028 Y-16.12392
X41.51028 Y-16.25092
X40.90068 Y-16.83512
X39.19888 Y-16.83512
X39.17348 Y-16.80972
X39.12268 Y-16.80972
X39.09728 Y-16.78432
X39.02108 Y-16.78432
X38.99568 Y-16.75892
X38.89408 Y-16.75892
X38.86868 Y-16.73352
X38.71628 Y-16.73352
X38.69088 Y-16.70812
X37.52248 Y-16.70812
X37.49708 Y-16.73352
X37.34468 Y-16.73352
X37.31928 Y-16.75892
X37.21768 Y-16.75892
X37.19228 Y-16.78432
X37.11608 Y-16.78432
X37.09068 Y-16.80972
X37.03988 Y-16.80972
X37.01448 Y-16.83512
X36.02388 Y-16.83512
X35.99848 Y-16.86052
X35.92228 Y-16.86052
X35.89688 Y-16.88592
X35.84608 Y-16.88592
X35.82068 Y-16.91132
X35.74448 Y-16.93672
X35.71908 Y-16.96212
X33.76328 Y-18.91792
X33.71248 Y-18.99412
X33.68708 Y-19.07032
X33.66168 Y-19.09572
X33.66168 Y-19.14652
X33.63628 Y-19.17192
X33.63628 Y-19.24812
X33.61088 Y-19.27352
X33.61088 Y-22.37232
X32.72188 Y-23.26132
X32.72188 Y-23.31212
X32.69648 Y-23.33752
X32.69648 Y-23.38832
X32.67108 Y-23.41372
X32.67108 Y-23.46452
X32.62028 Y-23.51532
X32.59488 Y-23.59152
X32.51868 Y-23.66772
X32.49328 Y-23.74392
X32.29008 Y-23.92172
X32.21388 Y-23.94712
X32.08688 Y-24.07412
X32.03608 Y-24.07412
X31.98528 Y-24.12492
X31.93448 Y-24.12492
X31.88368 Y-24.17572
X31.83288 Y-24.17572
X31.80748 Y-24.20112
X31.75668 Y-24.20112
X31.50268 Y-24.45512
X28.40388 Y-24.45512
X28.37848 Y-24.48052
X28.30228 Y-24.48052
X28.27688 Y-24.50592
X28.22608 Y-24.50592
X28.20068 Y-24.53132
X28.12448 Y-24.55672
X28.09908 Y-24.58212
X25.88928 Y-26.79192
X25.83848 Y-26.86812
X25.81308 Y-26.94432
X25.78768 Y-26.96972
X25.78768 Y-27.02052
X25.76228 Y-27.04592
X25.76228 Y-27.12212
X25.73688 Y-27.14752
X25.73688 Y-27.45232
X22.86668 Y-30.29712
X16.13568 Y-30.29712
X16.11028 Y-30.22092
X16.08488 Y-30.19552
X15.95788 Y-30.04312
X15.83088 Y-29.91612
X15.67848 Y-29.78912
X15.60228 Y-29.76372
X15.57688 Y-29.73832
X15.50068 Y-29.68752
X15.42448 Y-29.66212
X15.39908 Y-29.63672
X15.32288 Y-29.63672
X15.29748 Y-29.61132
X15.24668 Y-29.61132
X15.22128 Y-29.58592
X15.17048 Y-29.58592
X15.14508 Y-29.56052
X14.96728 Y-29.56052
X14.94188 Y-29.53512
X13.92588 Y-29.53512
X13.90048 Y-29.56052
X13.72268 Y-29.56052
X13.69728 Y-29.58592
X13.64648 Y-29.58592
X13.62108 Y-29.61132
X13.57028 Y-29.61132
X13.54488 Y-29.63672
X13.46868 Y-29.63672
X13.44328 Y-29.66212
X13.36708 Y-29.68752
X13.31628 Y-29.73832
X13.24008 Y-29.76372
X13.21468 Y-29.78912
X13.06228 Y-29.91612
X12.93528 Y-30.04312
X12.80828 Y-30.19552
X12.78288 Y-30.27172
X12.75748 Y-30.29712
X12.73208 Y-30.37332
X12.68128 Y-30.42412
X12.65588 Y-30.50032
X12.65588 Y-30.55112
X12.63048 Y-30.57652
X12.63048 Y-30.62732
X12.60508 Y-30.65272
X12.60508 Y-30.70352
X12.57968 Y-30.72892
X12.57968 Y-30.90672
X12.55428 Y-30.93212
X12.55428 Y-31.94812
X12.57968 Y-31.97352
X12.57968 Y-32.15132
X12.60508 Y-32.17672
X12.60508 Y-32.22752
X12.63048 Y-32.25292
X12.63048 Y-32.30372
X12.65588 Y-32.32912
X12.65588 Y-32.40532
X12.68128 Y-32.43072
X12.73208 Y-32.50692
X12.75748 Y-32.58312
X12.78288 Y-32.60852
X12.80828 Y-32.68472
X12.93528 Y-32.81172
X13.06228 Y-32.93872
X13.21468 Y-33.06572
X13.29088 Y-33.09112
X13.29088 Y-34.84372
X13.24008 Y-34.84372
X13.21468 Y-34.86912
X13.06228 Y-34.99612
X12.93528 Y-35.12312
X12.80828 Y-35.27552
X12.78288 Y-35.35172
X12.75748 Y-35.37712
X12.73208 Y-35.45332
X12.68128 Y-35.50412
X12.65588 Y-35.58032
X12.65588 Y-35.63112
X12.63048 Y-35.65652
X12.63048 Y-35.70732
X12.60508 Y-35.73272
X12.60508 Y-35.78352
X12.57968 Y-35.80892
X12.57968 Y-35.98672
X12.55428 Y-36.01212
X12.55428 Y-37.02812
X12.57968 Y-37.05352
X12.57968 Y-37.23132
X12.60508 Y-37.25672
X12.60508 Y-37.30752
X12.63048 Y-37.33292
X12.63048 Y-37.38372
X12.65588 Y-37.40912
X12.65588 Y-37.48532
X12.68128 Y-37.51072
X12.73208 Y-37.58692
X12.75748 Y-37.66312
X12.78288 Y-37.68852
X12.80828 Y-37.76472
X12.93528 Y-37.89172
X13.06228 Y-38.01872
X13.21468 Y-38.14572
X13.29088 Y-38.17112
X13.29088 Y-39.92372
X13.24008 Y-39.92372
X13.21468 Y-39.94912
X13.06228 Y-40.07612
X12.93528 Y-40.20312
X12.80828 Y-40.35552
X12.78288 Y-40.43172
X12.75748 Y-40.45712
X12.73208 Y-40.53332
X12.68128 Y-40.58412
X12.65588 Y-40.66032
X12.65588 Y-40.71112
X12.63048 Y-40.73652
X12.63048 Y-40.78732
X12.60508 Y-40.81272
X12.60508 Y-40.86352
X12.57968 Y-40.88892
X12.57968 Y-41.06672
X12.55428 Y-41.09212
X12.55428 Y-42.10812
X12.57968 Y-42.13352
X12.57968 Y-42.31132
X12.60508 Y-42.33672
X12.60508 Y-42.38752
X12.63048 Y-42.41292
X12.63048 Y-42.46372
X12.65588 Y-42.48912
X12.65588 Y-42.56532
X12.68128 Y-42.59072
X12.73208 Y-42.66692
X12.75748 Y-42.74312
X12.78288 Y-42.76852
X12.80828 Y-42.84472
X12.93528 Y-42.97172
X13.06228 Y-43.09872
X13.21468 Y-43.22572
X13.29088 Y-43.25112
X13.31628 Y-43.27652
X13.39248 Y-43.30192
X13.44328 Y-43.35272
X13.51948 Y-43.37812
X13.57028 Y-43.37812
X13.59568 Y-43.40352
X13.64648 Y-43.40352
X13.67188 Y-43.42892
X13.72268 Y-43.42892
X13.74808 Y-43.45432
X13.90048 Y-43.45432
X13.92588 Y-43.47972
X14.99268 Y-43.47972
X15.01808 Y-43.45432
X15.17048 Y-43.45432
X15.19588 Y-43.42892
X15.24668 Y-43.42892
X15.27208 Y-43.40352
X15.32288 Y-43.40352
X15.34828 Y-43.37812
X15.42448 Y-43.37812
X15.44988 Y-43.35272
X15.52608 Y-43.32732
X15.57688 Y-43.27652
X15.65308 Y-43.25112
X15.67848 Y-43.22572
X15.83088 Y-43.09872
X15.95788 Y-42.97172
X16.08488 Y-42.81932
X16.11028 Y-42.74312
X16.13568 Y-42.71772
X16.18648 Y-42.64152
X16.21188 Y-42.56532
X16.23728 Y-42.53992
X16.23728 Y-42.48912
X16.26268 Y-42.46372
X16.26268 Y-42.38752
X16.28808 Y-42.36212
X16.28808 Y-42.31132
X16.31348 Y-42.28592
X16.31348 Y-42.13352
X16.33888 Y-42.10812
X16.33888 Y-41.04132
X16.31348 Y-41.01592
X16.31348 Y-40.86352
X16.28808 Y-40.83812
X16.28808 Y-40.78732
X16.26268 Y-40.76192
X16.26268 Y-40.68572
X16.23728 Y-40.66032
X16.23728 Y-40.60952
X16.21188 Y-40.58412
X16.18648 Y-40.50792
X16.13568 Y-40.45712
X16.11028 Y-40.38092
X16.08488 Y-40.35552
X15.95788 Y-40.20312
X15.83088 Y-40.07612
X15.67848 Y-39.94912
X15.60228 Y-39.92372
X15.57688 Y-39.84752
X15.57688 Y-38.19652
X15.65308 Y-38.17112
X15.67848 Y-38.14572
X15.83088 Y-38.01872
X15.95788 Y-37.89172
X16.08488 Y-37.73932
X16.11028 Y-37.66312
X16.84688 Y-37.66312
X16.84688 Y-38.24732
X16.79608 Y-38.29812
X16.74528 Y-38.37432
X16.71988 Y-38.45052
X16.69448 Y-38.47592
X16.66908 Y-38.55212
X16.66908 Y-38.60292
X16.64368 Y-38.62832
X16.64368 Y-38.67912
X16.61828 Y-38.70452
X16.61828 Y-39.92372
X16.64368 Y-39.94912
X16.64368 Y-39.99992
X16.66908 Y-40.02532
X16.66908 Y-40.10152
X16.69448 Y-40.12692
X16.71988 Y-40.20312
X16.74528 Y-40.22852
X16.79608 Y-40.30472
X16.94848 Y-40.45712
X17.02468 Y-40.50792
X17.10088 Y-40.53332
X17.15168 Y-40.58412
X17.22788 Y-40.60952
X17.25328 Y-40.63492
X17.32948 Y-40.63492
X17.35488 Y-40.66032
X17.48188 Y-40.66032
X17.50728 Y-40.68572
X18.52328 Y-40.68572
X18.54868 Y-40.66032
X18.67568 Y-40.66032
X18.72648 Y-40.60952
X18.80268 Y-40.58412
X18.92968 Y-40.45712
X19.00588 Y-40.40632
X19.10748 Y-40.33012
X19.18368 Y-40.30472
X19.18368 Y-40.25392
X19.25988 Y-40.25392
X19.25988 Y-40.20312
X19.28528 Y-40.17772
X19.31068 Y-40.10152
X19.33608 Y-40.07612
X19.33608 Y-39.99992
X19.36148 Y-39.97452
X19.36148 Y-39.92372
X19.38688 Y-39.89832
X19.38688 Y-38.67912
X19.36148 Y-38.65372
X19.36148 Y-38.60292
X19.33608 Y-38.57752
X19.33608 Y-38.50132
X19.31068 Y-38.47592
X19.28528 Y-38.39972
X19.25988 Y-38.37432
X19.20908 Y-38.29812
X19.13288 Y-38.19652
X19.13288 Y-37.66312
X19.59008 Y-37.66312
X19.59008 Y-38.65372
X19.61548 Y-38.67912
X19.61548 Y-38.72992
X19.64088 Y-38.75532
X19.64088 Y-38.80612
X19.66628 Y-38.83152
X19.69168 Y-38.90772
X19.71708 Y-38.93312
X19.92028 Y-39.13632
X19.99648 Y-39.16172
X20.04728 Y-39.21252
X20.12348 Y-39.23792
X20.14888 Y-39.26332
X20.19968 Y-39.26332
X20.22508 Y-39.28872
X20.35208 Y-39.28872
X20.37748 Y-39.31412
X21.39348 Y-39.31412
X21.41888 Y-39.28872
X21.54588 Y-39.28872
X21.57128 Y-39.26332
X21.62208 Y-39.26332
X21.64748 Y-39.23792
X21.72368 Y-39.21252
X21.77448 Y-39.16172
X21.85068 Y-39.13632
X22.02848 Y-38.93312
X22.05388 Y-38.85692
X22.07928 Y-38.83152
X22.10468 Y-38.75532
X22.13008 Y-38.67912
X22.15548 Y-38.60292
X22.15548 Y-37.40912
X22.13008 Y-37.38372
X22.13008 Y-37.33292
X22.10468 Y-37.30752
X22.10468 Y-37.25672
X22.07928 Y-37.23132
X22.05388 Y-37.15512
X22.02848 Y-37.12972
X22.00308 Y-37.05352
X22.00308 Y-35.40252
X22.02848 Y-35.37712
X22.05388 Y-35.30092
X22.07928 Y-35.27552
X22.10468 Y-35.19932
X22.13008 Y-35.12312
X22.15548 Y-35.04692
X22.15548 Y-33.85312
X22.13008 Y-33.82772
X22.13008 Y-33.77692
X22.10468 Y-33.75152
X22.10468 Y-33.70072
X22.07928 Y-33.67532
X22.05388 Y-33.59912
X22.02848 Y-33.57372
X21.82528 Y-33.37052
X21.74908 Y-33.34512
X21.69828 Y-33.29432
X21.62208 Y-33.26892
X21.59668 Y-33.24352
X21.54588 Y-33.24352
X21.52048 Y-33.21812
X21.39348 Y-33.21812
X21.36808 Y-33.19272
X20.35208 Y-33.19272
X20.32668 Y-33.21812
X20.19968 Y-33.21812
X20.17428 Y-33.24352
X20.12348 Y-33.24352
X20.09808 Y-33.26892
X20.02188 Y-33.29432
X19.97108 Y-33.34512
X19.89488 Y-33.37052
X19.71708 Y-33.57372
X19.69168 Y-33.64992
X19.66628 Y-33.67532
X19.64088 Y-33.75152
X19.61548 Y-33.82772
X19.59008 Y-33.90392
X19.59008 Y-35.09772
X19.61548 Y-35.12312
X19.61548 Y-35.17392
X19.64088 Y-35.19932
X19.64088 Y-35.25012
X19.66628 Y-35.27552
X19.69168 Y-35.35172
X19.71708 Y-35.37712
X16.13568 Y-35.37712
X16.11028 Y-35.30092
X16.08488 Y-35.27552
X15.95788 Y-35.12312
X15.83088 Y-34.99612
X15.67848 Y-34.86912
X15.60228 Y-34.84372
X15.57688 Y-34.76752
X15.57688 Y-33.11652
X15.65308 Y-33.09112
X15.67848 Y-33.06572
X15.83088 Y-32.93872
X15.95788 Y-32.81172
X16.08488 Y-32.65932
X16.11028 Y-32.58312
X24.08588 Y-32.58312
X24.11128 Y-32.55772
X24.18748 Y-32.55772
X24.21288 Y-32.53232
X24.26368 Y-32.53232
X24.28908 Y-32.50692
X24.36528 Y-32.48152
X24.39068 Y-32.45612
X27.87048 Y-28.97632
X27.92128 Y-28.90012
X27.94668 Y-28.82392
X27.97208 Y-28.79852
X27.97208 Y-28.74772
X27.99748 Y-28.72232
X27.99748 Y-28.64612
X28.02288 Y-28.62072
X28.02288 Y-28.31592
X29.62308 Y-26.74112
X32.29008 Y-26.74112
X32.84888 Y-27.29992
X32.92508 Y-27.32532
X33.00128 Y-27.40152
X33.07748 Y-27.42692
X36.65888 Y-31.00832
X36.78588 Y-31.10992
X36.83668 Y-31.10992
X36.88748 Y-31.16072
X36.96368 Y-31.18612
X44.55828 Y-31.18612
X44.60908 Y-31.23692
X44.68528 Y-31.28772
X44.76148 Y-31.31312
X46.51408 Y-31.31312
X46.53948 Y-31.28772
X46.61568 Y-31.23692
X46.69188 Y-31.18612
X49.61288 Y-31.18612
X49.63828 Y-31.16072
X49.71448 Y-31.16072
X49.73988 Y-31.13532
X49.79068 Y-31.13532
X49.81608 Y-31.10992
X49.89228 Y-31.08452
X49.91768 Y-31.05912
X50.85748 Y-30.14472
X50.90828 Y-30.14472
X50.93368 Y-30.11932
X51.06068 Y-30.11932
X51.08608 Y-30.09392
X51.16228 Y-30.09392
X51.18768 Y-30.06852
X51.26388 Y-30.04312
X51.31468 Y-29.99232
X51.39088 Y-29.96692
X51.44168 Y-29.91612
X54.43888 Y-29.91612
X54.48968 Y-29.96692
X54.56588 Y-29.99232
X54.61668 Y-30.04312
X54.69288 Y-30.06852
X54.71828 Y-30.09392
X54.79448 Y-30.09392
X54.81988 Y-30.11932
X54.94688 Y-30.11932
X54.97228 Y-30.14472
X55.98828 Y-30.14472
X56.01368 Y-30.11932
X56.14068 Y-30.11932
X56.16608 Y-30.09392
X56.24228 Y-30.09392
X56.26768 Y-30.06852
X56.34388 Y-30.04312
X56.39468 Y-29.99232
X56.47088 Y-29.96692
X56.52168 Y-29.91612
X58.57908 Y-29.91612
X75.26688 Y-46.62932
X75.26688 Y-84.14512
X74.45408 Y-84.14512
X74.42868 Y-84.11972
X74.35248 Y-84.06892
X74.27628 Y-84.04352
X74.22548 Y-83.99272
X74.14928 Y-83.96732
X74.12388 Y-83.94192
X74.04768 Y-83.94192
X74.02228 Y-83.91652
X73.89528 Y-83.91652
X73.86988 Y-83.89112
X72.85388 Y-83.89112
X72.82848 Y-83.91652
X72.70148 Y-83.91652
X72.65068 Y-83.96732
X72.57448 Y-83.99272
X72.44748 Y-84.11972
X72.37128 Y-84.17052
X72.21888 Y-84.32292
X72.16808 Y-84.39912
X72.06648 Y-84.52612
X72.06648 Y-84.57692
X72.01568 Y-84.62772
X71.99028 Y-84.70392
X71.99028 Y-85.89772
X72.01568 Y-85.92312
X72.01568 Y-85.97392
X72.04108 Y-85.99932
X72.04108 Y-86.07552
X72.06648 Y-86.10092
X72.09188 Y-86.17712
X72.11728 Y-86.20252
X72.16808 Y-86.27872
X72.32048 Y-86.43112
X72.39668 Y-86.48192
X72.47288 Y-86.50732
X72.52368 Y-86.55812
X72.59988 Y-86.58352
X72.62528 Y-86.60892
X72.70148 Y-86.60892
X72.72688 Y-86.63432
X72.85388 Y-86.63432
X72.87928 Y-86.65972
X73.89528 Y-86.65972
X73.92068 Y-86.63432
X74.04768 Y-86.63432
X74.07308 Y-86.60892
X74.14928 Y-86.60892
X74.17468 Y-86.58352
X74.25088 Y-86.55812
X74.30168 Y-86.50732
X74.37788 Y-86.48192
X74.42868 Y-86.43112
X75.26688 Y-86.43112
X75.26688 Y-105.43032
X68.33268 Y-112.33912
X66.83408 Y-112.33912
X66.80868 Y-112.31372
X66.73248 Y-112.26292
X66.65628 Y-112.23752
X66.60548 Y-112.18672
X64.87828 Y-112.18672
X64.82748 Y-112.23752
X64.75128 Y-112.26292
X64.70048 Y-112.31372
X64.62428 Y-112.33912
X64.39568 Y-112.33912
X64.09088 Y-112.00892
X64.09088 Y-109.59592
X65.00528 Y-108.70692
X65.08148 Y-108.70692
X65.10688 Y-108.73232
X65.23388 Y-108.73232
X65.25928 Y-108.75772
X66.27528 Y-108.75772
X66.30068 Y-108.73232
X66.42768 Y-108.73232
X66.45308 Y-108.70692
X66.52928 Y-108.70692
X66.55468 Y-108.68152
X66.63088 Y-108.65612
X66.68168 Y-108.60532
X66.75788 Y-108.57992
X66.80868 Y-108.52912
X66.96108 Y-108.37672
X67.01188 Y-108.30052
X67.03728 Y-108.22432
X67.06268 Y-108.19892
X67.08808 Y-108.12272
X67.08808 Y-108.07192
X67.11348 Y-108.04652
X67.11348 Y-107.99572
X67.13888 Y-107.97032
X67.13888 Y-106.75112
X67.11348 Y-106.72572
X67.11348 Y-106.67492
X67.08808 Y-106.64952
X67.08808 Y-106.57332
X67.06268 Y-106.54792
X67.03728 Y-106.47172
X67.01188 Y-106.44632
X66.96108 Y-106.37012
X66.80868 Y-106.21772
X66.73248 Y-106.16692
X66.65628 Y-106.14152
X66.60548 Y-106.09072
X64.87828 Y-106.09072
X64.82748 Y-106.14152
X64.75128 Y-106.16692
X64.70048 Y-106.21772
X64.62428 Y-106.24312
X63.96388 Y-106.24312
X63.93848 Y-106.26852
X63.86228 Y-106.26852
X63.83688 Y-106.29392
X63.78608 Y-106.29392
X63.76068 Y-106.31932
X63.68448 Y-106.34472
X63.65908 Y-106.37012
X61.95728 Y-108.07192
X61.90648 Y-108.14812
X61.88108 Y-108.22432
X61.85568 Y-108.24972
X61.85568 Y-108.30052
X61.83028 Y-108.32592
X61.83028 Y-108.40212
X61.80488 Y-108.42752
X61.80488 Y-112.33912
X59.06168 Y-112.33912
X58.75688 Y-112.00892
X58.75688 Y-111.83112
X58.73148 Y-111.80572
X58.73148 Y-111.75492
X58.70608 Y-111.72952
X58.70608 Y-111.65332
X58.68068 Y-111.62792
X58.65528 Y-111.55172
X58.62988 Y-111.52632
X58.57908 Y-111.45012
X58.42668 Y-111.29772
X58.35048 Y-111.24692
X58.27428 Y-111.22152
X58.22348 Y-111.17072
X56.49628 Y-111.17072
X56.44548 Y-111.22152
X56.36928 Y-111.24692
X56.31848 Y-111.29772
X56.24228 Y-111.32312
X55.91208 Y-111.32312
X55.88668 Y-111.29772
X55.81048 Y-111.24692
X55.73428 Y-111.22152
X55.68348 Y-111.17072
X53.95628 Y-111.17072
X53.90548 Y-111.22152
X53.82928 Y-111.24692
X53.77848 Y-111.29772
X53.62608 Y-111.45012
X53.57528 Y-111.52632
X53.54988 Y-111.60252
X53.54988 Y-113.35512
X53.57528 Y-113.38052
X53.62608 Y-113.45672
X53.67688 Y-113.53292
X53.67688 Y-113.60912
X53.27048 Y-113.60912
X53.24508 Y-113.63452
X53.14348 Y-113.63452
X53.11808 Y-113.65992
X53.04188 Y-113.65992
X53.01648 Y-113.68532
X52.86408 Y-113.68532
X52.83868 Y-113.71072
X51.72108 Y-113.71072
X51.69568 Y-113.68532
X51.54328 Y-113.68532
X51.51788 Y-113.65992
X51.44168 Y-113.65992
X51.41628 Y-113.63452
X51.31468 Y-113.63452
X51.28928 Y-113.60912
X35.18568 Y-113.60912
X32.79808 Y-111.19612
X34.57608 Y-109.41812
X35.64288 Y-109.41812
X35.66828 Y-109.39272
X35.74448 Y-109.39272
X35.76988 Y-109.36732
X35.82068 Y-109.36732
X35.84608 Y-109.34192
X35.92228 Y-109.31652
X35.94768 Y-109.29112
X37.77648 Y-107.48772
X37.82728 Y-107.48772
X37.85268 Y-107.46232
X37.97968 Y-107.46232
X38.00508 Y-107.43692
X38.08128 Y-107.43692
X38.10668 Y-107.41152
X38.18288 Y-107.38612
X38.23368 Y-107.33532
X38.30988 Y-107.30992
X38.36068 Y-107.25912
X38.51308 Y-107.10672
X38.56388 Y-107.03052
X38.58928 Y-106.95432
X38.58928 Y-105.20172
X38.56388 Y-105.17632
X38.51308 Y-105.10012
X38.36068 Y-104.94772
X38.28448 Y-104.89692
X38.20828 Y-104.87152
X38.15748 Y-104.82072
X38.08128 Y-104.79532
X38.05588 Y-104.76992
X37.97968 Y-104.76992
X37.95428 Y-104.74452
X37.82728 Y-104.74452
X37.80188 Y-104.71912
X36.78588 Y-104.71912
X36.76048 Y-104.74452
X36.63348 Y-104.74452
X36.60808 Y-104.76992
X36.53188 Y-104.76992
X36.50648 Y-104.79532
X36.43028 Y-104.82072
X36.37948 Y-104.87152
X36.30328 Y-104.89692
X36.25248 Y-104.94772
X36.10008 Y-105.10012
X36.04928 Y-105.17632
X36.02388 Y-105.25252
X35.99848 Y-105.27792
X35.97308 Y-105.35412
X35.97308 Y-105.40492
X35.94768 Y-105.43032
X35.94768 Y-105.48112
X35.92228 Y-105.50652
X35.92228 Y-105.65892
X34.47448 Y-107.08132
X34.44908 Y-107.05592
X34.37288 Y-107.03052
X34.29668 Y-107.00512
X34.19508 Y-107.00512
X34.16968 Y-106.97972
X33.15368 Y-106.97972
X33.12828 Y-107.00512
X33.00128 Y-107.00512
X32.97588 Y-107.03052
X32.92508 Y-107.03052
X32.89968 Y-107.05592
X32.82348 Y-107.08132
X32.77268 Y-107.13212
X32.69648 Y-107.15752
X32.51868 Y-107.36072
X32.49328 Y-107.43692
X32.46788 Y-107.46232
X32.44248 Y-107.53852
X32.41708 Y-107.61472
X32.39168 Y-107.69092
X32.39168 Y-107.91952
X32.01068 Y-108.27512
X30.41048 Y-109.84992
X27.76888 Y-109.84992
X27.76888 Y-102.56012
X27.74348 Y-102.53472
X27.74348 Y-102.45852
X27.71808 Y-102.43312
X27.71808 Y-102.38232
X27.69268 Y-102.35692
X27.66728 Y-102.28072
X27.61648 Y-102.22992
X26.16868 Y-100.78212
X26.09248 Y-100.75672
X26.06708 Y-100.73132
X25.99088 Y-100.70592
X25.91468 Y-100.68052
X25.86388 Y-100.68052
X25.83848 Y-100.65512
X24.54308 Y-100.65512
X24.49228 Y-100.60432
X24.41608 Y-100.57892
X24.39068 Y-100.55352
X24.33988 Y-100.55352
X24.31448 Y-100.52812
X24.18748 Y-100.52812
X24.16208 Y-100.50272
X23.14608 Y-100.50272
X23.12068 Y-100.52812
X22.99368 Y-100.52812
X22.96828 Y-100.55352
X22.91748 Y-100.55352
X22.89208 Y-100.57892
X22.81588 Y-100.60432
X22.76508 Y-100.65512
X22.68888 Y-100.68052
X22.51108 Y-100.88372
X22.48568 Y-100.95992
X22.46028 Y-100.98532
X22.43488 Y-101.06152
X22.40948 Y-101.13772
X22.38408 Y-101.21392
X22.38408 Y-102.40772
X22.40948 Y-102.43312
X22.40948 Y-102.48392
X22.43488 Y-102.50932
X22.43488 Y-102.56012
X22.46028 Y-102.58552
X22.48568 Y-102.66172
X22.51108 Y-102.68712
X22.71428 Y-102.89032
X22.79048 Y-102.91572
X22.84128 Y-102.96652
X22.91748 Y-102.99192
X22.94288 Y-103.01732
X22.99368 Y-103.01732
X23.01908 Y-103.04272
X23.14608 Y-103.04272
X23.17148 Y-103.06812
X24.18748 Y-103.06812
X24.21288 Y-103.04272
X24.33988 Y-103.04272
X24.36528 Y-103.01732
X24.41608 Y-103.01732
X24.44148 Y-102.99192
X24.51768 Y-102.96652
X24.54308 Y-102.94112
X24.67008 Y-102.94112
X25.48288 Y-103.77932
X25.48288 Y-109.24032
X25.38128 Y-109.31652
X24.82248 Y-109.84992
X21.67288 Y-109.84992
X21.67288 Y-107.94492
X21.74908 Y-107.86872
X21.79988 Y-107.79252
X21.82528 Y-107.71632
X21.85068 Y-107.69092
X21.87608 Y-107.61472
X21.87608 Y-107.56392
X21.90148 Y-107.53852
X21.90148 Y-107.48772
X21.92688 Y-107.46232
X21.92688 Y-106.24312
X21.90148 Y-106.21772
X21.90148 Y-106.16692
X21.87608 Y-106.14152
X21.87608 Y-106.06532
X21.85068 Y-106.03992
X21.82528 Y-105.96372
X21.79988 Y-105.93832
X21.74908 Y-105.86212
X21.59668 Y-105.70972
X21.52048 Y-105.65892
X21.44428 Y-105.63352
X21.39348 Y-105.58272
X21.31728 Y-105.55732
X21.29188 Y-105.53192
X21.21568 Y-105.53192
X21.19028 Y-105.50652
X21.06328 Y-105.50652
X21.03788 Y-105.48112
X20.02188 Y-105.48112
X19.99648 Y-105.50652
X19.86948 Y-105.50652
X19.84408 Y-105.53192
X19.76788 Y-105.53192
X19.74248 Y-105.55732
X19.66628 Y-105.58272
X19.61548 Y-105.63352
X19.53928 Y-105.65892
X19.48848 Y-105.70972
X19.33608 Y-105.86212
X19.28528 Y-105.93832
X19.25988 Y-106.01452
X19.23448 Y-106.03992
X19.20908 Y-106.11612
X19.20908 Y-106.16692
X19.18368 Y-106.19232
X19.18368 Y-106.24312
X19.15828 Y-106.26852
X19.15828 Y-107.48772
X19.18368 Y-107.51312
X19.18368 Y-107.56392
X19.20908 Y-107.58932
X19.20908 Y-107.66552
X19.23448 Y-107.69092
X19.25988 Y-107.76712
X19.28528 Y-107.79252
X19.33608 Y-107.86872
X19.38688 Y-107.94492
X19.38688 Y-109.84992
X18.62488 Y-109.84992
X18.62488 Y-109.21492
X18.70108 Y-109.13872
X18.75188 Y-109.06252
X18.77728 Y-108.98632
X18.80268 Y-108.96092
X18.82808 Y-108.88472
X18.82808 Y-108.83392
X18.85348 Y-108.80852
X18.85348 Y-108.75772
X18.87888 Y-108.73232
X18.87888 Y-107.51312
X18.85348 Y-107.48772
X18.85348 Y-107.43692
X18.82808 Y-107.41152
X18.82808 Y-107.33532
X18.80268 Y-107.30992
X18.77728 Y-107.23372
X18.75188 Y-107.20832
X18.70108 Y-107.13212
X18.54868 Y-106.97972
X18.47248 Y-106.92892
X18.39628 Y-106.90352
X18.34548 Y-106.85272
X18.26928 Y-106.82732
X18.24388 Y-106.80192
X18.16768 Y-106.80192
X18.14228 Y-106.77652
X18.01528 Y-106.77652
X17.98988 Y-106.75112
X16.97388 Y-106.75112
X16.94848 Y-106.77652
X16.82148 Y-106.77652
X16.79608 Y-106.80192
X16.71988 Y-106.80192
X16.69448 Y-106.82732
X16.61828 Y-106.85272
X16.56748 Y-106.90352
X16.49128 Y-106.92892
X16.44048 Y-106.97972
X16.28808 Y-107.13212
X16.23728 Y-107.20832
X16.21188 Y-107.28452
X16.18648 Y-107.30992
X16.16108 Y-107.38612
X16.16108 Y-107.43692
X16.13568 Y-107.46232
X16.13568 Y-107.51312
X16.11028 Y-107.53852
X16.11028 Y-108.75772
X16.13568 Y-108.78312
X16.13568 Y-108.83392
X16.16108 Y-108.85932
X16.16108 Y-108.93552
X16.18648 Y-108.96092
X16.21188 Y-109.03712
X16.23728 Y-109.06252
X16.28808 Y-109.13872
X16.33888 Y-109.21492
X16.33888 Y-109.84992
X15.17048 Y-109.84992
X15.11968 Y-109.79912
X15.04348 Y-109.79912
X15.01808 Y-109.77372
X14.94188 Y-109.77372
X14.91648 Y-109.74832
X14.78948 Y-109.74832
X14.76408 Y-109.72292
X14.61168 Y-109.72292
X14.58628 Y-109.69752
X12.85908 Y-109.69752
X12.83368 Y-109.72292
X12.68128 Y-109.72292
X12.65588 Y-109.74832
X12.52888 Y-109.74832
X12.50348 Y-109.77372
X12.42728 Y-109.77372
X12.40188 Y-109.79912
X12.32568 Y-109.79912
X12.27488 Y-109.84992
X7.55048 Y-109.84992
X7.49968 Y-109.79912
X7.42348 Y-109.74832
X7.34728 Y-109.69752
X4.85808 Y-109.69752
X4.80728 Y-109.74832
X4.73108 Y-109.79912
X4.60408 Y-109.92612
X4.57868 Y-110.00232
X4.52788 Y-110.05312
X4.50248 Y-110.12932
X4.47708 Y-110.15472
X4.42628 Y-110.23092
X4.42628 Y-110.33252
X4.40088 Y-110.35792
X4.40088 Y-110.48492
X4.37548 Y-110.51032
X4.37548 Y-111.47552
X4.40088 Y-111.50092
X4.40088 Y-111.62792
X4.42628 Y-111.65332
X4.42628 Y-111.75492
X4.47708 Y-111.80572
X4.50248 Y-111.88192
X4.52788 Y-111.90732
X4.57868 Y-111.98352
X4.60408 Y-112.05972
X4.73108 Y-112.16132
X4.80728 Y-112.21212
X4.88348 Y-112.26292
X4.95968 Y-112.28832
X5.03588 Y-112.31372
X5.11208 Y-112.33912
X5.18828 Y-112.36452
X7.09328 Y-112.36452
X7.11868 Y-112.33912
X7.16948 Y-112.33912
X7.19488 Y-112.31372
X7.24568 Y-112.31372
X7.27108 Y-112.28832
X7.32188 Y-112.28832
X7.34728 Y-112.26292
X7.42348 Y-112.21212
X7.49968 Y-112.16132
X7.57588 Y-112.13592
X12.32568 Y-112.13592
X12.35108 Y-112.16132
X12.42728 Y-112.21212
X12.50348 Y-112.26292
X12.57968 Y-112.28832
X12.65588 Y-112.31372
X12.73208 Y-112.33912
X12.80828 Y-112.36452
X14.71328 Y-112.36452
X14.73868 Y-112.33912
X14.78948 Y-112.33912
X14.81488 Y-112.31372
X14.86568 Y-112.31372
X14.89108 Y-112.28832
X14.94188 Y-112.28832
X14.96728 Y-112.26292
X15.04348 Y-112.21212
X15.11968 Y-112.16132
X15.19588 Y-112.13592
X30.05488 Y-112.13592
X33.68708 Y-115.76812
X33.76328 Y-115.79352
X33.78868 Y-115.81892
X33.86488 Y-115.84432
X33.94108 Y-115.86972
X33.99188 Y-115.86972
X34.01728 Y-115.89512
X55.07388 Y-115.89512
X55.09928 Y-115.86972
X55.17548 Y-115.86972
X55.20088 Y-115.84432
X55.25168 Y-115.84432
X55.27708 Y-115.81892
X55.35328 Y-115.79352
X55.37868 Y-115.76812
X55.81048 Y-115.33632
X55.86128 Y-115.26012
X55.88668 Y-115.18392
X55.91208 Y-115.15852
X55.91208 Y-115.10772
X55.93748 Y-115.08232
X55.93748 Y-115.00612
X55.96288 Y-114.98072
X55.96288 Y-113.60912
X56.34388 Y-113.60912
X56.39468 Y-113.65992
X56.47088 Y-113.68532
X56.52168 Y-113.73612
X56.59788 Y-113.76152
X56.62328 Y-113.78692
X56.69948 Y-113.78692
X56.72488 Y-113.81232
X56.85188 Y-113.81232
X56.87728 Y-113.83772
X57.56308 Y-114.49812
X57.63928 Y-114.52352
X57.66468 Y-114.54892
X57.74088 Y-114.57432
X57.81708 Y-114.59972
X57.86788 Y-114.59972
X57.89328 Y-114.62512
X64.72588 Y-114.62512
X64.77668 Y-114.67592
X64.85288 Y-114.70132
X64.90368 Y-114.75212
X64.97988 Y-114.77752
X65.00528 Y-114.80292
X65.08148 Y-114.80292
X65.10688 Y-114.82832
X65.23388 Y-114.82832
X65.25928 Y-114.85372
X66.27528 Y-114.85372
X66.30068 Y-114.82832
X66.42768 Y-114.82832
X66.45308 Y-114.80292
X66.52928 Y-114.80292
X66.55468 Y-114.77752
X66.63088 Y-114.75212
X66.68168 Y-114.70132
X66.75788 Y-114.67592
X66.80868 Y-114.62512
X69.55188 Y-114.62512
X69.57728 Y-114.59972
X69.65348 Y-114.59972
X69.72968 Y-114.52352
X69.80588 Y-114.49812
X77.42588 Y-106.85272
X77.45128 Y-106.77652
X77.52748 Y-106.70032
X77.52748 Y-106.62412
X77.55288 Y-106.59872
X77.55288 Y-45.41012
X77.52748 Y-45.38472
X77.52748 Y-45.30852
X77.50208 Y-45.28312
X77.50208 Y-45.23232
X77.47668 Y-45.20692
X77.45128 Y-45.13072
X77.40048 Y-45.07992
X67.34208 Y-34.99612
X67.74848 Y-34.58972
X67.79928 Y-34.58972
X67.82468 Y-34.56432
X67.95168 Y-34.56432
X67.97708 Y-34.53892
X68.05328 Y-34.53892
X68.07868 Y-34.51352
X68.15488 Y-34.48812
X68.20568 Y-34.43732
X68.28188 Y-34.41192
X68.33268 Y-34.36112
X68.48508 Y-34.20872
X68.53588 Y-34.13252
X68.56128 Y-34.05632
X68.58668 Y-34.03092
X68.61208 Y-33.95472
X68.61208 Y-33.90392
X68.63748 Y-33.87852
X68.63748 Y-33.82772
X68.66288 Y-33.80232
X68.66288 Y-32.63392
X68.61208 Y-32.58312
X68.61208 Y-32.53232
X68.56128 Y-32.48152
X68.53588 Y-32.40532
X68.40888 Y-32.27832
X68.25648 Y-32.12592
X68.07868 Y-31.97352
X68.00248 Y-31.94812
X67.95168 Y-31.89732
X67.87548 Y-31.87192
X67.85008 Y-31.84652
X67.79928 Y-31.84652
X67.77388 Y-31.82112
X66.75788 Y-31.82112
X66.73248 Y-31.84652
X66.60548 Y-31.84652
X66.58008 Y-31.87192
X66.50388 Y-31.87192
X66.47848 Y-31.89732
X66.40228 Y-31.92272
X66.35148 Y-31.97352
X66.27528 Y-31.99892
X66.22448 Y-32.04972
X66.07208 Y-32.20212
X66.02128 Y-32.27832
X65.99588 Y-32.35452
X65.97048 Y-32.37992
X65.94508 Y-32.45612
X65.94508 Y-32.50692
X65.91968 Y-32.53232
X65.91968 Y-32.58312
X65.89428 Y-32.60852
X65.89428 Y-32.76092
X65.48788 Y-33.16732
X60.07768 Y-27.75712
X60.00148 Y-27.73172
X59.97608 Y-27.70632
X59.89988 Y-27.68092
X59.82368 Y-27.65552
X59.77288 Y-27.65552
X59.74748 Y-27.63012
X56.54708 Y-27.63012
X56.52168 Y-27.60472
X56.44548 Y-27.55392
X56.36928 Y-27.52852
X56.31848 Y-27.47772
X54.59128 Y-27.47772
X54.54048 Y-27.52852
X54.46428 Y-27.55392
X54.41348 Y-27.60472
X54.33728 Y-27.63012
X51.46708 Y-27.63012
X51.44168 Y-27.60472
X51.36548 Y-27.55392
X51.28928 Y-27.52852
X51.23848 Y-27.47772
X51.16228 Y-27.45232
X51.13688 Y-27.42692
X51.06068 Y-27.42692
X51.03528 Y-27.40152
X50.90828 Y-27.40152
X50.88288 Y-27.37612
X49.86688 Y-27.37612
X49.84148 Y-27.40152
X49.71448 Y-27.40152
X49.66368 Y-27.45232
X49.58748 Y-27.47772
X49.46048 Y-27.60472
X49.38428 Y-27.65552
X49.23188 Y-27.80792
X49.18108 Y-27.88412
X49.07948 Y-28.01112
X49.07948 Y-28.06192
X49.02868 Y-28.11272
X49.00328 Y-28.18892
X49.00328 Y-28.31592
X48.39368 Y-28.90012
X46.69188 Y-28.90012
X46.64108 Y-28.84932
X46.56488 Y-28.84932
X46.53948 Y-28.82392
X46.46328 Y-28.82392
X46.43788 Y-28.79852
X46.33628 Y-28.79852
X46.31088 Y-28.77312
X46.13308 Y-28.77312
X46.10768 Y-28.74772
X45.09168 Y-28.74772
X45.06628 Y-28.77312
X44.88848 Y-28.77312
X44.86308 Y-28.79852
X44.76148 Y-28.79852
X44.73608 Y-28.82392
X44.65988 Y-28.82392
X44.63448 Y-28.84932
X44.55828 Y-28.84932
X44.50748 Y-28.90012
X38.10668 Y-28.90012
X35.92228 Y-26.71572
X35.87148 Y-26.71572
X35.84608 Y-26.69032
X35.79528 Y-26.69032
X35.76988 Y-26.66492
X35.71908 Y-26.66492
X35.69368 Y-26.63952
X35.64288 Y-26.63952
X35.59208 Y-26.58872
X35.54128 Y-26.58872
X35.51588 Y-26.56332
X35.43968 Y-26.53792
X35.38888 Y-26.48712
X35.31268 Y-26.46172
X35.16028 Y-26.30932
X35.00788 Y-26.15692
X34.88088 Y-26.00452
X34.85548 Y-25.92832
X34.80468 Y-25.87752
X34.80468 Y-25.82672
X34.75388 Y-25.77592
X34.75388 Y-25.72512
X34.72848 Y-25.69972
X34.72848 Y-25.64892
X34.70308 Y-25.62352
X34.70308 Y-25.57272
X34.67768 Y-25.54732
X34.67768 Y-25.49652
X34.65228 Y-25.47112
X34.65228 Y-25.42032
X34.44908 Y-25.21712
X34.65228 Y-24.98852
X34.65228 Y-24.93772
X34.67768 Y-24.91232
X34.67768 Y-24.86152
X34.70308 Y-24.83612
X34.70308 Y-24.78532
X34.75388 Y-24.73452
X34.77928 Y-24.65832
X34.83008 Y-24.60752
X34.85548 Y-24.53132
X35.21108 Y-24.20112
X35.28728 Y-24.15032
X35.38888 Y-24.07412
X35.43968 Y-24.07412
X35.49048 Y-24.02332
X35.54128 Y-24.02332
X35.59208 Y-23.97252
X35.66828 Y-23.89632
X35.69368 Y-23.82012
X35.69368 Y-23.76932
X35.71908 Y-23.74392
X35.71908 Y-23.64232
X35.74448 Y-23.61692
X35.74448 Y-23.43912
X35.76988 Y-23.41372
X35.76988 Y-22.80412
X35.79528 Y-22.77872
X35.79528 Y-22.65172
X35.82068 Y-22.62632
X35.82068 Y-22.55012
X35.84608 Y-22.52472
X35.84608 Y-22.44852
X35.87148 Y-22.42312
X35.87148 Y-22.37232
X35.89688 Y-22.34692
X35.89688 Y-20.44192
X37.16688 Y-19.19732
X37.19228 Y-19.22272
X39.07188 Y-19.22272
X39.12268 Y-19.17192
X39.19888 Y-19.12112
X42.11988 Y-19.12112
X42.14528 Y-19.09572
X42.22148 Y-19.09572
X42.24688 Y-19.07032
X42.29768 Y-19.07032
X42.32308 Y-19.04492
X42.39928 Y-19.01952
X42.42468 Y-18.99412
X43.36448 Y-18.07972
X43.41528 Y-18.07972
X43.44068 Y-18.05432
X43.56768 Y-18.05432
X43.59308 Y-18.02892
X43.66928 Y-18.02892
X43.69468 Y-18.00352
X43.77088 Y-17.97812
X43.82168 Y-17.92732
X43.89788 Y-17.90192
X43.94868 Y-17.85112
X46.94588 Y-17.85112
X46.99668 Y-17.90192
X47.07288 Y-17.92732
X47.12368 Y-17.97812
X47.19988 Y-18.00352
X47.22528 Y-18.02892
X47.30148 Y-18.02892
X47.32688 Y-18.05432
X47.45388 Y-18.05432
X47.47928 Y-18.07972
X48.49528 Y-18.07972
X48.52068 Y-18.05432
X48.64768 Y-18.05432
X48.67308 Y-18.02892
X48.74928 Y-18.02892
X48.77468 Y-18.00352
X48.85088 Y-17.97812
X48.90168 Y-17.92732
X48.97788 Y-17.90192
X49.02868 Y-17.85112
X49.18108 Y-17.69872
X49.23188 Y-17.62252
X49.25728 Y-17.54632
X49.28268 Y-17.52092
X49.30808 Y-17.44472
X49.30808 Y-17.39392
X49.33348 Y-17.36852
X49.33348 Y-17.31772
X49.35888 Y-17.29232
X49.35888 Y-16.07312
X49.33348 Y-16.04772
X49.33348 Y-15.99692
X49.30808 Y-15.97152
X49.30808 Y-15.89532
X49.28268 Y-15.86992
X49.25728 Y-15.79372
X49.23188 Y-15.76832
X49.18108 Y-15.69212
X49.02868 Y-15.53972
X48.95248 Y-15.48892
X48.87628 Y-15.46352
X48.85088 Y-15.43812
X47.07288 Y-15.43812
X47.04748 Y-15.46352
X46.97128 Y-15.48892
X46.92048 Y-15.53972
X46.84428 Y-15.56512
X43.97408 Y-15.56512
X43.94868 Y-15.53972
X43.87248 Y-15.48892
X43.79628 Y-15.46352
X43.74548 Y-15.41272
X43.66928 Y-15.38732
X43.64388 Y-15.36192
X43.56768 Y-15.36192
X43.54228 Y-15.33652
X43.41528 Y-15.33652
X43.38988 Y-15.31112
X42.37388 Y-15.31112
X42.34848 Y-15.33652
X42.27228 Y-15.33652
X42.22148 Y-15.38732
X42.17068 Y-15.38732
X42.09448 Y-15.46352
X42.01828 Y-15.51432
X41.81508 Y-15.71752
G04 P0 ( dwell for no time -- G64 should not smooth over this point )
G00 Z3.00000 ( retract )

G00 X2.87688 Y-19.78152 ( rapid move to begin. )
G01 Z-0.20000
G04 P0 ( dwell for no time -- G64 should not smooth over this point )
X2.87688 Y-19.78152
X2.77528 Y-19.88312
X2.64828 Y-20.03552
X2.62288 Y-20.11172
X2.59748 Y-20.13712
X2.57208 Y-20.21332
X2.52128 Y-20.26412
X2.49588 Y-20.34032
X2.49588 Y-20.39112
X2.47048 Y-20.41652
X2.47048 Y-20.46732
X2.44508 Y-20.49272
X2.44508 Y-20.54352
X2.41968 Y-20.56892
X2.41968 Y-20.74672
X2.39428 Y-20.77212
X2.39428 Y-21.78812
X2.41968 Y-21.81352
X2.41968 Y-21.99132
X2.44508 Y-22.01672
X2.44508 Y-22.06752
X2.47048 Y-22.09292
X2.47048 Y-22.14372
X2.49588 Y-22.16912
X2.49588 Y-22.24532
X2.52128 Y-22.27072
X2.57208 Y-22.34692
X2.59748 Y-22.42312
X2.62288 Y-22.44852
X2.64828 Y-22.52472
X2.77528 Y-22.65172
X2.90228 Y-22.77872
X3.05468 Y-22.90572
X3.13088 Y-22.93112
X3.15628 Y-22.95652
X3.23248 Y-22.98192
X3.28328 Y-23.03272
X3.35948 Y-23.05812
X3.41028 Y-23.05812
X3.43568 Y-23.08352
X3.48648 Y-23.08352
X3.51188 Y-23.10892
X3.56268 Y-23.10892
X3.58808 Y-23.13432
X3.74048 Y-23.13432
X3.76588 Y-23.15972
X4.83268 Y-23.15972
X4.85808 Y-23.13432
X5.01048 Y-23.13432
X5.03588 Y-23.10892
X5.08668 Y-23.10892
X5.11208 Y-23.08352
X5.16288 Y-23.08352
X5.18828 Y-23.05812
X5.26448 Y-23.05812
X5.28988 Y-23.03272
X5.36608 Y-23.00732
X5.41688 Y-22.95652
X5.49308 Y-22.93112
X5.51848 Y-22.90572
X5.67088 Y-22.77872
X5.79788 Y-22.65172
X5.92488 Y-22.49932
X5.95028 Y-22.42312
X5.97568 Y-22.39772
X6.02648 Y-22.32152
X6.05188 Y-22.24532
X6.07728 Y-22.21992
X6.07728 Y-22.16912
X6.10268 Y-22.14372
X6.10268 Y-22.06752
X6.12808 Y-22.04212
X6.12808 Y-21.99132
X6.15348 Y-21.96592
X6.15348 Y-21.81352
X6.17888 Y-21.78812
X6.17888 Y-20.72132
X6.15348 Y-20.69592
X6.15348 Y-20.54352
X6.12808 Y-20.51812
X6.12808 Y-20.46732
X6.10268 Y-20.44192
X6.10268 Y-20.36572
X6.07728 Y-20.34032
X6.07728 Y-20.28952
X6.05188 Y-20.26412
X6.02648 Y-20.18792
X5.97568 Y-20.13712
X5.95028 Y-20.06092
X5.92488 Y-20.03552
X5.79788 Y-19.88312
X5.67088 Y-19.75612
X5.51848 Y-19.62912
X5.44228 Y-19.60372
X5.41688 Y-19.57832
X5.34068 Y-19.52752
X5.26448 Y-19.50212
X5.23908 Y-19.47672
X5.16288 Y-19.47672
X5.13748 Y-19.45132
X5.08668 Y-19.45132
X5.06128 Y-19.42592
X5.01048 Y-19.42592
X4.98508 Y-19.40052
X4.80728 Y-19.40052
X4.78188 Y-19.37512
X3.76588 Y-19.37512
X3.74048 Y-19.40052
X3.56268 Y-19.40052
X3.53728 Y-19.42592
X3.48648 Y-19.42592
X3.46108 Y-19.45132
X3.41028 Y-19.45132
X3.38488 Y-19.47672
X3.30868 Y-19.47672
X3.28328 Y-19.50212
X3.20708 Y-19.52752
X3.15628 Y-19.57832
X3.08008 Y-19.60372
X3.05468 Y-19.62912
X2.90228 Y-19.75612
X2.87688 Y-19.78152
G04 P0 ( dwell for no time -- G64 should not smooth over this point )
G00 Z3.00000 ( retract )

G00 X26.49888 Y-22.06752 ( rapid move to begin. )
G01 Z-0.20000
G04 P0 ( dwell for no time -- G64 should not smooth over this point )
X26.49888 Y-22.06752
X26.47348 Y-22.09292
X26.44808 Y-22.16912
X26.42268 Y-22.19452
X26.42268 Y-22.24532
X26.39728 Y-22.27072
X26.39728 Y-22.32152
X26.37188 Y-22.34692
X26.37188 Y-23.56612
X26.39728 Y-23.59152
X26.39728 Y-23.64232
X26.42268 Y-23.66772
X26.42268 Y-23.71852
X26.44808 Y-23.74392
X26.47348 Y-23.82012
X26.49888 Y-23.84552
X26.70208 Y-24.04872
X26.77828 Y-24.07412
X26.82908 Y-24.12492
X26.90528 Y-24.15032
X26.93068 Y-24.17572
X26.98148 Y-24.17572
X27.00688 Y-24.20112
X27.13388 Y-24.20112
X27.15928 Y-24.22652
X28.17528 Y-24.22652
X28.20068 Y-24.20112
X28.32768 Y-24.20112
X28.35308 Y-24.17572
X28.40388 Y-24.17572
X28.42928 Y-24.15032
X28.50548 Y-24.12492
X28.53088 Y-24.09952
X30.61368 Y-24.09952
X30.63908 Y-24.12492
X30.71528 Y-24.15032
X30.74068 Y-24.17572
X30.79148 Y-24.17572
X30.81688 Y-24.20112
X30.94388 Y-24.20112
X30.96928 Y-24.22652
X31.75668 Y-24.22652
X31.78208 Y-24.20112
X31.83288 Y-24.20112
X31.85828 Y-24.17572
X31.90908 Y-24.17572
X31.95988 Y-24.12492
X32.01068 Y-24.12492
X32.06148 Y-24.07412
X32.11228 Y-24.07412
X32.23928 Y-23.94712
X32.31548 Y-23.92172
X32.49328 Y-23.71852
X32.51868 Y-23.64232
X32.59488 Y-23.56612
X32.62028 Y-23.48992
X32.67108 Y-23.43912
X32.67108 Y-23.38832
X32.69648 Y-23.36292
X32.69648 Y-23.31212
X32.72188 Y-23.28672
X32.72188 Y-23.23592
X32.74728 Y-23.21052
X32.74728 Y-22.32152
X32.72188 Y-22.29612
X32.72188 Y-22.24532
X32.69648 Y-22.21992
X32.69648 Y-22.16912
X32.67108 Y-22.14372
X32.64568 Y-22.06752
X32.62028 Y-22.04212
X32.41708 Y-21.83892
X32.34088 Y-21.81352
X32.29008 Y-21.76272
X32.21388 Y-21.73732
X32.18848 Y-21.71192
X32.13768 Y-21.71192
X32.11228 Y-21.68652
X31.98528 Y-21.68652
X31.95988 Y-21.66112
X30.94388 Y-21.66112
X30.91848 Y-21.68652
X30.79148 Y-21.68652
X30.76608 Y-21.71192
X30.71528 Y-21.71192
X30.68988 Y-21.73732
X30.61368 Y-21.76272
X30.56288 Y-21.81352
X28.53088 Y-21.81352
X28.48008 Y-21.76272
X28.40388 Y-21.73732
X28.37848 Y-21.71192
X28.32768 Y-21.71192
X28.30228 Y-21.68652
X28.17528 Y-21.68652
X28.14988 Y-21.66112
X27.13388 Y-21.66112
X27.10848 Y-21.68652
X26.98148 Y-21.68652
X26.95608 Y-21.71192
X26.90528 Y-21.71192
X26.87988 Y-21.73732
X26.80368 Y-21.76272
X26.75288 Y-21.81352
X26.67668 Y-21.83892
X26.49888 Y-22.04212
X26.49888 Y-22.06752
G04 P0 ( dwell for no time -- G64 should not smooth over this point )
G00 Z3.00000 ( retract )

G00 X18.87888 Y-22.06752 ( rapid move to begin. )
G01 Z-0.20000
G04 P0 ( dwell for no time -- G64 should not smooth over this point )
X18.87888 Y-22.06752
X18.85348 Y-22.09292
X18.82808 Y-22.16912
X18.80268 Y-22.19452
X18.80268 Y-22.24532
X18.77728 Y-22.27072
X18.77728 Y-22.32152
X18.75188 Y-22.34692
X18.75188 Y-23.56612
X18.77728 Y-23.59152
X18.77728 Y-23.64232
X18.80268 Y-23.66772
X18.80268 Y-23.71852
X18.82808 Y-23.74392
X18.85348 Y-23.82012
X18.87888 Y-23.84552
X19.08208 Y-24.04872
X19.15828 Y-24.07412
X19.20908 Y-24.12492
X19.28528 Y-24.15032
X19.31068 Y-24.17572
X19.36148 Y-24.17572
X19.38688 Y-24.20112
X19.51388 Y-24.20112
X19.53928 Y-24.22652
X20.55528 Y-24.22652
X20.58068 Y-24.20112
X20.70768 Y-24.20112
X20.73308 Y-24.17572
X20.78388 Y-24.17572
X20.80928 Y-24.15032
X20.88548 Y-24.12492
X20.91088 Y-24.09952
X22.99368 Y-24.09952
X23.01908 Y-24.12492
X23.09528 Y-24.15032
X23.12068 Y-24.17572
X23.17148 Y-24.17572
X23.19688 Y-24.20112
X23.32388 Y-24.20112
X23.34928 Y-24.22652
X24.36528 Y-24.22652
X24.39068 Y-24.20112
X24.51768 Y-24.20112
X24.54308 Y-24.17572
X24.59388 Y-24.17572
X24.61928 Y-24.15032
X24.69548 Y-24.12492
X24.74628 Y-24.07412
X24.82248 Y-24.04872
X25.00028 Y-23.84552
X25.02568 Y-23.76932
X25.05108 Y-23.74392
X25.07648 Y-23.66772
X25.10188 Y-23.59152
X25.12728 Y-23.51532
X25.12728 Y-22.32152
X25.10188 Y-22.29612
X25.10188 Y-22.24532
X25.07648 Y-22.21992
X25.07648 Y-22.16912
X25.05108 Y-22.14372
X25.02568 Y-22.06752
X25.00028 Y-22.04212
X24.79708 Y-21.83892
X24.72088 Y-21.81352
X24.67008 Y-21.76272
X24.59388 Y-21.73732
X24.56848 Y-21.71192
X24.51768 Y-21.71192
X24.49228 Y-21.68652
X24.36528 Y-21.68652
X24.33988 Y-21.66112
X23.32388 Y-21.66112
X23.29848 Y-21.68652
X23.17148 Y-21.68652
X23.14608 Y-21.71192
X23.09528 Y-21.71192
X23.06988 Y-21.73732
X22.99368 Y-21.76272
X22.94288 Y-21.81352
X20.91088 Y-21.81352
X20.86008 Y-21.76272
X20.78388 Y-21.73732
X20.75848 Y-21.71192
X20.70768 Y-21.71192
X20.68228 Y-21.68652
X20.55528 Y-21.68652
X20.52988 Y-21.66112
X19.51388 Y-21.66112
X19.48848 Y-21.68652
X19.36148 Y-21.68652
X19.33608 Y-21.71192
X19.28528 Y-21.71192
X19.25988 Y-21.73732
X19.18368 Y-21.76272
X19.13288 Y-21.81352
X19.05668 Y-21.83892
X18.87888 Y-22.04212
X18.87888 Y-22.06752
G04 P0 ( dwell for no time -- G64 should not smooth over this point )
G00 Z3.00000 ( retract )

G00 X37.87808 Y-24.15032 ( rapid move to begin. )
G01 Z-0.20000
G04 P0 ( dwell for no time -- G64 should not smooth over this point )
X37.87808 Y-24.15032
X37.87808 Y-24.22652
X37.85268 Y-24.25192
X37.85268 Y-24.35352
X37.82728 Y-24.37892
X37.82728 Y-24.53132
X37.80188 Y-24.55672
X37.80188 Y-25.09012
X37.77648 Y-25.11552
X37.77648 Y-25.24252
X37.75108 Y-25.26792
X37.75108 Y-25.34412
X37.72568 Y-25.36952
X37.72568 Y-25.44572
X37.70028 Y-25.47112
X37.70028 Y-25.52192
X37.67488 Y-25.54732
X37.67488 Y-25.64892
X37.70028 Y-25.67432
X37.70028 Y-25.72512
X37.72568 Y-25.75052
X37.72568 Y-25.80132
X37.75108 Y-25.82672
X37.77648 Y-25.90292
X37.80188 Y-25.92832
X38.00508 Y-26.13152
X38.08128 Y-26.15692
X38.13208 Y-26.20772
X38.20828 Y-26.23312
X38.23368 Y-26.25852
X38.28448 Y-26.25852
X38.30988 Y-26.28392
X38.43688 Y-26.28392
X38.46228 Y-26.30932
X39.47828 Y-26.30932
X39.50368 Y-26.28392
X39.63068 Y-26.28392
X39.65608 Y-26.25852
X41.94208 Y-28.51912
X42.01828 Y-28.54452
X42.04368 Y-28.56992
X42.11988 Y-28.59532
X42.19608 Y-28.62072
X42.24688 Y-28.62072
X42.27228 Y-28.64612
X44.22808 Y-28.64612
X44.22808 Y-28.87472
X44.55828 Y-28.87472
X44.58368 Y-28.84932
X44.65988 Y-28.84932
X44.68528 Y-28.82392
X44.76148 Y-28.82392
X44.78688 Y-28.79852
X44.88848 Y-28.79852
X44.91388 Y-28.77312
X45.09168 Y-28.77312
X45.11708 Y-28.74772
X46.13308 Y-28.74772
X46.15848 Y-28.77312
X46.33628 Y-28.77312
X46.36168 Y-28.79852
X46.46328 Y-28.79852
X46.48868 Y-28.82392
X46.56488 Y-28.82392
X46.59028 Y-28.84932
X46.66648 Y-28.84932
X46.69188 Y-28.87472
X46.99668 Y-28.87472
X46.99668 Y-28.64612
X48.34288 Y-28.64612
X48.36828 Y-28.62072
X48.44448 Y-28.62072
X48.46988 Y-28.59532
X48.52068 Y-28.59532
X48.54608 Y-28.56992
X48.62228 Y-28.54452
X48.64768 Y-28.51912
X49.00328 Y-28.16352
X49.02868 Y-28.08732
X49.07948 Y-28.03652
X49.07948 Y-27.98572
X49.18108 Y-27.88412
X49.23188 Y-27.80792
X49.38428 Y-27.65552
X49.46048 Y-27.60472
X49.61288 Y-27.47772
X49.68908 Y-27.45232
X49.73988 Y-27.40152
X49.79068 Y-27.40152
X49.81608 Y-27.37612
X54.43888 Y-27.37612
X54.48968 Y-27.42692
X54.56588 Y-27.45232
X54.59128 Y-27.47772
X56.36928 Y-27.47772
X56.39468 Y-27.45232
X56.47088 Y-27.42692
X56.52168 Y-27.37612
X56.67408 Y-27.22372
X56.72488 Y-27.14752
X56.75028 Y-27.07132
X56.77568 Y-27.04592
X56.80108 Y-26.96972
X56.80108 Y-26.91892
X56.82648 Y-26.89352
X56.82648 Y-26.84272
X56.85188 Y-26.81732
X56.85188 Y-25.59812
X56.82648 Y-25.57272
X56.82648 Y-25.52192
X56.80108 Y-25.49652
X56.80108 Y-25.42032
X56.77568 Y-25.39492
X56.75028 Y-25.31872
X56.72488 Y-25.29332
X56.67408 Y-25.21712
X56.52168 Y-25.06472
X56.44548 Y-25.01392
X56.36928 Y-24.98852
X56.31848 Y-24.93772
X56.24228 Y-24.91232
X56.21688 Y-24.88692
X56.14068 Y-24.88692
X56.11528 Y-24.86152
X55.98828 Y-24.86152
X55.96288 Y-24.83612
X54.94688 Y-24.83612
X54.92148 Y-24.86152
X54.79448 Y-24.86152
X54.76908 Y-24.88692
X54.69288 Y-24.88692
X54.66748 Y-24.91232
X54.59128 Y-24.93772
X54.54048 Y-24.98852
X54.46428 Y-25.01392
X54.41348 Y-25.06472
X54.33728 Y-25.09012
X48.59688 Y-25.09012
X48.57148 Y-25.11552
X48.49528 Y-25.11552
X48.46988 Y-25.14092
X48.41908 Y-25.14092
X48.39368 Y-25.16632
X48.31748 Y-25.19172
X48.29208 Y-25.21712
X47.12368 Y-26.36012
X46.99668 Y-26.36012
X46.99668 Y-26.08072
X44.22808 Y-26.08072
X44.22808 Y-26.36012
X43.44068 Y-26.36012
X41.10388 Y-24.02332
X41.02768 Y-23.99792
X41.00228 Y-23.97252
X40.92608 Y-23.94712
X40.84988 Y-23.92172
X40.79908 Y-23.92172
X40.77368 Y-23.89632
X39.83388 Y-23.89632
X39.78308 Y-23.84552
X39.70688 Y-23.82012
X39.68148 Y-23.79472
X39.63068 Y-23.79472
X39.60528 Y-23.76932
X39.47828 Y-23.76932
X39.45288 Y-23.74392
X38.43688 Y-23.74392
X38.41148 Y-23.76932
X38.28448 Y-23.76932
X38.25908 Y-23.79472
X38.20828 Y-23.79472
X38.18288 Y-23.82012
X38.10668 Y-23.84552
X38.05588 Y-23.89632
X37.92888 Y-24.02332
X37.90348 Y-24.09952
X37.87808 Y-24.15032
G04 P0 ( dwell for no time -- G64 should not smooth over this point )
G00 Z3.00000 ( retract )

G00 X2.87688 Y-24.86152 ( rapid move to begin. )
G01 Z-0.20000
G04 P0 ( dwell for no time -- G64 should not smooth over this point )
X2.87688 Y-24.86152
X2.77528 Y-24.96312
X2.64828 Y-25.11552
X2.62288 Y-25.19172
X2.59748 Y-25.21712
X2.57208 Y-25.29332
X2.52128 Y-25.34412
X2.49588 Y-25.42032
X2.49588 Y-25.47112
X2.47048 Y-25.49652
X2.47048 Y-25.54732
X2.44508 Y-25.57272
X2.44508 Y-25.62352
X2.41968 Y-25.64892
X2.41968 Y-25.82672
X2.39428 Y-25.85212
X2.39428 Y-26.86812
X2.41968 Y-26.89352
X2.41968 Y-27.07132
X2.44508 Y-27.09672
X2.44508 Y-27.14752
X2.47048 Y-27.17292
X2.47048 Y-27.22372
X2.49588 Y-27.24912
X2.49588 Y-27.32532
X2.52128 Y-27.35072
X2.57208 Y-27.42692
X2.59748 Y-27.50312
X2.62288 Y-27.52852
X2.64828 Y-27.60472
X2.77528 Y-27.73172
X2.90228 Y-27.85872
X3.05468 Y-27.98572
X3.13088 Y-28.01112
X3.15628 Y-28.03652
X3.23248 Y-28.06192
X3.28328 Y-28.11272
X3.35948 Y-28.13812
X3.41028 Y-28.13812
X3.43568 Y-28.16352
X3.48648 Y-28.16352
X3.51188 Y-28.18892
X3.56268 Y-28.18892
X3.58808 Y-28.21432
X3.74048 Y-28.21432
X3.76588 Y-28.23972
X4.83268 Y-28.23972
X4.85808 Y-28.21432
X5.01048 Y-28.21432
X5.03588 Y-28.18892
X5.08668 Y-28.18892
X5.11208 Y-28.16352
X5.16288 Y-28.16352
X5.18828 Y-28.13812
X5.26448 Y-28.13812
X5.28988 Y-28.11272
X5.36608 Y-28.08732
X5.41688 Y-28.03652
X5.49308 Y-28.01112
X5.51848 Y-27.98572
X5.67088 Y-27.85872
X5.79788 Y-27.73172
X5.92488 Y-27.57932
X5.95028 Y-27.50312
X5.97568 Y-27.47772
X6.02648 Y-27.40152
X6.05188 Y-27.32532
X6.07728 Y-27.29992
X6.07728 Y-27.24912
X6.10268 Y-27.22372
X6.10268 Y-27.14752
X6.12808 Y-27.12212
X6.12808 Y-27.07132
X6.15348 Y-27.04592
X6.15348 Y-26.89352
X6.17888 Y-26.86812
X6.17888 Y-25.80132
X6.15348 Y-25.77592
X6.15348 Y-25.62352
X6.12808 Y-25.59812
X6.12808 Y-25.54732
X6.10268 Y-25.52192
X6.10268 Y-25.44572
X6.07728 Y-25.42032
X6.07728 Y-25.36952
X6.05188 Y-25.34412
X6.02648 Y-25.26792
X5.97568 Y-25.21712
X5.95028 Y-25.14092
X5.92488 Y-25.11552
X5.79788 Y-24.96312
X5.67088 Y-24.83612
X5.51848 Y-24.70912
X5.44228 Y-24.68372
X5.41688 Y-24.65832
X5.34068 Y-24.60752
X5.26448 Y-24.58212
X5.23908 Y-24.55672
X5.16288 Y-24.55672
X5.13748 Y-24.53132
X5.08668 Y-24.53132
X5.06128 Y-24.50592
X5.01048 Y-24.50592
X4.98508 Y-24.48052
X4.80728 Y-24.48052
X4.78188 Y-24.45512
X3.76588 Y-24.45512
X3.74048 Y-24.48052
X3.56268 Y-24.48052
X3.53728 Y-24.50592
X3.48648 Y-24.50592
X3.46108 Y-24.53132
X3.41028 Y-24.53132
X3.38488 Y-24.55672
X3.30868 Y-24.55672
X3.28328 Y-24.58212
X3.20708 Y-24.60752
X3.15628 Y-24.65832
X3.08008 Y-24.68372
X3.05468 Y-24.70912
X2.90228 Y-24.83612
X2.87688 Y-24.86152
G04 P0 ( dwell for no time -- G64 should not smooth over this point )
G00 Z3.00000 ( retract )

G00 X30.23268 Y-27.50312 ( rapid move to begin. )
G01 Z-0.20000
G04 P0 ( dwell for no time -- G64 should not smooth over this point )
X30.23268 Y-27.50312
X30.20728 Y-27.52852
X30.18188 Y-27.60472
X30.15648 Y-27.63012
X30.15648 Y-27.68092
X30.13108 Y-27.70632
X30.13108 Y-27.75712
X30.10568 Y-27.78252
X30.10568 Y-29.00172
X30.13108 Y-29.02712
X30.13108 Y-29.07792
X30.15648 Y-29.10332
X30.15648 Y-29.15412
X30.18188 Y-29.17952
X30.20728 Y-29.25572
X30.23268 Y-29.28112
X30.43588 Y-29.48432
X30.51208 Y-29.50972
X30.56288 Y-29.56052
X30.63908 Y-29.58592
X30.66448 Y-29.61132
X30.71528 Y-29.61132
X30.74068 Y-29.63672
X30.86768 Y-29.63672
X30.89308 Y-29.66212
X31.73128 Y-29.66212
X36.15088 Y-34.08172
X37.67488 Y-35.60572
X37.70028 Y-35.68192
X37.72568 Y-35.75812
X37.75108 Y-35.83432
X37.77648 Y-35.85972
X37.80188 Y-35.93592
X38.00508 Y-36.11372
X38.08128 Y-36.13912
X38.13208 Y-36.18992
X38.20828 Y-36.21532
X38.23368 Y-36.24072
X38.28448 Y-36.24072
X38.30988 Y-36.26612
X38.43688 Y-36.26612
X38.46228 Y-36.29152
X39.47828 Y-36.29152
X39.50368 Y-36.26612
X39.63068 Y-36.26612
X39.65608 Y-36.24072
X39.70688 Y-36.24072
X39.73228 Y-36.21532
X39.80848 Y-36.18992
X39.85928 Y-36.13912
X39.93548 Y-36.11372
X40.11328 Y-35.91052
X40.13868 Y-35.83432
X40.16408 Y-35.80892
X40.18948 Y-35.73272
X40.21488 Y-35.65652
X40.24028 Y-35.58032
X40.24028 Y-34.38652
X40.21488 Y-34.36112
X40.21488 Y-34.31032
X40.18948 Y-34.28492
X40.18948 Y-34.23412
X40.16408 Y-34.20872
X40.13868 Y-34.13252
X40.11328 Y-34.10712
X39.91008 Y-33.90392
X39.83388 Y-33.87852
X39.78308 Y-33.82772
X39.70688 Y-33.80232
X39.68148 Y-33.77692
X39.63068 Y-33.77692
X39.60528 Y-33.75152
X39.50368 Y-33.75152
X36.93828 Y-31.18612
X36.86208 Y-31.16072
X36.81128 Y-31.10992
X36.76048 Y-31.10992
X36.65888 Y-31.00832
X33.05208 Y-27.42692
X32.97588 Y-27.40152
X32.89968 Y-27.32532
X32.82348 Y-27.29992
X32.77268 Y-27.24912
X32.26468 Y-27.24912
X32.21388 Y-27.19832
X32.13768 Y-27.17292
X32.11228 Y-27.14752
X32.06148 Y-27.14752
X32.03608 Y-27.12212
X31.90908 Y-27.12212
X31.88368 Y-27.09672
X30.86768 Y-27.09672
X30.84228 Y-27.12212
X30.71528 Y-27.12212
X30.68988 Y-27.14752
X30.63908 Y-27.14752
X30.61368 Y-27.17292
X30.53748 Y-27.19832
X30.48668 Y-27.24912
X30.41048 Y-27.27452
X30.23268 Y-27.47772
X30.23268 Y-27.50312
G04 P0 ( dwell for no time -- G64 should not smooth over this point )
G00 Z3.00000 ( retract )

G00 X2.87688 Y-29.94152 ( rapid move to begin. )
G01 Z-0.20000
G04 P0 ( dwell for no time -- G64 should not smooth over this point )
X2.87688 Y-29.94152
X2.77528 Y-30.04312
X2.64828 Y-30.19552
X2.62288 Y-30.27172
X2.59748 Y-30.29712
X2.57208 Y-30.37332
X2.52128 Y-30.42412
X2.49588 Y-30.50032
X2.49588 Y-30.55112
X2.47048 Y-30.57652
X2.47048 Y-30.62732
X2.44508 Y-30.65272
X2.44508 Y-30.70352
X2.41968 Y-30.72892
X2.41968 Y-30.90672
X2.39428 Y-30.93212
X2.39428 Y-31.94812
X2.41968 Y-31.97352
X2.41968 Y-32.15132
X2.44508 Y-32.17672
X2.44508 Y-32.22752
X2.47048 Y-32.25292
X2.47048 Y-32.30372
X2.49588 Y-32.32912
X2.49588 Y-32.40532
X2.52128 Y-32.43072
X2.57208 Y-32.50692
X2.59748 Y-32.58312
X2.62288 Y-32.60852
X2.64828 Y-32.68472
X2.77528 Y-32.81172
X2.90228 Y-32.93872
X3.05468 Y-33.06572
X3.13088 Y-33.09112
X3.15628 Y-33.11652
X3.23248 Y-33.14192
X3.28328 Y-33.19272
X3.35948 Y-33.21812
X3.41028 Y-33.21812
X3.43568 Y-33.24352
X3.48648 Y-33.24352
X3.51188 Y-33.26892
X3.56268 Y-33.26892
X3.58808 Y-33.29432
X3.74048 Y-33.29432
X3.76588 Y-33.31972
X4.83268 Y-33.31972
X4.85808 Y-33.29432
X5.01048 Y-33.29432
X5.03588 Y-33.26892
X5.08668 Y-33.26892
X5.11208 Y-33.24352
X5.16288 Y-33.24352
X5.18828 Y-33.21812
X5.26448 Y-33.21812
X5.28988 Y-33.19272
X5.36608 Y-33.16732
X5.41688 Y-33.11652
X5.49308 Y-33.09112
X5.51848 Y-33.06572
X5.67088 Y-32.93872
X5.79788 Y-32.81172
X5.92488 Y-32.65932
X5.95028 Y-32.58312
X5.97568 Y-32.55772
X6.02648 Y-32.48152
X6.05188 Y-32.40532
X6.07728 Y-32.37992
X6.07728 Y-32.32912
X6.10268 Y-32.30372
X6.10268 Y-32.22752
X6.12808 Y-32.20212
X6.12808 Y-32.15132
X6.15348 Y-32.12592
X6.15348 Y-31.97352
X6.17888 Y-31.94812
X6.17888 Y-30.88132
X6.15348 Y-30.85592
X6.15348 Y-30.70352
X6.12808 Y-30.67812
X6.12808 Y-30.62732
X6.10268 Y-30.60192
X6.10268 Y-30.52572
X6.07728 Y-30.50032
X6.07728 Y-30.44952
X6.05188 Y-30.42412
X6.02648 Y-30.34792
X5.97568 Y-30.29712
X5.95028 Y-30.22092
X5.92488 Y-30.19552
X5.79788 Y-30.04312
X5.67088 Y-29.91612
X5.51848 Y-29.78912
X5.44228 Y-29.76372
X5.41688 Y-29.73832
X5.34068 Y-29.68752
X5.26448 Y-29.66212
X5.23908 Y-29.63672
X5.16288 Y-29.63672
X5.13748 Y-29.61132
X5.08668 Y-29.61132
X5.06128 Y-29.58592
X5.01048 Y-29.58592
X4.98508 Y-29.56052
X4.80728 Y-29.56052
X4.78188 Y-29.53512
X3.76588 Y-29.53512
X3.74048 Y-29.56052
X3.56268 Y-29.56052
X3.53728 Y-29.58592
X3.48648 Y-29.58592
X3.46108 Y-29.61132
X3.41028 Y-29.61132
X3.38488 Y-29.63672
X3.30868 Y-29.63672
X3.28328 Y-29.66212
X3.20708 Y-29.68752
X3.15628 Y-29.73832
X3.08008 Y-29.76372
X3.05468 Y-29.78912
X2.90228 Y-29.91612
X2.87688 Y-29.94152
G04 P0 ( dwell for no time -- G64 should not smooth over this point )
G00 Z3.00000 ( retract )

G00 X44.40588 Y-31.59252 ( rapid move to begin. )
G01 Z-0.20000
G04 P0 ( dwell for no time -- G64 should not smooth over this point )
X44.40588 Y-31.59252
X44.38048 Y-31.66872
X44.32968 Y-31.71952
X44.30428 Y-31.79572
X44.27888 Y-31.82112
X44.27888 Y-31.89732
X44.25348 Y-31.92272
X44.25348 Y-32.04972
X44.22808 Y-32.07512
X44.22808 Y-33.09112
X44.25348 Y-33.11652
X44.25348 Y-33.24352
X44.27888 Y-33.26892
X44.27888 Y-33.34512
X44.30428 Y-33.37052
X44.32968 Y-33.44672
X44.38048 Y-33.49752
X44.40588 Y-33.57372
X44.45668 Y-33.62452
X44.60908 Y-33.77692
X44.68528 Y-33.82772
X44.76148 Y-33.85312
X44.78688 Y-33.87852
X44.86308 Y-33.90392
X44.91388 Y-33.90392
X44.93928 Y-33.92932
X44.99008 Y-33.92932
X45.01548 Y-33.95472
X46.23468 Y-33.95472
X46.26008 Y-33.92932
X46.31088 Y-33.92932
X46.33628 Y-33.90392
X46.41248 Y-33.90392
X46.43788 Y-33.87852
X46.51408 Y-33.85312
X46.53948 Y-33.82772
X46.61568 Y-33.77692
X46.69188 Y-33.72612
X48.41908 Y-33.72612
X49.00328 Y-34.33572
X49.00328 Y-34.46272
X49.02868 Y-34.48812
X49.02868 Y-34.53892
X49.05408 Y-34.56432
X49.05408 Y-34.64052
X49.07948 Y-34.66592
X49.10488 Y-34.74212
X49.13028 Y-34.76752
X49.18108 Y-34.84372
X49.33348 Y-34.99612
X49.40968 Y-35.04692
X49.48588 Y-35.07232
X49.53668 Y-35.12312
X49.61288 Y-35.14852
X49.63828 Y-35.17392
X49.71448 Y-35.17392
X49.73988 Y-35.19932
X49.86688 Y-35.19932
X49.89228 Y-35.22472
X50.90828 Y-35.22472
X50.93368 Y-35.19932
X51.06068 Y-35.19932
X51.08608 Y-35.17392
X51.16228 Y-35.17392
X51.18768 Y-35.14852
X51.26388 Y-35.12312
X51.31468 Y-35.07232
X51.39088 Y-35.04692
X51.44168 Y-34.99612
X53.75308 Y-34.99612
X53.77848 Y-35.07232
X53.80388 Y-35.09772
X53.82928 Y-35.17392
X53.88008 Y-35.22472
X54.03248 Y-35.37712
X54.10868 Y-35.42792
X54.18488 Y-35.45332
X54.23568 Y-35.50412
X54.31188 Y-35.52952
X54.33728 Y-35.55492
X54.41348 Y-35.55492
X54.43888 Y-35.58032
X54.56588 Y-35.58032
X54.59128 Y-35.60572
X55.60728 Y-35.60572
X55.63268 Y-35.58032
X55.75968 Y-35.58032
X55.78508 Y-35.55492
X55.86128 Y-35.55492
X55.88668 Y-35.52952
X55.96288 Y-35.50412
X56.01368 Y-35.45332
X56.08988 Y-35.42792
X56.14068 Y-35.37712
X56.29308 Y-35.22472
X56.34388 Y-35.14852
X56.36928 Y-35.07232
X56.39468 Y-35.04692
X56.42008 Y-34.97072
X56.42008 Y-34.91992
X56.44548 Y-34.89452
X56.44548 Y-34.84372
X56.47088 Y-34.81832
X56.47088 Y-33.59912
X56.44548 Y-33.57372
X56.44548 Y-33.52292
X56.42008 Y-33.49752
X56.42008 Y-33.42132
X56.39468 Y-33.39592
X56.36928 Y-33.31972
X56.34388 Y-33.29432
X56.29308 Y-33.21812
X56.14068 Y-33.06572
X56.06448 Y-33.01492
X55.98828 Y-32.98952
X55.93748 Y-32.93872
X55.86128 Y-32.91332
X55.83588 Y-32.88792
X55.75968 Y-32.88792
X55.73428 Y-32.86252
X55.60728 Y-32.86252
X55.58188 Y-32.83712
X55.48028 Y-32.83712
X55.45488 Y-32.81172
X55.37868 Y-32.78632
X55.35328 Y-32.76092
X55.30248 Y-32.76092
X55.27708 Y-32.73552
X55.20088 Y-32.73552
X55.17548 Y-32.71012
X51.46708 Y-32.71012
X51.44168 Y-32.68472
X51.36548 Y-32.63392
X51.28928 Y-32.60852
X51.23848 Y-32.55772
X51.16228 Y-32.53232
X51.13688 Y-32.50692
X51.06068 Y-32.50692
X51.03528 Y-32.48152
X50.90828 Y-32.48152
X50.88288 Y-32.45612
X50.80668 Y-32.45612
X49.91768 Y-31.56712
X49.84148 Y-31.54172
X49.81608 Y-31.51632
X49.73988 Y-31.49092
X49.66368 Y-31.46552
X49.61288 Y-31.46552
X49.58748 Y-31.44012
X46.69188 Y-31.44012
X46.61568 Y-31.36392
X46.53948 Y-31.31312
X44.65988 Y-31.31312
X44.60908 Y-31.36392
X44.45668 Y-31.51632
X44.40588 Y-31.59252
G04 P0 ( dwell for no time -- G64 should not smooth over this point )
G00 Z3.00000 ( retract )

G00 X27.71808 Y-33.59912 ( rapid move to begin. )
G01 Z-0.20000
G04 P0 ( dwell for no time -- G64 should not smooth over this point )
X27.71808 Y-33.59912
X24.61928 Y-36.69792
X24.56848 Y-36.77412
X24.54308 Y-36.85032
X24.51768 Y-36.87572
X24.51768 Y-36.92652
X24.49228 Y-36.95192
X24.49228 Y-37.02812
X24.46688 Y-37.05352
X24.46688 Y-42.87012
X24.49228 Y-42.89552
X24.49228 Y-42.97172
X24.51768 Y-42.99712
X24.51768 Y-43.04792
X24.54308 Y-43.07332
X24.56848 Y-43.14952
X24.61928 Y-43.20032
X27.33708 Y-45.91812
X27.41328 Y-45.94352
X27.43868 Y-45.96892
X27.51488 Y-45.99432
X27.59108 Y-46.01972
X27.64188 Y-46.01972
X27.66728 Y-46.04512
X30.02948 Y-46.04512
X30.05488 Y-46.07052
X30.13108 Y-46.09592
X30.15648 Y-46.12132
X30.20728 Y-46.12132
X30.23268 Y-46.14672
X30.35968 Y-46.14672
X30.38508 Y-46.17212
X31.40108 Y-46.17212
X31.42648 Y-46.14672
X31.55348 Y-46.14672
X31.57888 Y-46.12132
X31.62968 Y-46.12132
X31.65508 Y-46.09592
X31.73128 Y-46.07052
X31.75668 Y-46.04512
X37.03988 Y-46.04512
X37.06528 Y-46.01972
X37.14148 Y-46.01972
X37.16688 Y-45.99432
X37.21768 Y-45.99432
X37.24308 Y-45.96892
X37.31928 Y-45.94352
X37.34468 Y-45.91812
X41.56108 Y-41.72712
X62.77008 Y-41.72712
X70.44088 Y-49.42332
X70.44088 Y-79.26832
X69.62808 Y-80.08112
X69.60268 Y-80.15732
X69.55188 Y-80.20812
X69.52648 Y-80.28432
X69.17088 Y-80.61452
X69.09468 Y-80.66532
X68.99308 Y-80.74152
X68.94228 Y-80.74152
X67.31668 Y-82.36712
X62.84628 Y-82.36712
X62.82088 Y-82.34172
X62.74468 Y-82.29092
X62.66848 Y-82.26552
X62.59228 Y-82.24012
X62.54148 Y-82.24012
X62.51608 Y-82.21472
X60.33168 Y-82.21472
X60.30628 Y-82.24012
X60.23008 Y-82.24012
X60.20468 Y-82.26552
X60.15388 Y-82.26552
X60.12848 Y-82.29092
X60.05228 Y-82.34172
X59.97608 Y-82.36712
X59.84908 Y-82.51952
X59.79828 Y-82.59572
X59.77288 Y-82.67192
X59.74748 Y-82.69732
X59.69668 Y-82.77352
X59.69668 Y-82.87512
X59.67128 Y-82.90052
X59.67128 Y-83.00212
X59.64588 Y-83.02752
X59.64588 Y-83.99272
X59.67128 Y-84.01812
X59.67128 Y-84.11972
X59.69668 Y-84.14512
X59.69668 Y-84.24672
X59.74748 Y-84.29752
X59.77288 Y-84.37372
X59.79828 Y-84.39912
X59.84908 Y-84.47532
X60.00148 Y-84.62772
X60.07768 Y-84.65312
X60.12848 Y-84.70392
X60.20468 Y-84.72932
X60.28088 Y-84.75472
X60.33168 Y-84.75472
X60.35708 Y-84.78012
X62.54148 Y-84.78012
X62.56688 Y-84.75472
X62.64308 Y-84.75472
X62.66848 Y-84.72932
X62.71928 Y-84.72932
X62.74468 Y-84.70392
X62.82088 Y-84.65312
X68.40888 Y-84.65312
X68.43428 Y-84.62772
X68.48508 Y-84.62772
X68.53588 Y-84.57692
X68.58668 Y-84.57692
X68.66288 Y-84.50072
X68.73908 Y-84.47532
X72.54908 Y-80.63992
X72.57448 Y-80.56372
X72.65068 Y-80.48752
X72.65068 Y-80.43672
X72.70148 Y-80.38592
X72.70148 Y-80.33512
X72.72688 Y-80.30972
X72.72688 Y-48.20412
X72.70148 Y-48.17872
X72.70148 Y-48.10252
X72.67608 Y-48.07712
X72.67608 Y-48.02632
X72.54908 Y-47.89932
X64.24328 Y-39.59352
X64.11628 Y-39.49192
X64.06548 Y-39.49192
X64.04008 Y-39.46652
X63.96388 Y-39.46652
X63.93848 Y-39.44112
X40.34188 Y-39.44112
X40.31648 Y-39.46652
X40.24028 Y-39.46652
X40.21488 Y-39.49192
X40.16408 Y-39.49192
X40.13868 Y-39.51732
X40.06248 Y-39.54272
X40.03708 Y-39.56812
X35.82068 Y-43.75912
X31.75668 Y-43.75912
X31.70588 Y-43.70832
X31.62968 Y-43.68292
X31.60428 Y-43.65752
X31.55348 Y-43.65752
X31.52808 Y-43.63212
X31.40108 Y-43.63212
X31.37568 Y-43.60672
X30.35968 Y-43.60672
X30.33428 Y-43.63212
X30.20728 Y-43.63212
X30.18188 Y-43.65752
X30.13108 Y-43.65752
X30.10568 Y-43.68292
X30.02948 Y-43.70832
X29.97868 Y-43.75912
X28.83568 Y-43.75912
X26.75288 Y-41.65092
X26.75288 Y-38.22192
X29.36908 Y-35.63112
X30.02948 Y-35.63112
X30.05488 Y-35.65652
X30.13108 Y-35.68192
X30.15648 Y-35.70732
X30.20728 Y-35.70732
X30.23268 Y-35.73272
X30.35968 Y-35.73272
X30.38508 Y-35.75812
X31.40108 Y-35.75812
X31.42648 Y-35.73272
X31.55348 Y-35.73272
X31.57888 Y-35.70732
X31.62968 Y-35.70732
X31.65508 Y-35.68192
X31.73128 Y-35.65652
X31.78208 Y-35.60572
X31.85828 Y-35.58032
X32.03608 Y-35.37712
X32.06148 Y-35.30092
X32.08688 Y-35.27552
X32.11228 Y-35.19932
X32.13768 Y-35.12312
X32.16308 Y-35.04692
X32.16308 Y-33.85312
X32.13768 Y-33.82772
X32.13768 Y-33.77692
X32.11228 Y-33.75152
X32.11228 Y-33.70072
X32.08688 Y-33.67532
X32.06148 Y-33.59912
X32.03608 Y-33.57372
X31.83288 Y-33.37052
X31.75668 Y-33.34512
X31.70588 Y-33.29432
X31.62968 Y-33.26892
X31.60428 Y-33.24352
X31.55348 Y-33.24352
X31.52808 Y-33.21812
X31.40108 Y-33.21812
X31.37568 Y-33.19272
X30.35968 Y-33.19272
X30.33428 Y-33.21812
X30.20728 Y-33.21812
X30.18188 Y-33.24352
X30.13108 Y-33.24352
X30.10568 Y-33.26892
X30.02948 Y-33.29432
X29.97868 Y-33.34512
X28.14988 Y-33.34512
X28.12448 Y-33.37052
X28.04828 Y-33.37052
X28.02288 Y-33.39592
X27.97208 Y-33.39592
X27.94668 Y-33.42132
X27.87048 Y-33.44672
X27.84508 Y-33.47212
X27.71808 Y-33.59912
G04 P0 ( dwell for no time -- G64 should not smooth over this point )
G00 Z3.00000 ( retract )

G00 X2.87688 Y-35.02152 ( rapid move to begin. )
G01 Z-0.20000
G04 P0 ( dwell for no time -- G64 should not smooth over this point )
X2.87688 Y-35.02152
X2.77528 Y-35.12312
X2.64828 Y-35.27552
X2.62288 Y-35.35172
X2.59748 Y-35.37712
X2.57208 Y-35.45332
X2.52128 Y-35.50412
X2.49588 Y-35.58032
X2.49588 Y-35.63112
X2.47048 Y-35.65652
X2.47048 Y-35.70732
X2.44508 Y-35.73272
X2.44508 Y-35.78352
X2.41968 Y-35.80892
X2.41968 Y-35.98672
X2.39428 Y-36.01212
X2.39428 Y-37.02812
X2.41968 Y-37.05352
X2.41968 Y-37.23132
X2.44508 Y-37.25672
X2.44508 Y-37.30752
X2.47048 Y-37.33292
X2.47048 Y-37.38372
X2.49588 Y-37.40912
X2.49588 Y-37.48532
X2.52128 Y-37.51072
X2.57208 Y-37.58692
X2.59748 Y-37.66312
X2.62288 Y-37.68852
X2.64828 Y-37.76472
X2.77528 Y-37.89172
X2.90228 Y-38.01872
X3.05468 Y-38.14572
X3.13088 Y-38.17112
X3.15628 Y-38.19652
X3.23248 Y-38.22192
X3.28328 Y-38.27272
X3.35948 Y-38.29812
X3.41028 Y-38.29812
X3.43568 Y-38.32352
X3.48648 Y-38.32352
X3.51188 Y-38.34892
X3.56268 Y-38.34892
X3.58808 Y-38.37432
X3.74048 Y-38.37432
X3.76588 Y-38.39972
X4.83268 Y-38.39972
X4.85808 Y-38.37432
X5.01048 Y-38.37432
X5.03588 Y-38.34892
X5.08668 Y-38.34892
X5.11208 Y-38.32352
X5.16288 Y-38.32352
X5.18828 Y-38.29812
X5.26448 Y-38.29812
X5.28988 Y-38.27272
X5.36608 Y-38.24732
X5.41688 Y-38.19652
X5.49308 Y-38.17112
X5.51848 Y-38.14572
X5.67088 Y-38.01872
X5.79788 Y-37.89172
X5.92488 Y-37.73932
X5.95028 Y-37.66312
X5.97568 Y-37.63772
X6.02648 Y-37.56152
X6.05188 Y-37.48532
X6.07728 Y-37.45992
X6.07728 Y-37.40912
X6.10268 Y-37.38372
X6.10268 Y-37.30752
X6.12808 Y-37.28212
X6.12808 Y-37.23132
X6.15348 Y-37.20592
X6.15348 Y-37.05352
X6.17888 Y-37.02812
X6.17888 Y-35.96132
X6.15348 Y-35.93592
X6.15348 Y-35.78352
X6.12808 Y-35.75812
X6.12808 Y-35.70732
X6.10268 Y-35.68192
X6.10268 Y-35.60572
X6.07728 Y-35.58032
X6.07728 Y-35.52952
X6.05188 Y-35.50412
X6.02648 Y-35.42792
X5.97568 Y-35.37712
X5.95028 Y-35.30092
X5.92488 Y-35.27552
X5.79788 Y-35.12312
X5.67088 Y-34.99612
X5.51848 Y-34.86912
X5.44228 Y-34.84372
X5.41688 Y-34.81832
X5.34068 Y-34.76752
X5.26448 Y-34.74212
X5.23908 Y-34.71672
X5.16288 Y-34.71672
X5.13748 Y-34.69132
X5.08668 Y-34.69132
X5.06128 Y-34.66592
X5.01048 Y-34.66592
X4.98508 Y-34.64052
X4.80728 Y-34.64052
X4.78188 Y-34.61512
X3.76588 Y-34.61512
X3.74048 Y-34.64052
X3.56268 Y-34.64052
X3.53728 Y-34.66592
X3.48648 Y-34.66592
X3.46108 Y-34.69132
X3.41028 Y-34.69132
X3.38488 Y-34.71672
X3.30868 Y-34.71672
X3.28328 Y-34.74212
X3.20708 Y-34.76752
X3.15628 Y-34.81832
X3.08008 Y-34.84372
X3.05468 Y-34.86912
X2.90228 Y-34.99612
X2.87688 Y-35.02152
G04 P0 ( dwell for no time -- G64 should not smooth over this point )
G00 Z3.00000 ( retract )

G00 X29.72468 Y-37.15512 ( rapid move to begin. )
G01 Z-0.20000
G04 P0 ( dwell for no time -- G64 should not smooth over this point )
X29.72468 Y-37.15512
X29.69928 Y-37.18052
X29.67388 Y-37.25672
X29.64848 Y-37.28212
X29.64848 Y-37.33292
X29.62308 Y-37.35832
X29.62308 Y-37.40912
X29.59768 Y-37.43452
X29.59768 Y-38.65372
X29.62308 Y-38.67912
X29.62308 Y-38.72992
X29.64848 Y-38.75532
X29.64848 Y-38.80612
X29.67388 Y-38.83152
X29.69928 Y-38.90772
X29.72468 Y-38.93312
X29.72468 Y-40.45712
X29.69928 Y-40.48252
X29.67388 Y-40.55872
X29.64848 Y-40.58412
X29.64848 Y-40.63492
X29.62308 Y-40.66032
X29.62308 Y-40.71112
X29.59768 Y-40.73652
X29.59768 Y-41.95572
X29.62308 Y-41.98112
