( pcb2gcode 1.1.5 )

( This file uses 5 drill bit sizes. )
( Bit sizes: [0.8mm] [0.813mm] [0.9mm] [1mm] [3.4mm] )

       G94       (Millimeters per minute feed rate.)
G21       (Units == Millimeters.)
G90       (Absolute coordinates.)
S20000     (RPM spindle speed.)

G00 Z30.00000 (Retract)
T1
M5      (Spindle stop.)
M6      (Tool change.)
(MSG, Change tool bit to drill size 0.80000 mm)
M0      (Temporary machine stop.)
M3      (Spindle on clockwise.)

G81 R3.00000 Z-1.70000 F200.00000 X80.46068 Y-75.88000
X73.34868 Y-85.27800
X68.77668 Y-75.62600
X68.52268 Y-91.20000
X68.52268 Y-101.20000
X68.26868 Y-79.43600
X67.25268 Y-33.20800
X65.72868 Y-104.83600
X65.72868 Y-107.37600
X65.72868 Y-110.93200
X65.72868 Y-113.47200
X65.22068 Y-75.88000
X65.22068 Y-80.96000
X65.22068 Y-91.20000
X65.22068 Y-101.20000
X64.20468 Y-54.79800
X61.41068 Y-63.18000
X61.41068 Y-65.72000
X61.41068 Y-68.26000
X61.41068 Y-70.80000
X61.41068 Y-73.34000
X61.41068 Y-75.88000
X61.41068 Y-78.42000
X61.41068 Y-80.96000
X61.41068 Y-83.50000
X61.41068 Y-86.04000
X61.41068 Y-88.58000
X61.41068 Y-91.12000
X61.41068 Y-93.66000
X61.41068 Y-96.20000
X59.29868 Y-101.02600
X59.29868 Y-104.32800
X55.44168 Y-26.22300
X55.44168 Y-28.76300
X55.06068 Y-34.22400
X53.79068 Y-63.18000
X53.79068 Y-65.72000
X53.79068 Y-68.26000
X53.79068 Y-70.80000
X53.79068 Y-73.34000
X53.79068 Y-75.88000
X53.79068 Y-78.42000
X53.79068 Y-80.96000
X53.79068 Y-83.50000
X53.79068 Y-86.04000
X53.79068 Y-88.58000
X53.79068 Y-91.12000
X53.79068 Y-93.66000
X53.79068 Y-96.20000
X52.52068 Y-98.74000
X51.16268 Y-95.92600
X50.36168 Y-28.76300
X50.36168 Y-33.84300
X49.98068 Y-78.42000
X49.98068 Y-83.50000
X49.29868 Y-101.02600
X49.29868 Y-104.32800
X48.96468 Y-53.02000
X47.94868 Y-14.15800
X47.94868 Y-16.69800
X47.94868 Y-79.43600
X46.17068 Y-81.21400
X46.17068 Y-83.75400
X44.90068 Y-109.40800
X44.73468 Y-103.58600
X44.39268 Y-117.53600
X42.86868 Y-16.69800
X42.86868 Y-21.77800
X42.53468 Y-84.77000
X42.10668 Y-53.02000
X41.59868 Y-66.30800
X41.59868 Y-76.30800
X41.09068 Y-46.16200
X38.93168 Y-25.03300
X38.93168 Y-35.03300
X38.80468 Y-73.59400
X38.55068 Y-78.42000
X36.69268 Y-87.94500
X36.01068 Y-25.33400
X36.01068 Y-66.30800
X36.01068 Y-76.30800
X35.75668 Y-111.44000
X34.48668 Y-50.73400
X33.64468 Y-101.78800
X33.64468 Y-105.09000
X33.64468 Y-108.26500
X33.21668 Y-58.86200
X32.53468 Y-84.77000
X32.20068 Y-66.30800
X32.20068 Y-76.30800
X31.43868 Y-12.96800
X31.43868 Y-22.96800
X31.35868 Y-28.38200
X30.85068 Y-34.47800
X30.85068 Y-38.03400
X30.85068 Y-41.33600
X30.85068 Y-44.89200
X30.72368 Y-48.57500
X30.72368 Y-52.38500
X27.88268 Y-66.05400
X27.88268 Y-76.05400
X27.62868 Y-12.96800
X27.62868 Y-22.96800
X26.69268 Y-87.94500
X24.07268 Y-66.05400
X24.07268 Y-76.05400
X23.81868 Y-12.96800
X23.81868 Y-22.96800
X23.64468 Y-101.78800
X23.64468 Y-105.09000
X23.64468 Y-108.26500
X21.35868 Y-28.38200
X20.85068 Y-34.47800
X20.85068 Y-38.03400
X20.85068 Y-41.33600
X20.85068 Y-44.89200
X20.72368 Y-48.57500
X20.72368 Y-52.38500
X20.51668 Y-101.78800
X20.51668 Y-106.86800
X20.26268 Y-66.05400
X20.26268 Y-76.05400
X20.00868 Y-12.96800
X20.00868 Y-22.96800
X18.23068 Y-58.86200
X17.97668 Y-39.30400
X17.46868 Y-96.96200
X17.46868 Y-108.13800
X17.38868 Y-100.77200
X15.35668 Y-105.09000
X9.32068 Y-94.69600
X7.38868 Y-100.77200
X5.35668 Y-105.09000
X2.24868 Y-101.76800

G00 Z30.00000 (Retract)
T2
M5      (Spindle stop.)
M6      (Tool change.)
(MSG, Change tool bit to drill size 0.81300 mm)
M0      (Temporary machine stop.)
M3      (Spindle on clockwise.)

G81 R3.00000 Z-1.70000 F200.00000 X35.50268 Y-91.75500
X35.50268 Y-94.29500
X29.53368 Y-56.19500
X29.53368 Y-58.73500
X27.88268 Y-91.75500
X27.88268 Y-94.29500
X21.91368 Y-56.19500
X21.91368 Y-58.73500
X13.72168 Y-108.45600
X13.72168 Y-110.99600
X6.10168 Y-108.45600
X6.10168 Y-110.99600

G00 Z30.00000 (Retract)
T3
M5      (Spindle stop.)
M6      (Tool change.)
(MSG, Change tool bit to drill size 0.90000 mm)
M0      (Temporary machine stop.)
M3      (Spindle on clockwise.)

G81 R3.00000 Z-1.70000 F200.00000 X59.63268 Y-46.16200
X59.63268 Y-48.70200
X57.34668 Y-109.91600
X57.34668 Y-112.45600
X57.09268 Y-46.16200
X57.09268 Y-48.70200
X54.80668 Y-109.91600
X54.80668 Y-112.45600
X54.55268 Y-46.16200
X54.55268 Y-48.70200
X52.26668 Y-109.91600
X52.26668 Y-112.45600
X52.01268 Y-46.16200
X52.01268 Y-48.70200
X49.47268 Y-46.16200
X49.47268 Y-48.70200
X44.90068 Y-106.10600
X42.36068 Y-106.10600
X39.82068 Y-106.10600
X37.28068 Y-106.10600

G00 Z30.00000 (Retract)
T4
M5      (Spindle stop.)
M6      (Tool change.)
(MSG, Change tool bit to drill size 1.00000 mm)
M0      (Temporary machine stop.)
M3      (Spindle on clockwise.)

G81 R3.00000 Z-1.70000 F200.00000 X45.59168 Y-27.49300
X45.59168 Y-30.03300
X45.59168 Y-32.57300
X38.09868 Y-15.42800
X38.09868 Y-17.96800
X38.09868 Y-20.50800
X21.84268 Y-90.48500
X21.84268 Y-93.02500
X21.84268 Y-95.56500
X20.71468 Y-79.43600
X20.71468 Y-81.97600
X20.71468 Y-84.51600
X14.42068 Y-16.19000
X14.42068 Y-21.27000
X14.42068 Y-26.35000
X14.42068 Y-31.43000
X14.42068 Y-36.51000
X14.42068 Y-41.59000
X14.42068 Y-46.67000
X14.42068 Y-51.75000
X14.42068 Y-56.83000
X14.42068 Y-61.91000
X14.42068 Y-66.99000
X14.42068 Y-72.07000
X14.42068 Y-77.15000
X14.42068 Y-82.23000
X14.42068 Y-87.31000
X14.42068 Y-92.39000
X4.26068 Y-16.19000
X4.26068 Y-21.27000
X4.26068 Y-26.35000
X4.26068 Y-31.43000
X4.26068 Y-36.51000
X4.26068 Y-41.59000
X4.26068 Y-46.67000
X4.26068 Y-51.75000
X4.26068 Y-56.83000
X4.26068 Y-61.91000
X4.26068 Y-66.99000
X4.26068 Y-72.07000
X4.26068 Y-77.15000
X4.26068 Y-82.23000
X4.26068 Y-87.31000
X4.26068 Y-92.39000

G00 Z30.00000 (Retract)
T5
M5      (Spindle stop.)
M6      (Tool change.)
(MSG, Change tool bit to drill size 3.40000 mm)
M0      (Temporary machine stop.)
M3      (Spindle on clockwise.)

G81 R3.00000 Z-1.70000 F200.00000 X76.81068 Y-6.00000
X76.81068 Y-118.00000
X6.81068 Y-6.00000
X6.81068 Y-118.00000

G00 Z30.00000 (All done -- retract)

M9      (Coolant off.)
M2      (Program end.)

