( pcb2gcode 1.1.5 )
      
G94     ( Millimeters per minute feed rate. )
G21     ( Units == Millimeters. )

G90     ( Absolute coordinates.        )
S20000  ( RPM spindle speed.           )
F200.00000
M3      ( Spindle on clockwise.        )

G64 P1.00000 ( set maximum deviation from commanded toolpath )

G04 P0 ( dwell for no time -- G64 should not smooth over this point )
G00 Z3.00000 ( retract )

G00 X-0.55118 Y0.03048 ( rapid move to begin. )
G01 Z-0.50000 F100.00000 ( plunge. )
G04 P0 ( dwell for no time -- G64 should not smooth over this point )
F200.00000
X-0.55118 Y0.03048
X-0.55118 Y-60.49886
Z-0.80000
X-0.55118 Y-63.49886
Z-0.50000
X-0.55118 Y-124.50572
X-0.47498 Y-124.53112
X39.49941 Y-124.53112
Z-0.80000
X42.49941 Y-124.53112
Z-0.50000
X82.50682 Y-124.53112
X82.53222 Y-124.45492
X82.53222 Y-63.49886
Z-0.80000
X82.53222 Y-60.49886
Z-0.50000
X82.53222 Y0.51308
X82.45602 Y0.53848
X42.49941 Y0.53848
Z-0.80000
X39.49941 Y0.53848
Z-0.50000
X-0.52578 Y0.53848
X-0.55118 Y0.46228
X-0.55118 Y0.03048
G01 Z-1.10000 F100.00000 ( plunge. )
G04 P0 ( dwell for no time -- G64 should not smooth over this point )
F200.00000
X-0.55118 Y0.03048
X-0.55118 Y-60.49886
Z-0.80000
X-0.55118 Y-63.49886
Z-1.10000
X-0.55118 Y-124.50572
X-0.47498 Y-124.53112
X39.49941 Y-124.53112
Z-0.80000
X42.49941 Y-124.53112
Z-1.10000
X82.50682 Y-124.53112
X82.53222 Y-124.45492
X82.53222 Y-63.49886
Z-0.80000
X82.53222 Y-60.49886
Z-1.10000
X82.53222 Y0.51308
X82.45602 Y0.53848
X42.49941 Y0.53848
Z-0.80000
X39.49941 Y0.53848
Z-1.10000
X-0.52578 Y0.53848
X-0.55118 Y0.46228
X-0.55118 Y0.03048
G01 Z-1.70000 F100.00000 ( plunge. )
G04 P0 ( dwell for no time -- G64 should not smooth over this point )
F200.00000
X-0.55118 Y0.03048
X-0.55118 Y-60.49886
Z-0.80000
X-0.55118 Y-63.49886
Z-1.70000
X-0.55118 Y-124.50572
X-0.47498 Y-124.53112
X39.49941 Y-124.53112
Z-0.80000
X42.49941 Y-124.53112
Z-1.70000
X82.50682 Y-124.53112
X82.53222 Y-124.45492
X82.53222 Y-63.49886
Z-0.80000
X82.53222 Y-60.49886
Z-1.70000
X82.53222 Y0.51308
X82.45602 Y0.53848
X42.49941 Y0.53848
Z-0.80000
X39.49941 Y0.53848
Z-1.70000
X-0.52578 Y0.53848
X-0.55118 Y0.46228
X-0.55118 Y0.03048

G04 P0 ( dwell for no time -- G64 should not smooth over this point )
G00 Z30.00000 ( retract )

M9 ( Coolant off. )
M2 ( Program end. )
