( pcb2gcode 1.1.5 )
      
G94     ( Millimeters per minute feed rate. )
G21     ( Units == Millimeters. )

G90     ( Absolute coordinates.        )
S20000  ( RPM spindle speed.           )
F100.00000
M3      ( Spindle on clockwise.        )

G64 P1.00000 ( set maximum deviation from commanded toolpath )

G04 P0 ( dwell for no time -- G64 should not smooth over this point )
G00 Z3.00000 ( retract )

G00 X27.01956 Y-1.51384 ( rapid move to begin. )
G01 Z-0.20000
G04 P0 ( dwell for no time -- G64 should not smooth over this point )
X27.01956 Y-1.51384
X26.96876 Y-1.51384
X26.94336 Y-1.53924
X26.86716 Y-1.56464
X26.84176 Y-1.59004
X26.76556 Y-1.61544
X26.74016 Y-1.64084
X26.66396 Y-1.66624
X26.61316 Y-1.71704
X26.53696 Y-1.76784
X26.46076 Y-1.79324
X26.40996 Y-1.84404
X26.33376 Y-1.86944
X26.25756 Y-1.94564
X26.15596 Y-2.02184
X26.05436 Y-2.09804
X25.85116 Y-2.27584
X25.54636 Y-2.58064
X25.36856 Y-2.78384
X25.29236 Y-2.88544
X25.21616 Y-2.98704
X25.13996 Y-3.08864
X25.11456 Y-3.16484
X25.06376 Y-3.21564
X25.03836 Y-3.29184
X24.98756 Y-3.34264
X24.93676 Y-3.41884
X24.91136 Y-3.49504
X24.88596 Y-3.52044
X24.86056 Y-3.59664
X24.83516 Y-3.62204
X24.80976 Y-3.69824
X24.78436 Y-3.72364
X24.75896 Y-3.79984
X24.73356 Y-3.87604
X24.70816 Y-3.90144
X24.68276 Y-3.97764
X24.65736 Y-4.05384
X24.63196 Y-4.13004
X24.60656 Y-4.20624
X24.58116 Y-4.23164
X24.58116 Y-4.30784
X24.55576 Y-4.33324
X24.55576 Y-4.38404
X24.53036 Y-4.40944
X24.53036 Y-4.48564
X24.50496 Y-4.51104
X24.50496 Y-4.58724
X24.47956 Y-4.61264
X24.47956 Y-4.68884
X24.45416 Y-4.71424
X24.45416 Y-4.84124
X24.42876 Y-4.86664
X24.42876 Y-5.01904
X24.40336 Y-5.04444
X24.40336 Y-5.27304
X24.37796 Y-5.29844
X24.37796 Y-6.72084
X24.40336 Y-6.74624
X24.40336 Y-6.97484
X24.42876 Y-7.00024
X24.42876 Y-7.15264
X24.45416 Y-7.17804
X24.45416 Y-7.30504
X24.47956 Y-7.33044
X24.47956 Y-7.40664
X24.50496 Y-7.43204
X24.50496 Y-7.50824
X24.53036 Y-7.53364
X24.53036 Y-7.60984
X24.55576 Y-7.63524
X24.55576 Y-7.68604
X24.58116 Y-7.71144
X24.58116 Y-7.78764
X24.60656 Y-7.81304
X24.63196 Y-7.88924
X24.65736 Y-7.96544
X24.68276 Y-8.04164
X24.70816 Y-8.06704
X24.70816 Y-8.11784
X24.73356 Y-8.14324
X24.75896 Y-8.21944
X24.78436 Y-8.29564
X24.80976 Y-8.32104
X24.83516 Y-8.39724
X24.86056 Y-8.42264
X24.88596 Y-8.49884
X24.91136 Y-8.52424
X24.93676 Y-8.60044
X24.98756 Y-8.65124
X25.03836 Y-8.72744
X25.06376 Y-8.80364
X25.11456 Y-8.85444
X25.13996 Y-8.93064
X25.21616 Y-9.00684
X25.29236 Y-9.10844
X25.36856 Y-9.21004
X25.54636 Y-9.41324
X25.85116 Y-9.71804
X26.05436 Y-9.89584
X26.15596 Y-9.97204
X26.25756 Y-10.04824
X26.35916 Y-10.12444
X26.43536 Y-10.14984
X26.48616 Y-10.20064
X26.56236 Y-10.22604
X26.61316 Y-10.27684
X26.68936 Y-10.32764
X26.76556 Y-10.35304
X26.79096 Y-10.37844
X26.86716 Y-10.40384
X26.89256 Y-10.42924
X26.96876 Y-10.45464
X26.99416 Y-10.48004
X27.07036 Y-10.50544
X27.14656 Y-10.53084
X27.17196 Y-10.55624
X27.24816 Y-10.58164
X27.32436 Y-10.60704
X27.40056 Y-10.63244
X27.47676 Y-10.65784
X27.50216 Y-10.68324
X27.57836 Y-10.68324
X27.60376 Y-10.70864
X27.65456 Y-10.70864
X27.67996 Y-10.73404
X27.75616 Y-10.73404
X27.78156 Y-10.75944
X27.85776 Y-10.75944
X27.88316 Y-10.78484
X27.95936 Y-10.78484
X27.98476 Y-10.81024
X28.11176 Y-10.81024
X28.13716 Y-10.83564
X28.28956 Y-10.83564
X28.31496 Y-10.86104
X28.54356 Y-10.86104
X28.56896 Y-10.88644
X29.99136 Y-10.88644
X30.01676 Y-10.86104
X30.24536 Y-10.86104
X30.27076 Y-10.83564
X30.42316 Y-10.83564
X30.44856 Y-10.81024
X30.57556 Y-10.81024
X30.60096 Y-10.78484
X30.67716 Y-10.78484
X30.70256 Y-10.75944
X30.77876 Y-10.75944
X30.80416 Y-10.73404
X30.88036 Y-10.73404
X30.90576 Y-10.70864
X30.98196 Y-10.70864
X31.00736 Y-10.68324
X31.05816 Y-10.68324
X31.08356 Y-10.65784
X31.15976 Y-10.63244
X31.23596 Y-10.60704
X31.31216 Y-10.58164
X31.38836 Y-10.55624
X31.41376 Y-10.53084
X31.46456 Y-10.53084
X31.48996 Y-10.50544
X31.56616 Y-10.48004
X31.59156 Y-10.45464
X31.66776 Y-10.42924
X31.69316 Y-10.40384
X31.76936 Y-10.37844
X31.79476 Y-10.35304
X31.87096 Y-10.32764
X31.92176 Y-10.27684
X31.99796 Y-10.25144
X32.04876 Y-10.20064
X32.12496 Y-10.14984
X32.20116 Y-10.12444
X32.27736 Y-10.04824
X32.37896 Y-9.97204
X32.48056 Y-9.89584
X32.68376 Y-9.71804
X32.98856 Y-9.41324
X33.16636 Y-9.21004
X33.24256 Y-9.10844
X33.31876 Y-9.00684
X33.39496 Y-8.90524
X33.42036 Y-8.82904
X33.47116 Y-8.77824
X33.52196 Y-8.70204
X33.54736 Y-8.62584
X33.59816 Y-8.57504
X33.62356 Y-8.49884
X33.64896 Y-8.47344
X33.67436 Y-8.39724
X33.69976 Y-8.37184
X33.72516 Y-8.29564
X33.75056 Y-8.27024
X33.77596 Y-8.19404
X33.80136 Y-8.16864
X33.80136 Y-8.11784
X33.82676 Y-8.09244
X33.85216 Y-8.01624
X33.87756 Y-7.94004
X33.90296 Y-7.86384
X33.92836 Y-7.78764
X33.95376 Y-7.76224
X33.95376 Y-7.71144
X33.97916 Y-7.68604
X33.97916 Y-7.60984
X34.00456 Y-7.58444
X34.00456 Y-4.38404
X33.97916 Y-4.35864
X33.97916 Y-4.28244
X33.95376 Y-4.25704
X33.95376 Y-4.20624
X33.92836 Y-4.18084
X33.90296 Y-4.10464
X33.87756 Y-4.02844
X33.85216 Y-3.95224
X33.82676 Y-3.87604
X33.80136 Y-3.85064
X33.80136 Y-3.79984
X33.77596 Y-3.77444
X33.75056 Y-3.69824
X33.72516 Y-3.67284
X33.69976 Y-3.59664
X33.67436 Y-3.57124
X33.64896 Y-3.49504
X33.62356 Y-3.46964
X33.59816 Y-3.39344
X33.54736 Y-3.34264
X33.52196 Y-3.26644
X33.47116 Y-3.21564
X33.42036 Y-3.13944
X33.39496 Y-3.06324
X33.31876 Y-2.98704
X33.24256 Y-2.88544
X33.16636 Y-2.78384
X32.98856 Y-2.58064
X32.68376 Y-2.27584
X32.48056 Y-2.09804
X32.37896 Y-2.02184
X32.27736 Y-1.94564
X32.17576 Y-1.86944
X32.09956 Y-1.84404
X32.04876 Y-1.79324
X31.97256 Y-1.74244
X31.89636 Y-1.71704
X31.84556 Y-1.66624
X31.76936 Y-1.64084
X31.74396 Y-1.61544
X31.66776 Y-1.59004
X31.64236 Y-1.56464
X31.56616 Y-1.53924
X31.54076 Y-1.51384
X31.46456 Y-1.48844
X31.43916 Y-1.46304
X31.38836 Y-1.46304
X31.36296 Y-1.43764
X31.28676 Y-1.41224
X31.21056 Y-1.38684
X31.13436 Y-1.36144
X31.05816 Y-1.33604
X31.03276 Y-1.31064
X30.98196 Y-1.31064
X30.95656 Y-1.28524
X30.88036 Y-1.28524
X30.85496 Y-1.25984
X27.65456 Y-1.25984
X27.62916 Y-1.28524
X27.55296 Y-1.28524
X27.52756 Y-1.31064
X27.47676 Y-1.31064
X27.45136 Y-1.33604
X27.37516 Y-1.36144
X27.29896 Y-1.38684
X27.22276 Y-1.41224
X27.14656 Y-1.43764
X27.12116 Y-1.46304
X27.04496 Y-1.48844
X27.01956 Y-1.51384
G04 P0 ( dwell for no time -- G64 should not smooth over this point )
G00 Z3.00000 ( retract )

G00 X4.00716 Y-1.51384 ( rapid move to begin. )
G01 Z-0.20000
G04 P0 ( dwell for no time -- G64 should not smooth over this point )
X4.00716 Y-1.51384
X3.95636 Y-1.51384
X3.93096 Y-1.53924
X3.85476 Y-1.56464
X3.82936 Y-1.59004
X3.75316 Y-1.61544
X3.72776 Y-1.64084
X3.65156 Y-1.66624
X3.60076 Y-1.71704
X3.52456 Y-1.76784
X3.44836 Y-1.79324
X3.39756 Y-1.84404
X3.32136 Y-1.86944
X3.24516 Y-1.94564
X3.14356 Y-2.02184
X3.04196 Y-2.09804
X2.83876 Y-2.27584
X2.53396 Y-2.58064
X2.35616 Y-2.78384
X2.27996 Y-2.88544
X2.20376 Y-2.98704
X2.12756 Y-3.08864
X2.10216 Y-3.16484
X2.05136 Y-3.21564
X2.02596 Y-3.29184
X1.97516 Y-3.34264
X1.92436 Y-3.41884
X1.89896 Y-3.49504
X1.87356 Y-3.52044
X1.84816 Y-3.59664
X1.82276 Y-3.62204
X1.79736 Y-3.69824
X1.77196 Y-3.72364
X1.74656 Y-3.79984
X1.72116 Y-3.87604
X1.69576 Y-3.90144
X1.67036 Y-3.97764
X1.64496 Y-4.05384
X1.61956 Y-4.13004
X1.59416 Y-4.20624
X1.56876 Y-4.23164
X1.56876 Y-4.30784
X1.54336 Y-4.33324
X1.54336 Y-4.38404
X1.51796 Y-4.40944
X1.51796 Y-4.48564
X1.49256 Y-4.51104
X1.49256 Y-4.58724
X1.46716 Y-4.61264
X1.46716 Y-4.68884
X1.44176 Y-4.71424
X1.44176 Y-4.84124
X1.41636 Y-4.86664
X1.41636 Y-5.01904
X1.39096 Y-5.04444
X1.39096 Y-5.27304
X1.36556 Y-5.29844
X1.36556 Y-6.72084
X1.39096 Y-6.74624
X1.39096 Y-6.97484
X1.41636 Y-7.00024
X1.41636 Y-7.15264
X1.44176 Y-7.17804
X1.44176 Y-7.30504
X1.46716 Y-7.33044
X1.46716 Y-7.40664
X1.49256 Y-7.43204
X1.49256 Y-7.50824
X1.51796 Y-7.53364
X1.51796 Y-7.60984
X1.54336 Y-7.63524
X1.54336 Y-7.68604
X1.56876 Y-7.71144
X1.56876 Y-7.78764
X1.59416 Y-7.81304
X1.61956 Y-7.88924
X1.64496 Y-7.96544
X1.67036 Y-8.04164
X1.69576 Y-8.06704
X1.69576 Y-8.11784
X1.72116 Y-8.14324
X1.74656 Y-8.21944
X1.77196 Y-8.29564
X1.79736 Y-8.32104
X1.82276 Y-8.39724
X1.84816 Y-8.42264
X1.87356 Y-8.49884
X1.89896 Y-8.52424
X1.92436 Y-8.60044
X1.97516 Y-8.65124
X2.02596 Y-8.72744
X2.05136 Y-8.80364
X2.10216 Y-8.85444
X2.12756 Y-8.93064
X2.20376 Y-9.00684
X2.27996 Y-9.10844
X2.35616 Y-9.21004
X2.53396 Y-9.41324
X2.83876 Y-9.71804
X3.04196 Y-9.89584
X3.14356 Y-9.97204
X3.24516 Y-10.04824
X3.34676 Y-10.12444
X3.42296 Y-10.14984
X3.47376 Y-10.20064
X3.54996 Y-10.22604
X3.60076 Y-10.27684
X3.67696 Y-10.32764
X3.75316 Y-10.35304
X3.77856 Y-10.37844
X3.85476 Y-10.40384
X3.88016 Y-10.42924
X3.95636 Y-10.45464
X3.98176 Y-10.48004
X4.05796 Y-10.50544
X4.13416 Y-10.53084
X4.15956 Y-10.55624
X4.23576 Y-10.58164
X4.31196 Y-10.60704
X4.38816 Y-10.63244
X4.46436 Y-10.65784
X4.48976 Y-10.68324
X4.56596 Y-10.68324
X4.59136 Y-10.70864
X4.64216 Y-10.70864
X4.66756 Y-10.73404
X4.74376 Y-10.73404
X4.76916 Y-10.75944
X4.84536 Y-10.75944
X4.87076 Y-10.78484
X4.94696 Y-10.78484
X4.97236 Y-10.81024
X5.09936 Y-10.81024
X5.12476 Y-10.83564
X5.27716 Y-10.83564
X5.30256 Y-10.86104
X5.53116 Y-10.86104
X5.55656 Y-10.88644
X6.97896 Y-10.88644
X7.00436 Y-10.86104
X7.23296 Y-10.86104
X7.25836 Y-10.83564
X7.41076 Y-10.83564
X7.43616 Y-10.81024
X7.56316 Y-10.81024
X7.58856 Y-10.78484
X7.66476 Y-10.78484
X7.69016 Y-10.75944
X7.76636 Y-10.75944
X7.79176 Y-10.73404
X7.86796 Y-10.73404
X7.89336 Y-10.70864
X7.96956 Y-10.70864
X7.99496 Y-10.68324
X8.04576 Y-10.68324
X8.07116 Y-10.65784
X8.14736 Y-10.63244
X8.22356 Y-10.60704
X8.29976 Y-10.58164
X8.37596 Y-10.55624
X8.40136 Y-10.53084
X8.45216 Y-10.53084
X8.47756 Y-10.50544
X8.55376 Y-10.48004
X8.57916 Y-10.45464
X8.65536 Y-10.42924
X8.68076 Y-10.40384
X8.75696 Y-10.37844
X8.78236 Y-10.35304
X8.85856 Y-10.32764
X8.90936 Y-10.27684
X8.98556 Y-10.25144
X9.03636 Y-10.20064
X9.11256 Y-10.14984
X9.18876 Y-10.12444
X9.26496 Y-10.04824
X9.36656 Y-9.97204
X9.46816 Y-9.89584
X9.67136 Y-9.71804
X9.97616 Y-9.41324
X10.15396 Y-9.21004
X10.23016 Y-9.10844
X10.30636 Y-9.00684
X10.38256 Y-8.90524
X10.40796 Y-8.82904
X10.45876 Y-8.77824
X10.50956 Y-8.70204
X10.53496 Y-8.62584
X10.58576 Y-8.57504
X10.61116 Y-8.49884
X10.63656 Y-8.47344
X10.66196 Y-8.39724
X10.68736 Y-8.37184
X10.71276 Y-8.29564
X10.73816 Y-8.27024
X10.76356 Y-8.19404
X10.78896 Y-8.16864
X10.78896 Y-8.11784
X10.81436 Y-8.09244
X10.83976 Y-8.01624
X10.86516 Y-7.94004
X10.89056 Y-7.86384
X10.91596 Y-7.78764
X10.94136 Y-7.76224
X10.94136 Y-7.71144
X10.96676 Y-7.68604
X10.96676 Y-7.60984
X10.99216 Y-7.58444
X10.99216 Y-7.50824
X11.01756 Y-7.48284
X11.01756 Y-7.40664
X11.04296 Y-7.38124
X11.04296 Y-7.30504
X11.06836 Y-7.27964
X11.06836 Y-7.15264
X11.09376 Y-7.12724
X11.09376 Y-6.97484
X11.11916 Y-6.94944
X11.11916 Y-6.72084
X11.14456 Y-6.69544
X11.14456 Y-5.27304
X11.11916 Y-5.24764
X11.11916 Y-5.01904
X11.09376 Y-4.99364
X11.09376 Y-4.84124
X11.06836 Y-4.81584
X11.06836 Y-4.68884
X11.04296 Y-4.66344
X11.04296 Y-4.58724
X11.01756 Y-4.56184
X11.01756 Y-4.48564
X10.99216 Y-4.46024
X10.99216 Y-4.38404
X10.96676 Y-4.35864
X10.96676 Y-4.28244
X10.94136 Y-4.25704
X10.94136 Y-4.20624
X10.91596 Y-4.18084
X10.89056 Y-4.10464
X10.86516 Y-4.02844
X10.83976 Y-3.95224
X10.81436 Y-3.87604
X10.78896 Y-3.85064
X10.78896 Y-3.79984
X10.76356 Y-3.77444
X10.73816 Y-3.69824
X10.71276 Y-3.67284
X10.68736 Y-3.59664
X10.66196 Y-3.57124
X10.63656 Y-3.49504
X10.61116 Y-3.46964
X10.58576 Y-3.39344
X10.53496 Y-3.34264
X10.50956 Y-3.26644
X10.45876 Y-3.21564
X10.40796 Y-3.13944
X10.38256 Y-3.06324
X10.30636 Y-2.98704
X10.23016 Y-2.88544
X10.15396 Y-2.78384
X9.97616 Y-2.58064
X9.67136 Y-2.27584
X9.46816 Y-2.09804
X9.36656 Y-2.02184
X9.26496 Y-1.94564
X9.16336 Y-1.86944
X9.08716 Y-1.84404
X9.03636 Y-1.79324
X8.96016 Y-1.74244
X8.88396 Y-1.71704
X8.83316 Y-1.66624
X8.75696 Y-1.64084
X8.73156 Y-1.61544
X8.65536 Y-1.59004
X8.62996 Y-1.56464
X8.55376 Y-1.53924
X8.52836 Y-1.51384
X8.45216 Y-1.48844
X8.42676 Y-1.46304
X8.37596 Y-1.46304
X8.35056 Y-1.43764
X8.27436 Y-1.41224
X8.19816 Y-1.38684
X8.12196 Y-1.36144
X8.04576 Y-1.33604
X8.02036 Y-1.31064
X7.96956 Y-1.31064
X7.94416 Y-1.28524
X7.86796 Y-1.28524
X7.84256 Y-1.25984
X4.64216 Y-1.25984
X4.61676 Y-1.28524
X4.54056 Y-1.28524
X4.51516 Y-1.31064
X4.46436 Y-1.31064
X4.43896 Y-1.33604
X4.36276 Y-1.36144
X4.28656 Y-1.38684
X4.21036 Y-1.41224
X4.13416 Y-1.43764
X4.10876 Y-1.46304
X4.03256 Y-1.48844
X4.00716 Y-1.51384
G04 P0 ( dwell for no time -- G64 should not smooth over this point )
G00 Z3.00000 ( retract )

G00 X19.65356 Y-1.56464 ( rapid move to begin. )
G01 Z-0.20000
G04 P0 ( dwell for no time -- G64 should not smooth over this point )
X19.65356 Y-1.56464
X19.62816 Y-1.59004
X19.60276 Y-1.66624
X19.57736 Y-1.69164
X19.57736 Y-1.74244
X19.55196 Y-1.76784
X19.55196 Y-1.81864
X19.52656 Y-1.84404
X19.52656 Y-3.06324
X19.55196 Y-3.08864
X19.55196 Y-3.13944
X19.57736 Y-3.16484
X19.57736 Y-3.21564
X19.60276 Y-3.24104
X19.62816 Y-3.31724
X19.65356 Y-3.34264
X19.85676 Y-3.54584
X19.93296 Y-3.57124
X19.98376 Y-3.62204
X20.05996 Y-3.64744
X20.08536 Y-3.67284
X20.11076 Y-3.69824
X20.11076 Y-10.50544
X20.13616 Y-10.53084
X20.13616 Y-10.60704
X20.16156 Y-10.63244
X20.16156 Y-10.68324
X20.18696 Y-10.70864
X20.21236 Y-10.78484
X20.26316 Y-10.83564
X24.12396 Y-14.72184
X24.12396 Y-15.05204
X24.14936 Y-15.07744
X24.14936 Y-15.20444
X24.17476 Y-15.22984
X24.17476 Y-15.30604
X24.20016 Y-15.33144
X24.20016 Y-15.38224
X24.22556 Y-15.40764
X24.25096 Y-15.48384
X24.27636 Y-15.50924
X24.30176 Y-15.58544
X24.35256 Y-15.63624
X24.58116 Y-15.86484
X24.65736 Y-15.91564
X24.73356 Y-15.96644
X24.80976 Y-15.99184
X24.83516 Y-16.01724
X24.88596 Y-16.01724
X24.91136 Y-16.04264
X24.98756 Y-16.06804
X25.03836 Y-16.06804
X25.06376 Y-16.09344
X25.16536 Y-16.09344
X25.19076 Y-16.11884
X26.35916 Y-16.11884
X26.38456 Y-16.09344
X26.48616 Y-16.09344
X26.51156 Y-16.06804
X26.58776 Y-16.06804
X26.61316 Y-16.04264
X26.68936 Y-16.01724
X26.76556 Y-15.99184
X26.79096 Y-15.96644
X26.86716 Y-15.91564
X26.94336 Y-15.86484
X27.17196 Y-15.63624
X27.22276 Y-15.56004
X27.24816 Y-15.48384
X27.27356 Y-15.45844
X27.29896 Y-15.38224
X27.32436 Y-15.35684
X27.32436 Y-15.30604
X27.34976 Y-15.28064
X27.34976 Y-15.20444
X27.37516 Y-15.17904
X27.37516 Y-15.05204
X27.40056 Y-15.02664
X27.40056 Y-13.90904
X27.37516 Y-13.88364
X27.37516 Y-13.75664
X27.34976 Y-13.73124
X27.34976 Y-13.65504
X27.32436 Y-13.62964
X27.32436 Y-13.57884
X27.29896 Y-13.55344
X27.27356 Y-13.47724
X27.24816 Y-13.45184
X27.22276 Y-13.37564
X27.17196 Y-13.32484
X26.94336 Y-13.09624
X26.86716 Y-13.04544
X26.79096 Y-12.99464
X26.71476 Y-12.96924
X26.68936 Y-12.94384
X26.63856 Y-12.94384
X26.61316 Y-12.91844
X26.53696 Y-12.89304
X26.48616 Y-12.89304
X26.46076 Y-12.86764
X26.38456 Y-12.86764
X26.35916 Y-12.84224
X25.92736 Y-12.84224
X22.39676 Y-9.28624
X22.39676 Y-2.42824
X22.37136 Y-2.40284
X22.37136 Y-2.32664
X22.34596 Y-2.30124
X22.34596 Y-2.25044
X22.32056 Y-2.22504
X22.29516 Y-2.14884
X22.24436 Y-2.09804
X22.09196 Y-1.92024
X22.09196 Y-1.81864
X22.06656 Y-1.79324
X22.06656 Y-1.74244
X22.04116 Y-1.71704
X22.04116 Y-1.66624
X22.01576 Y-1.64084
X21.99036 Y-1.56464
X21.96496 Y-1.53924
X21.76176 Y-1.33604
X21.68556 Y-1.31064
X21.63476 Y-1.25984
X19.95836 Y-1.25984
X19.90756 Y-1.31064
X19.83136 Y-1.33604
X19.65356 Y-1.53924
X19.65356 Y-1.56464
G04 P0 ( dwell for no time -- G64 should not smooth over this point )
G00 Z3.00000 ( retract )

G00 X12.56696 Y-8.65124 ( rapid move to begin. )
G01 Z-0.20000
G04 P0 ( dwell for no time -- G64 should not smooth over this point )
X12.56696 Y-8.65124
X12.54156 Y-8.67664
X12.51616 Y-8.75284
X12.49076 Y-8.77824
X12.49076 Y-8.82904
X12.46536 Y-8.85444
X12.46536 Y-8.90524
X12.43996 Y-8.93064
X12.43996 Y-10.14984
X12.46536 Y-10.17524
X12.46536 Y-10.22604
X12.49076 Y-10.25144
X12.49076 Y-10.30224
X12.51616 Y-10.32764
X12.54156 Y-10.40384
X12.56696 Y-10.42924
X12.77016 Y-10.63244
X12.84636 Y-10.65784
X12.89716 Y-10.70864
X12.97336 Y-10.73404
X12.99876 Y-10.75944
X13.04956 Y-10.75944
X13.07496 Y-10.78484
X13.12576 Y-10.78484
X14.49736 Y-12.15644
X14.67516 Y-12.33424
X14.34496 Y-12.33424
X14.34496 Y-15.10284
X14.75136 Y-15.10284
X14.77676 Y-15.07744
X14.85296 Y-15.07744
X14.87836 Y-15.05204
X14.95456 Y-15.05204
X14.97996 Y-15.02664
X15.13236 Y-15.02664
X15.15776 Y-15.00124
X17.03736 Y-15.00124
X17.06276 Y-15.02664
X17.21516 Y-15.02664
X17.24056 Y-15.05204
X17.31676 Y-15.05204
X17.34216 Y-15.07744
X17.41836 Y-15.07744
X17.44376 Y-15.10284
X17.82476 Y-15.10284
X17.82476 Y-12.33424
X17.21516 Y-12.33424
X17.21516 Y-11.36904
X17.18976 Y-11.34364
X17.18976 Y-11.26744
X17.16436 Y-11.24204
X17.16436 Y-11.19124
X17.13896 Y-11.16584
X17.11356 Y-11.08964
X17.06276 Y-11.03884
X15.28476 Y-9.26084
X15.00536 Y-8.98144
X15.00536 Y-8.90524
X14.97996 Y-8.87984
X14.97996 Y-8.82904
X14.95456 Y-8.80364
X14.95456 Y-8.75284
X14.92916 Y-8.72744
X14.90376 Y-8.65124
X14.87836 Y-8.62584
X14.67516 Y-8.42264
X14.59896 Y-8.39724
X14.54816 Y-8.34644
X14.47196 Y-8.32104
X14.44656 Y-8.29564
X14.39576 Y-8.29564
X14.37036 Y-8.27024
X14.24336 Y-8.27024
X14.21796 Y-8.24484
X13.20196 Y-8.24484
X13.17656 Y-8.27024
X13.04956 Y-8.27024
X13.02416 Y-8.29564
X12.97336 Y-8.29564
X12.94796 Y-8.32104
X12.87176 Y-8.34644
X12.82096 Y-8.39724
X12.74476 Y-8.42264
X12.56696 Y-8.62584
X12.56696 Y-8.65124
G04 P0 ( dwell for no time -- G64 should not smooth over this point )
G00 Z3.00000 ( retract )

G00 X3.67696 Y-12.74064 ( rapid move to begin. )
G01 Z-0.20000
G04 P0 ( dwell for no time -- G64 should not smooth over this point )
X3.67696 Y-12.74064
X3.19436 Y-13.19784
X2.71176 Y-13.19784
X2.68636 Y-13.22324
X2.53396 Y-13.22324
X2.50856 Y-13.24864
X2.45776 Y-13.24864
X2.43236 Y-13.27404
X2.38156 Y-13.27404
X2.35616 Y-13.29944
X2.30536 Y-13.29944
X2.27996 Y-13.32484
X2.20376 Y-13.35024
X2.17836 Y-13.37564
X2.10216 Y-13.42644
X2.00056 Y-13.50264
X1.77196 Y-13.73124
X1.69576 Y-13.83284
X1.67036 Y-13.90904
X1.61956 Y-13.95984
X1.59416 Y-14.03604
X1.56876 Y-14.06144
X1.56876 Y-14.11224
X1.54336 Y-14.13764
X1.54336 Y-14.18844
X1.51796 Y-14.21384
X1.51796 Y-14.26464
X1.49256 Y-14.29004
X1.49256 Y-14.44244
X1.46716 Y-14.46784
X1.46716 Y-15.53464
X1.49256 Y-15.56004
X1.49256 Y-15.71244
X1.51796 Y-15.73784
X1.51796 Y-15.78864
X1.54336 Y-15.81404
X1.54336 Y-15.86484
X1.56876 Y-15.89024
X1.56876 Y-15.94104
X1.59416 Y-15.96644
X1.61956 Y-16.04264
X1.67036 Y-16.09344
X1.69576 Y-16.16964
X1.77196 Y-16.24584
X2.00056 Y-16.47444
X2.10216 Y-16.55064
X2.17836 Y-16.57604
X2.22916 Y-16.62684
X2.30536 Y-16.65224
X2.33076 Y-16.67764
X2.38156 Y-16.67764
X2.40696 Y-16.70304
X2.45776 Y-16.70304
X2.48316 Y-16.72844
X2.53396 Y-16.72844
X2.55936 Y-16.75384
X2.71176 Y-16.75384
X2.73716 Y-16.77924
X3.80396 Y-16.77924
X3.82936 Y-16.75384
X3.98176 Y-16.75384
X4.00716 Y-16.72844
X4.05796 Y-16.72844
X4.08336 Y-16.70304
X4.13416 Y-16.70304
X4.15956 Y-16.67764
X4.21036 Y-16.67764
X4.23576 Y-16.65224
X4.31196 Y-16.62684
X4.33736 Y-16.60144
X4.41356 Y-16.55064
X4.51516 Y-16.47444
X4.74376 Y-16.24584
X4.81996 Y-16.14424
X4.87076 Y-16.06804
X4.89616 Y-15.99184
X4.92156 Y-15.96644
X4.94696 Y-15.89024
X4.97236 Y-15.81404
X4.99776 Y-15.73784
X5.02316 Y-15.66164
X5.02316 Y-15.53464
X5.04856 Y-15.50924
X5.04856 Y-15.02664
X5.22636 Y-14.87424
X7.05516 Y-14.87424
X7.08056 Y-14.89964
X7.15676 Y-14.95044
X7.23296 Y-15.00124
X9.72216 Y-15.00124
X9.77296 Y-14.95044
X9.84916 Y-14.89964
X9.97616 Y-14.77264
X10.00156 Y-14.69644
X10.05236 Y-14.64564
X10.07776 Y-14.56944
X10.12856 Y-14.51864
X10.15396 Y-14.44244
X10.15396 Y-14.36624
X10.17936 Y-14.34084
X10.17936 Y-14.21384
X10.20476 Y-14.18844
X10.20476 Y-13.22324
X10.17936 Y-13.19784
X10.17936 Y-13.07084
X10.15396 Y-13.04544
X10.15396 Y-12.94384
X10.12856 Y-12.91844
X10.07776 Y-12.84224
X10.05236 Y-12.76604
X10.00156 Y-12.71524
X9.97616 Y-12.63904
X9.84916 Y-12.53744
X9.77296 Y-12.48664
X9.69676 Y-12.43584
X9.62056 Y-12.41044
X9.54436 Y-12.38504
X9.46816 Y-12.35964
X9.39196 Y-12.33424
X7.48696 Y-12.33424
X7.46156 Y-12.35964
X7.41076 Y-12.35964
X7.38536 Y-12.38504
X7.33456 Y-12.38504
X7.30916 Y-12.41044
X7.25836 Y-12.41044
X7.23296 Y-12.43584
X7.15676 Y-12.48664
X7.08056 Y-12.53744
X7.00436 Y-12.58824
X4.00716 Y-12.58824
X3.98176 Y-12.61364
X3.90556 Y-12.61364
X3.88016 Y-12.63904
X3.82936 Y-12.63904
X3.80396 Y-12.66444
X3.72776 Y-12.68984
X3.70236 Y-12.71524
X3.67696 Y-12.74064
G04 P0 ( dwell for no time -- G64 should not smooth over this point )
G00 Z3.00000 ( retract )

G00 X29.43256 Y-13.24864 ( rapid move to begin. )
G01 Z-0.20000
G04 P0 ( dwell for no time -- G64 should not smooth over this point )
X29.43256 Y-13.24864
X29.35636 Y-13.32484
X29.30556 Y-13.40104
X29.28016 Y-13.47724
X29.25476 Y-13.50264
X29.22936 Y-13.57884
X29.20396 Y-13.60424
X29.20396 Y-13.65504
X29.17856 Y-13.68044
X29.17856 Y-13.75664
X29.15316 Y-13.78204
X29.15316 Y-13.90904
X29.12776 Y-13.93444
X29.12776 Y-15.05204
X29.15316 Y-15.07744
X29.15316 Y-15.20444
X29.17856 Y-15.22984
X29.17856 Y-15.30604
X29.20396 Y-15.33144
X29.20396 Y-15.38224
X29.22936 Y-15.40764
X29.25476 Y-15.48384
X29.28016 Y-15.50924
X29.30556 Y-15.58544
X29.35636 Y-15.63624
X29.58496 Y-15.86484
X29.66116 Y-15.91564
X29.73736 Y-15.96644
X29.81356 Y-15.99184
X29.83896 Y-16.01724
X29.88976 Y-16.01724
X29.91516 Y-16.04264
X29.99136 Y-16.06804
X30.04216 Y-16.06804
X30.06756 Y-16.09344
X30.16916 Y-16.09344
X30.19456 Y-16.11884
X31.36296 Y-16.11884
X31.38836 Y-16.09344
X31.48996 Y-16.09344
X31.51536 Y-16.06804
X31.59156 Y-16.06804
X31.61696 Y-16.04264
X31.69316 Y-16.01724
X31.76936 Y-15.99184
X31.79476 Y-15.96644
X31.87096 Y-15.91564
X31.94716 Y-15.86484
X32.17576 Y-15.63624
X32.22656 Y-15.56004
X32.25196 Y-15.48384
X32.27736 Y-15.45844
X32.30276 Y-15.38224
X32.32816 Y-15.35684
X32.32816 Y-15.30604
X32.35356 Y-15.28064
X32.35356 Y-15.20444
X32.37896 Y-15.17904
X32.37896 Y-15.05204
X32.40436 Y-15.02664
X32.40436 Y-13.90904
X32.37896 Y-13.88364
X32.37896 Y-13.75664
X32.35356 Y-13.73124
X32.35356 Y-13.65504
X32.32816 Y-13.62964
X32.32816 Y-13.57884
X32.30276 Y-13.55344
X32.27736 Y-13.47724
X32.25196 Y-13.45184
X32.22656 Y-13.37564
X32.17576 Y-13.32484
X31.94716 Y-13.09624
X31.87096 Y-13.04544
X31.79476 Y-12.99464
X31.71856 Y-12.96924
X31.69316 Y-12.94384
X31.64236 Y-12.94384
X31.61696 Y-12.91844
X31.54076 Y-12.89304
X31.48996 Y-12.89304
X31.46456 Y-12.86764
X31.38836 Y-12.86764
X31.36296 Y-12.84224
X30.14376 Y-12.84224
X30.11836 Y-12.86764
X30.04216 Y-12.86764
X30.01676 Y-12.89304
X29.94056 Y-12.89304
X29.91516 Y-12.91844
X29.83896 Y-12.94384
X29.76276 Y-12.96924
X29.73736 Y-12.99464
X29.66116 Y-13.04544
X29.58496 Y-13.09624
X29.43256 Y-13.24864
G04 P0 ( dwell for no time -- G64 should not smooth over this point )
G00 Z3.00000 ( retract )

G00 X6.92816 Y-15.28064 ( rapid move to begin. )
G01 Z-0.20000
G04 P0 ( dwell for no time -- G64 should not smooth over this point )
X6.92816 Y-15.28064
X6.87736 Y-15.33144
X6.85196 Y-15.40764
X6.82656 Y-15.43304
X6.77576 Y-15.50924
X6.77576 Y-15.61084
X6.75036 Y-15.63624
X6.75036 Y-15.76324
X6.72496 Y-15.78864
X6.72496 Y-16.75384
X6.75036 Y-16.77924
X6.75036 Y-16.90624
X6.77576 Y-16.93164
X6.77576 Y-17.03324
X6.82656 Y-17.08404
X6.85196 Y-17.16024
X6.87736 Y-17.18564
X6.92816 Y-17.26184
X6.95356 Y-17.33804
X7.08056 Y-17.43964
X7.15676 Y-17.49044
X7.23296 Y-17.54124
X7.30916 Y-17.56664
X7.38536 Y-17.59204
X7.46156 Y-17.61744
X7.53776 Y-17.64284
X9.44276 Y-17.64284
X9.46816 Y-17.61744
X9.51896 Y-17.61744
X9.54436 Y-17.59204
X9.59516 Y-17.59204
X9.62056 Y-17.56664
X9.67136 Y-17.56664
X9.69676 Y-17.54124
X9.77296 Y-17.49044
X9.84916 Y-17.43964
X9.92536 Y-17.41424
X14.67516 Y-17.41424
X14.70056 Y-17.43964
X14.77676 Y-17.49044
X14.85296 Y-17.54124
X14.92916 Y-17.56664
X14.92916 Y-22.13864
X14.97996 Y-22.18944
X15.05616 Y-22.29104
X15.13236 Y-22.39264
X15.25936 Y-22.54504
X15.31016 Y-22.62124
X15.43716 Y-22.77364
X15.46256 Y-22.84984
X15.51336 Y-22.90064
X15.51336 Y-22.95144
X15.53876 Y-22.97684
X15.56416 Y-23.05304
X15.58956 Y-23.12924
X15.61496 Y-23.20544
X16.09756 Y-23.71344
X16.09756 Y-24.80564
X16.02136 Y-24.85644
X15.33556 Y-24.85644
X15.25936 Y-24.78024
X15.18316 Y-24.72944
X15.10696 Y-24.70404
X13.35436 Y-24.70404
X13.32896 Y-24.72944
X13.25276 Y-24.78024
X13.15116 Y-24.85644
X11.93196 Y-24.85644
X11.09376 Y-24.01824
X11.01756 Y-23.99284
X10.99216 Y-23.96744
X10.91596 Y-23.94204
X10.83976 Y-23.91664
X10.78896 Y-23.91664
X10.76356 Y-23.89124
X10.33176 Y-23.89124
X10.30636 Y-23.86584
X10.23016 Y-23.81504
X10.15396 Y-23.78964
X10.10316 Y-23.73884
X10.02696 Y-23.71344
X10.00156 Y-23.68804
X9.92536 Y-23.68804
X9.89996 Y-23.66264
X9.77296 Y-23.66264
X9.74756 Y-23.63724
X8.73156 Y-23.63724
X8.70616 Y-23.66264
X8.57916 Y-23.66264
X8.55376 Y-23.68804
X8.47756 Y-23.68804
X8.45216 Y-23.71344
X8.37596 Y-23.73884
X8.32516 Y-23.78964
X8.24896 Y-23.81504
X8.19816 Y-23.86584
X8.12196 Y-23.89124
X7.20756 Y-23.89124
X6.64876 Y-23.30704
X6.64876 Y-23.12924
X6.62336 Y-23.10384
X6.62336 Y-23.05304
X6.59796 Y-23.02764
X6.59796 Y-22.95144
X6.57256 Y-22.92604
X6.54716 Y-22.84984
X6.52176 Y-22.82444
X6.47096 Y-22.74824
X6.31856 Y-22.59584
X6.24236 Y-22.54504
X6.16616 Y-22.51964
X6.11536 Y-22.46884
X4.38816 Y-22.46884
X4.33736 Y-22.51964
X4.26116 Y-22.54504
X4.21036 Y-22.59584
X4.05796 Y-22.74824
X4.00716 Y-22.82444
X3.98176 Y-22.90064
X3.95636 Y-22.92604
X3.93096 Y-23.00224
X3.93096 Y-23.05304
X3.90556 Y-23.07844
X3.90556 Y-23.12924
X3.88016 Y-23.15464
X3.88016 Y-24.37384
X3.90556 Y-24.39924
X3.90556 Y-24.45004
X3.93096 Y-24.47544
X3.75316 Y-24.65324
X3.70236 Y-24.72944
X3.67696 Y-24.80564
X3.65156 Y-24.83104
X3.65156 Y-24.88184
X3.62616 Y-24.90724
X3.62616 Y-24.98344
X3.60076 Y-25.00884
X3.60076 Y-33.61944
X3.57536 Y-33.64484
X3.54996 Y-33.72104
X3.52456 Y-33.74644
X3.52456 Y-33.79724
X3.49916 Y-33.82264
X3.49916 Y-33.87344
X3.47376 Y-33.89884
X3.47376 Y-35.11804
X3.49916 Y-35.14344
X3.49916 Y-35.19424
X3.52456 Y-35.21964
X3.52456 Y-35.27044
X3.54996 Y-35.29584
X3.57536 Y-35.37204
X3.60076 Y-35.39744
X3.80396 Y-35.60064
X3.88016 Y-35.62604
X3.93096 Y-35.67684
X4.00716 Y-35.70224
X4.03256 Y-35.72764
X4.08336 Y-35.72764
X4.10876 Y-35.75304
X4.23576 Y-35.75304
X4.26116 Y-35.77844
X5.27716 Y-35.77844
X5.30256 Y-35.75304
X5.42956 Y-35.75304
X5.45496 Y-35.72764
X5.50576 Y-35.72764
X5.53116 Y-35.70224
X5.60736 Y-35.67684
X5.65816 Y-35.62604
X5.73436 Y-35.60064
X5.91216 Y-35.39744
X5.93756 Y-35.32124
X5.96296 Y-35.29584
X5.98836 Y-35.21964
X6.01376 Y-35.14344
X6.03916 Y-35.06724
X6.03916 Y-33.87344
X6.01376 Y-33.84804
X6.01376 Y-33.79724
X5.98836 Y-33.77184
X5.98836 Y-33.72104
X5.96296 Y-33.69564
X5.93756 Y-33.61944
X5.91216 Y-33.59404
X5.88676 Y-33.51784
X5.88676 Y-26.17724
X5.96296 Y-26.15184
X6.01376 Y-26.15184
X6.03916 Y-26.17724
X6.11536 Y-26.17724
X6.11536 Y-26.65984
X6.06456 Y-26.71064
X6.01376 Y-26.78684
X5.98836 Y-26.86304
X5.96296 Y-26.88844
X5.93756 Y-26.96464
X5.93756 Y-27.01544
X5.91216 Y-27.04084
X5.91216 Y-27.09164
X5.88676 Y-27.11704
X5.88676 Y-28.33624
X5.91216 Y-28.36164
X5.91216 Y-28.41244
X5.93756 Y-28.43784
X5.93756 Y-28.51404
X5.96296 Y-28.53944
X5.98836 Y-28.61564
X6.01376 Y-28.64104
X6.06456 Y-28.71724
X6.21696 Y-28.86964
X6.29316 Y-28.92044
X6.36936 Y-28.94584
X6.42016 Y-28.99664
X8.14736 Y-28.99664
X8.19816 Y-28.94584
X8.27436 Y-28.92044
X8.32516 Y-28.86964
X8.47756 Y-28.71724
X8.52836 Y-28.64104
X8.55376 Y-28.56484
X8.57916 Y-28.53944
X8.60456 Y-28.46324
X8.60456 Y-28.41244
X8.62996 Y-28.38704
X8.62996 Y-28.33624
X8.65536 Y-28.31084
X8.65536 Y-27.09164
X8.62996 Y-27.06624
X8.62996 Y-27.01544
X8.60456 Y-26.99004
X8.60456 Y-26.91384
X8.57916 Y-26.88844
X8.55376 Y-26.81224
X8.52836 Y-26.78684
X8.47756 Y-26.71064
X8.40136 Y-26.60904
X8.40136 Y-26.30424
X8.47756 Y-26.32964
X8.50296 Y-26.35504
X8.57916 Y-26.35504
X8.60456 Y-26.38044
X8.73156 Y-26.38044
X8.75696 Y-26.40584
X9.77296 Y-26.40584
X9.79836 Y-26.38044
X10.43336 Y-27.01544
X10.50956 Y-27.04084
X10.53496 Y-27.06624
X10.61116 Y-27.09164
X10.68736 Y-27.11704
X10.73816 Y-27.11704
X10.76356 Y-27.14244
X13.20196 Y-27.14244
X13.22736 Y-27.16784
X13.30356 Y-27.16784
X13.32896 Y-27.19324
X13.40516 Y-27.19324
X13.43056 Y-27.21864
X13.53216 Y-27.21864
X13.55756 Y-27.24404
X13.73536 Y-27.24404
X13.76076 Y-27.26944
X14.77676 Y-27.26944
X14.80216 Y-27.24404
X14.97996 Y-27.24404
X15.00536 Y-27.21864
X15.10696 Y-27.21864
X15.13236 Y-27.19324
X15.20856 Y-27.19324
X15.23396 Y-27.16784
X15.31016 Y-27.16784
X15.33556 Y-27.14244
X17.26596 Y-27.14244
X17.29136 Y-27.11704
X17.36756 Y-27.11704
X17.39296 Y-27.09164
X17.44376 Y-27.09164
X17.46916 Y-27.06624
X17.54536 Y-27.04084
X17.57076 Y-27.01544
X18.02796 Y-26.55824
X18.23116 Y-26.32964
X18.28196 Y-26.25344
X18.30736 Y-26.17724
X18.33276 Y-26.15184
X18.33276 Y-26.10104
X18.35816 Y-26.07564
X18.35816 Y-25.99944
X18.38356 Y-25.97404
X18.38356 Y-22.49424
X18.35816 Y-22.46884
X18.35816 Y-22.39264
X18.33276 Y-22.36724
X18.33276 Y-22.31644
X18.30736 Y-22.29104
X18.28196 Y-22.21484
X18.23116 Y-22.16404
X17.82476 Y-21.73224
X17.21516 Y-21.09724
X17.21516 Y-17.56664
X17.29136 Y-17.56664
X17.31676 Y-17.54124
X17.39296 Y-17.49044
X17.46916 Y-17.43964
X17.54536 Y-17.41424
X18.33276 Y-17.41424
X21.43156 Y-20.51304
X21.50776 Y-20.53844
X21.53316 Y-20.56384
X21.60936 Y-20.58924
X21.68556 Y-20.61464
X21.73636 Y-20.61464
X21.76176 Y-20.64004
X24.35256 Y-20.64004
X24.58116 Y-20.86864
X24.60656 Y-20.89404
X24.60656 Y-23.10384
X24.55576 Y-23.10384
X24.35256 Y-23.33244
X24.30176 Y-23.40864
X24.27636 Y-23.48484
X24.25096 Y-23.51024
X24.22556 Y-23.58644
X24.20016 Y-23.61184
X24.20016 Y-23.66264
X24.17476 Y-23.68804
X24.17476 Y-23.76424
X24.14936 Y-23.78964
X24.14936 Y-23.91664
X24.12396 Y-23.94204
X24.12396 Y-25.05964
X24.14936 Y-25.08504
X24.14936 Y-25.21204
X24.17476 Y-25.23744
X24.17476 Y-25.31364
X24.20016 Y-25.33904
X24.20016 Y-25.38984
X24.22556 Y-25.41524
X24.25096 Y-25.49144
X24.27636 Y-25.51684
X24.30176 Y-25.59304
X24.35256 Y-25.64384
X24.58116 Y-25.87244
X24.60656 Y-25.89784
X24.60656 Y-28.10764
X24.55576 Y-28.10764
X24.35256 Y-28.33624
X24.32716 Y-28.36164
X23.23496 Y-28.36164
X23.20956 Y-28.38704
X23.13336 Y-28.38704
X23.10796 Y-28.41244
X23.05716 Y-28.41244
X23.03176 Y-28.43784
X22.95556 Y-28.46324
X22.93016 Y-28.48864
X16.07216 Y-35.34664
X16.02136 Y-35.42284
X15.99596 Y-35.49904
X15.97056 Y-35.52444
X15.97056 Y-35.57524
X15.94516 Y-35.60064
X15.94516 Y-35.67684
X15.91976 Y-35.70224
X15.91976 Y-37.17544
X15.94516 Y-37.20084
X15.94516 Y-37.32784
X15.97056 Y-37.35324
X15.97056 Y-38.62324
X15.94516 Y-38.64864
X15.94516 Y-38.77564
X15.91976 Y-38.80104
X15.91976 Y-39.76624
X15.89436 Y-39.79164
X15.84356 Y-39.86784
X15.79276 Y-39.94404
X15.79276 Y-42.43324
X15.84356 Y-42.48404
X15.89436 Y-42.56024
X15.91976 Y-42.63644
X15.91976 Y-47.38624
X15.89436 Y-47.41164
X15.84356 Y-47.48784
X15.79276 Y-47.56404
X15.79276 Y-50.05324
X15.84356 Y-50.10404
X15.89436 Y-50.18024
X16.02136 Y-50.30724
X16.09756 Y-50.33264
X16.14836 Y-50.38344
X16.22456 Y-50.40884
X16.24996 Y-50.43424
X16.32616 Y-50.48504
X16.42776 Y-50.48504
X16.45316 Y-50.51044
X16.58016 Y-50.51044
X16.60556 Y-50.53584
X17.57076 Y-50.53584
X17.59616 Y-50.51044
X17.72316 Y-50.51044
X17.74856 Y-50.48504
X17.85016 Y-50.48504
X17.87556 Y-50.45964
X17.95176 Y-50.40884
X18.02796 Y-50.38344
X18.07876 Y-50.33264
X18.15496 Y-50.30724
X18.25656 Y-50.18024
X18.30736 Y-50.10404
X18.35816 Y-50.02784
X18.38356 Y-49.95164
X18.40896 Y-49.87544
X18.43436 Y-49.79924
X18.45976 Y-49.72304
X18.45976 Y-47.81804
X18.43436 Y-47.79264
X18.43436 Y-47.74184
X18.40896 Y-47.71644
X18.40896 Y-47.66564
X18.38356 Y-47.64024
X18.38356 Y-47.58944
X18.35816 Y-47.56404
X18.30736 Y-47.48784
X18.25656 Y-47.41164
X18.20576 Y-47.33544
X18.20576 Y-42.61104
X18.25656 Y-42.56024
X18.30736 Y-42.48404
X18.35816 Y-42.40784
X18.38356 Y-42.33164
X18.40896 Y-42.25544
X18.43436 Y-42.17924
X18.45976 Y-42.10304
X18.45976 Y-40.19804
X18.43436 Y-40.17264
X18.43436 Y-40.12184
X18.40896 Y-40.09644
X18.40896 Y-40.04564
X18.38356 Y-40.02024
X18.38356 Y-39.96944
X18.35816 Y-39.94404
X18.30736 Y-39.86784
X18.25656 Y-39.79164
X18.20576 Y-39.71544
X18.20576 Y-38.44544
X18.18036 Y-38.42004
X18.18036 Y-38.36924
X18.15496 Y-38.34384
X18.15496 Y-38.24224
X18.12956 Y-38.21684
X18.12956 Y-38.14064
X18.10416 Y-38.11524
X18.10416 Y-37.98824
X18.07876 Y-37.96284
X18.07876 Y-37.02304
X18.10416 Y-36.99764
X18.10416 Y-36.87064
X18.12956 Y-36.84524
X18.12956 Y-36.79444
X18.18036 Y-36.74364
X18.20576 Y-36.66744
X18.40896 Y-36.48964
X18.48516 Y-36.46424
X18.61216 Y-36.33724
X18.66296 Y-36.33724
X18.71376 Y-36.28644
X18.76456 Y-36.28644
X18.81536 Y-36.23564
X18.86616 Y-36.23564
X24.40336 Y-30.69844
X24.58116 Y-30.87624
X24.65736 Y-30.92704
X24.73356 Y-30.97784
X24.80976 Y-31.00324
X24.83516 Y-31.02864
X24.88596 Y-31.02864
X24.91136 Y-31.05404
X24.98756 Y-31.07944
X25.03836 Y-31.07944
X25.06376 Y-31.10484
X25.16536 Y-31.10484
X25.19076 Y-31.13024
X26.35916 Y-31.13024
X26.38456 Y-31.10484
X26.48616 Y-31.10484
X26.51156 Y-31.07944
X26.58776 Y-31.07944
X26.61316 Y-31.05404
X26.68936 Y-31.02864
X26.76556 Y-31.00324
X26.79096 Y-30.97784
X26.86716 Y-30.92704
X26.94336 Y-30.87624
X27.17196 Y-30.64764
X27.22276 Y-30.57144
X27.24816 Y-30.49524
X27.27356 Y-30.46984
X27.29896 Y-30.39364
X27.32436 Y-30.36824
X27.32436 Y-30.31744
X27.34976 Y-30.29204
X27.34976 Y-30.21584
X27.37516 Y-30.19044
X27.37516 Y-30.06344
X27.40056 Y-30.03804
X27.40056 Y-28.92044
X27.37516 Y-28.89504
X27.37516 Y-28.76804
X27.34976 Y-28.74264
X27.34976 Y-28.66644
X27.32436 Y-28.64104
X27.32436 Y-28.59024
X27.29896 Y-28.56484
X27.27356 Y-28.48864
X27.24816 Y-28.46324
X27.22276 Y-28.38704
X27.17196 Y-28.33624
X26.94336 Y-28.10764
X26.89256 Y-28.05684
X26.89256 Y-25.89784
X26.96876 Y-25.87244
X27.17196 Y-25.64384
X27.22276 Y-25.56764
X27.24816 Y-25.49144
X27.27356 Y-25.46604
X27.29896 Y-25.38984
X27.32436 Y-25.36444
X27.32436 Y-25.31364
X27.34976 Y-25.28824
X27.34976 Y-25.21204
X27.37516 Y-25.18664
X27.37516 Y-25.05964
X27.40056 Y-25.03424
X27.40056 Y-23.91664
X27.37516 Y-23.89124
X27.37516 Y-23.76424
X27.34976 Y-23.73884
X27.34976 Y-23.66264
X27.32436 Y-23.63724
X27.32436 Y-23.58644
X27.29896 Y-23.56104
X27.27356 Y-23.48484
X27.24816 Y-23.45944
X27.22276 Y-23.38324
X27.17196 Y-23.33244
X26.94336 Y-23.10384
X26.89256 Y-23.05304
X26.89256 Y-20.89404
X26.96876 Y-20.86864
X27.17196 Y-20.64004
X27.22276 Y-20.56384
X27.24816 Y-20.48764
X27.27356 Y-20.46224
X27.29896 Y-20.38604
X27.32436 Y-20.36064
X27.32436 Y-20.30984
X27.34976 Y-20.28444
X27.34976 Y-20.20824
X27.37516 Y-20.18284
X27.37516 Y-20.05584
X27.40056 Y-20.03044
X27.40056 Y-18.91284
X27.37516 Y-18.88744
X27.37516 Y-18.76044
X27.34976 Y-18.73504
X27.34976 Y-18.65884
X27.32436 Y-18.63344
X27.32436 Y-18.58264
X27.29896 Y-18.55724
X27.27356 Y-18.48104
X27.24816 Y-18.45564
X27.22276 Y-18.37944
X27.17196 Y-18.32864
X26.94336 Y-18.10004
X26.86716 Y-18.04924
X26.79096 Y-17.99844
X26.71476 Y-17.97304
X26.68936 Y-17.94764
X26.63856 Y-17.94764
X26.61316 Y-17.92224
X26.53696 Y-17.89684
X26.48616 Y-17.89684
X26.46076 Y-17.87144
X26.38456 Y-17.87144
X26.35916 Y-17.84604
X25.13996 Y-17.84604
X25.11456 Y-17.87144
X25.03836 Y-17.87144
X25.01296 Y-17.89684
X24.93676 Y-17.89684
X24.91136 Y-17.92224
X24.83516 Y-17.94764
X24.75896 Y-17.97304
X24.73356 Y-17.99844
X24.65736 Y-18.04924
X24.58116 Y-18.10004
X24.35256 Y-18.32864
X24.32716 Y-18.35404
X22.93016 Y-18.35404
X19.83136 Y-15.25524
X19.75516 Y-15.22984
X19.72976 Y-15.20444
X19.65356 Y-15.17904
X19.57736 Y-15.15364
X19.52656 Y-15.15364
X19.50116 Y-15.12824
X17.51996 Y-15.12824
X17.49456 Y-15.10284
X17.41836 Y-15.10284
X17.39296 Y-15.07744
X17.31676 Y-15.07744
X17.29136 Y-15.05204
X17.21516 Y-15.05204
X17.18976 Y-15.02664
X17.03736 Y-15.02664
X17.01196 Y-15.00124
X15.13236 Y-15.00124
X15.10696 Y-15.02664
X14.95456 Y-15.02664
X14.92916 Y-15.05204
X14.85296 Y-15.05204
X14.82756 Y-15.07744
X14.75136 Y-15.07744
X14.72596 Y-15.10284
X14.64976 Y-15.10284
X14.62436 Y-15.12824
X9.89996 Y-15.12824
X9.84916 Y-15.07744
X9.77296 Y-15.02664
X9.69676 Y-15.00124
X7.18216 Y-15.00124
X7.15676 Y-15.02664
X7.08056 Y-15.07744
X6.95356 Y-15.20444
X6.92816 Y-15.28064
G04 P0 ( dwell for no time -- G64 should not smooth over this point )
G00 Z3.00000 ( retract )

G00 X29.43256 Y-18.25244 ( rapid move to begin. )
G01 Z-0.20000
G04 P0 ( dwell for no time -- G64 should not smooth over this point )
X29.43256 Y-18.25244
X29.35636 Y-18.32864
X29.30556 Y-18.40484
X29.28016 Y-18.48104
X29.25476 Y-18.50644
X29.22936 Y-18.58264
X29.20396 Y-18.60804
X29.20396 Y-18.65884
X29.17856 Y-18.68424
X29.17856 Y-18.76044
X29.15316 Y-18.78584
X29.15316 Y-18.91284
X29.12776 Y-18.93824
X29.12776 Y-20.05584
X29.15316 Y-20.08124
X29.15316 Y-20.20824
X29.17856 Y-20.23364
X29.17856 Y-20.30984
X29.20396 Y-20.33524
X29.20396 Y-20.38604
X29.22936 Y-20.41144
X29.25476 Y-20.48764
X29.28016 Y-20.51304
X29.30556 Y-20.58924
X29.35636 Y-20.64004
X29.58496 Y-20.86864
X29.66116 Y-20.91944
X29.73736 Y-20.97024
X29.81356 Y-20.99564
X29.83896 Y-21.02104
X29.88976 Y-21.02104
X29.91516 Y-21.04644
X29.99136 Y-21.07184
X30.04216 Y-21.07184
X30.06756 Y-21.09724
X30.16916 Y-21.09724
X30.19456 Y-21.12264
X31.36296 Y-21.12264
X31.38836 Y-21.09724
X31.48996 Y-21.09724
X31.51536 Y-21.07184
X31.59156 Y-21.07184
X31.61696 Y-21.04644
X31.69316 Y-21.02104
X31.76936 Y-20.99564
X31.79476 Y-20.97024
X31.87096 Y-20.91944
X31.94716 Y-20.86864
X32.17576 Y-20.64004
X32.22656 Y-20.56384
X32.25196 Y-20.48764
X32.27736 Y-20.46224
X32.30276 Y-20.38604
X32.32816 Y-20.36064
X32.32816 Y-20.30984
X32.35356 Y-20.28444
X32.35356 Y-20.20824
X32.37896 Y-20.18284
X32.37896 Y-20.05584
X32.40436 Y-20.03044
X32.40436 Y-18.91284
X32.37896 Y-18.88744
X32.37896 Y-18.76044
X32.35356 Y-18.73504
X32.35356 Y-18.65884
X32.32816 Y-18.63344
X32.32816 Y-18.58264
X32.30276 Y-18.55724
X32.27736 Y-18.48104
X32.25196 Y-18.45564
X32.22656 Y-18.37944
X32.17576 Y-18.32864
X31.94716 Y-18.10004
X31.87096 Y-18.04924
X31.79476 Y-17.99844
X31.71856 Y-17.97304
X31.69316 Y-17.94764
X31.64236 Y-17.94764
X31.61696 Y-17.92224
X31.54076 Y-17.89684
X31.48996 Y-17.89684
X31.46456 Y-17.87144
X31.38836 Y-17.87144
X31.36296 Y-17.84604
X30.14376 Y-17.84604
X30.11836 Y-17.87144
X30.04216 Y-17.87144
X30.01676 Y-17.89684
X29.94056 Y-17.89684
X29.91516 Y-17.92224
X29.83896 Y-17.94764
X29.76276 Y-17.97304
X29.73736 Y-17.99844
X29.66116 Y-18.04924
X29.58496 Y-18.10004
X29.43256 Y-18.25244
G04 P0 ( dwell for no time -- G64 should not smooth over this point )
G00 Z3.00000 ( retract )

G00 X5.68356 Y-18.96364 ( rapid move to begin. )
G01 Z-0.20000
G04 P0 ( dwell for no time -- G64 should not smooth over this point )
X5.68356 Y-18.96364
X4.79456 Y-19.82724
X4.74376 Y-19.82724
X4.71836 Y-19.85264
X4.59136 Y-19.85264
X4.56596 Y-19.87804
X4.48976 Y-19.87804
X4.46436 Y-19.90344
X4.38816 Y-19.92884
X4.33736 Y-19.97964
X4.26116 Y-20.00504
X4.21036 Y-20.05584
X4.13416 Y-20.08124
X3.01656 Y-20.08124
X2.99116 Y-20.10664
X2.91496 Y-20.10664
X2.88956 Y-20.13204
X2.83876 Y-20.13204
X2.81336 Y-20.15744
X2.73716 Y-20.18284
X2.71176 Y-20.20824
X1.28936 Y-21.63064
X1.28936 Y-47.38624
X3.75316 Y-49.82464
X3.82936 Y-49.85004
X3.85476 Y-49.87544
X3.93096 Y-49.90084
X4.00716 Y-49.92624
X4.05796 Y-49.92624
X4.08336 Y-49.95164
X8.14736 Y-49.95164
X8.14736 Y-50.00244
X8.17276 Y-50.02784
X8.22356 Y-50.10404
X8.27436 Y-50.18024
X8.40136 Y-50.30724
X8.47756 Y-50.33264
X8.52836 Y-50.38344
X8.60456 Y-50.40884
X8.62996 Y-50.43424
X8.70616 Y-50.48504
X8.80776 Y-50.48504
X8.83316 Y-50.51044
X8.96016 Y-50.51044
X8.98556 Y-50.53584
X9.95076 Y-50.53584
X9.97616 Y-50.51044
X10.10316 Y-50.51044
X10.12856 Y-50.48504
X10.23016 Y-50.48504
X10.25556 Y-50.45964
X10.33176 Y-50.40884
X10.40796 Y-50.38344
X10.45876 Y-50.33264
X10.53496 Y-50.30724
X10.63656 Y-50.18024
X10.68736 Y-50.10404
X10.73816 Y-50.02784
X10.73816 Y-47.53864
X10.68736 Y-47.48784
X10.63656 Y-47.41164
X10.50956 Y-47.28464
X10.43336 Y-47.25924
X10.38256 Y-47.20844
X10.30636 Y-47.18304
X10.25556 Y-47.13224
X10.17936 Y-47.10684
X10.10316 Y-47.10684
X10.07776 Y-47.08144
X9.95076 Y-47.08144
X9.92536 Y-47.05604
X8.96016 Y-47.05604
X8.93476 Y-47.08144
X8.80776 Y-47.08144
X8.78236 Y-47.10684
X8.68076 Y-47.10684
X8.62996 Y-47.15764
X8.55376 Y-47.18304
X8.52836 Y-47.20844
X8.45216 Y-47.25924
X8.37596 Y-47.28464
X8.27436 Y-47.41164
X8.22356 Y-47.48784
X8.17276 Y-47.56404
X8.14736 Y-47.64024
X8.12196 Y-47.66564
X5.25176 Y-47.66564
X3.39756 Y-45.78604
X3.39756 Y-39.13124
X3.90556 Y-39.13124
X3.93096 Y-39.15664
X4.00716 Y-39.18204
X4.03256 Y-39.20744
X4.08336 Y-39.20744
X4.10876 Y-39.23284
X4.15956 Y-39.23284
X7.13136 Y-42.20464
X7.20756 Y-42.23004
X7.23296 Y-42.25544
X7.30916 Y-42.28084
X7.38536 Y-42.30624
X7.43616 Y-42.30624
X7.46156 Y-42.33164
X8.07116 Y-42.33164
X8.07116 Y-42.91584
X10.56036 Y-42.91584
X10.58576 Y-42.89044
X10.63656 Y-42.89044
X10.66196 Y-42.86504
X10.71276 Y-42.86504
X10.73816 Y-42.83964
X10.76356 Y-42.81424
X10.78896 Y-42.73804
X10.81436 Y-42.66184
X10.83976 Y-42.58564
X10.83976 Y-42.50944
X10.81436 Y-42.48404
X10.81436 Y-42.40784
X10.78896 Y-42.38244
X10.78896 Y-42.30624
X10.76356 Y-42.28084
X10.76356 Y-42.12844
X10.73816 Y-42.10304
X10.73816 Y-40.22344
X10.76356 Y-40.19804
X10.76356 Y-40.04564
X10.78896 Y-40.02024
X10.78896 Y-39.94404
X10.81436 Y-39.91864
X10.81436 Y-39.84244
X10.83976 Y-39.81704
X10.83976 Y-39.43604
X8.07116 Y-39.43604
X8.07116 Y-39.46144
X6.03916 Y-37.42944
X6.03916 Y-37.35324
X6.01376 Y-37.32784
X6.01376 Y-37.27704
X5.98836 Y-37.25164
X5.98836 Y-37.20084
X5.96296 Y-37.17544
X5.93756 Y-37.09924
X5.91216 Y-37.07384
X5.70896 Y-36.87064
X5.63276 Y-36.84524
X5.58196 Y-36.79444
X5.50576 Y-36.76904
X5.48036 Y-36.74364
X5.42956 Y-36.74364
X5.40416 Y-36.71824
X5.27716 Y-36.71824
X5.25176 Y-36.69284
X4.23576 Y-36.69284
X4.21036 Y-36.71824
X4.08336 Y-36.71824
X4.05796 Y-36.74364
X4.00716 Y-36.74364
X3.98176 Y-36.76904
X3.90556 Y-36.79444
X3.85476 Y-36.84524
X3.39756 Y-36.84524
X3.39756 Y-23.18004
X4.23576 Y-22.36724
X4.28656 Y-22.41804
X4.36276 Y-22.44344
X4.38816 Y-22.46884
X6.16616 Y-22.46884
X6.19156 Y-22.44344
X6.26776 Y-22.41804
X6.31856 Y-22.36724
X6.47096 Y-22.21484
X6.52176 Y-22.13864
X6.54716 Y-22.06244
X6.57256 Y-22.03704
X6.59796 Y-21.96084
X6.59796 Y-21.91004
X6.62336 Y-21.88464
X6.62336 Y-21.83384
X6.64876 Y-21.80844
X6.64876 Y-21.65604
X7.23296 Y-21.09724
X8.22356 Y-21.09724
X8.27436 Y-21.14804
X8.35056 Y-21.17344
X8.40136 Y-21.22424
X8.47756 Y-21.24964
X8.50296 Y-21.27504
X8.57916 Y-21.27504
X8.60456 Y-21.30044
X8.73156 Y-21.30044
X8.75696 Y-21.32584
X9.77296 Y-21.32584
X9.79836 Y-21.30044
X9.92536 Y-21.30044
X9.95076 Y-21.27504
X10.02696 Y-21.27504
X10.05236 Y-21.24964
X10.12856 Y-21.22424
X10.12856 Y-21.19884
X12.89716 Y-23.99284
X12.89716 Y-24.11984
X12.92256 Y-24.14524
X12.92256 Y-24.22144
X12.94796 Y-24.24684
X12.97336 Y-24.32304
X13.02416 Y-24.37384
X13.04956 Y-24.45004
X13.10036 Y-24.50084
X13.25276 Y-24.65324
X13.32896 Y-24.70404
X15.20856 Y-24.70404
X15.25936 Y-24.65324
X15.41176 Y-24.50084
X15.46256 Y-24.42464
X15.48796 Y-24.34844
X15.53876 Y-24.29764
X15.56416 Y-24.22144
X15.58956 Y-24.19604
X15.58956 Y-24.11984
X15.61496 Y-24.09444
X15.61496 Y-23.96744
X15.64036 Y-23.94204
X15.64036 Y-23.23084
X15.61496 Y-23.20544
X15.61496 Y-23.15464
X15.58956 Y-23.12924
X15.58956 Y-23.07844
X15.56416 Y-23.05304
X15.56416 Y-23.00224
X15.53876 Y-22.97684
X15.51336 Y-22.90064
X15.46256 Y-22.82444
X15.43716 Y-22.74824
X15.31016 Y-22.62124
X15.25936 Y-22.54504
X15.13236 Y-22.39264
X15.05616 Y-22.29104
X14.97996 Y-22.18944
X14.92916 Y-22.11324
X14.90376 Y-22.08784
X14.82756 Y-22.06244
X14.64976 Y-22.06244
X11.52556 Y-18.93824
X11.44936 Y-18.91284
X11.42396 Y-18.88744
X11.34776 Y-18.86204
X11.27156 Y-18.83664
X11.22076 Y-18.83664
X11.19536 Y-18.81124
X10.33176 Y-18.81124
X10.30636 Y-18.78584
X10.23016 Y-18.73504
X10.15396 Y-18.70964
X10.10316 Y-18.65884
X10.02696 Y-18.63344
X10.00156 Y-18.60804
X9.92536 Y-18.60804
X9.89996 Y-18.58264
X9.77296 Y-18.58264
X9.74756 Y-18.55724
X8.73156 Y-18.55724
X8.70616 Y-18.58264
X8.57916 Y-18.58264
X8.55376 Y-18.60804
X8.47756 Y-18.60804
X8.45216 Y-18.63344
X8.37596 Y-18.65884
X8.32516 Y-18.70964
X8.24896 Y-18.73504
X8.19816 Y-18.78584
X8.12196 Y-18.81124
X6.01376 Y-18.81124
X5.98836 Y-18.83664
X5.91216 Y-18.83664
X5.88676 Y-18.86204
X5.83596 Y-18.86204
X5.81056 Y-18.88744
X5.73436 Y-18.91284
X5.70896 Y-18.93824
X5.68356 Y-18.96364
G04 P0 ( dwell for no time -- G64 should not smooth over this point )
G00 Z3.00000 ( retract )

G00 X29.43256 Y-23.25624 ( rapid move to begin. )
G01 Z-0.20000
G04 P0 ( dwell for no time -- G64 should not smooth over this point )
X29.43256 Y-23.25624
X29.35636 Y-23.33244
X29.30556 Y-23.40864
X29.28016 Y-23.48484
X29.25476 Y-23.51024
X29.22936 Y-23.58644
X29.20396 Y-23.61184
X29.20396 Y-23.66264
X29.17856 Y-23.68804
X29.17856 Y-23.76424
X29.15316 Y-23.78964
X29.15316 Y-23.91664
X29.12776 Y-23.94204
X29.12776 Y-25.05964
X29.15316 Y-25.08504
X29.15316 Y-25.21204
X29.17856 Y-25.23744
X29.17856 Y-25.31364
X29.20396 Y-25.33904
X29.20396 Y-25.38984
X29.22936 Y-25.41524
X29.25476 Y-25.49144
X29.28016 Y-25.51684
X29.30556 Y-25.59304
X29.35636 Y-25.64384
X29.58496 Y-25.87244
X29.66116 Y-25.92324
X29.73736 Y-25.97404
X29.81356 Y-25.99944
X29.83896 Y-26.02484
X29.88976 Y-26.02484
X29.91516 Y-26.05024
X29.99136 Y-26.07564
X30.04216 Y-26.07564
X30.06756 Y-26.10104
X30.16916 Y-26.10104
X30.19456 Y-26.12644
X31.36296 Y-26.12644
X31.38836 Y-26.10104
X31.48996 Y-26.10104
X31.51536 Y-26.07564
X31.59156 Y-26.07564
X31.61696 Y-26.05024
X31.69316 Y-26.02484
X31.76936 Y-25.99944
X31.79476 Y-25.97404
X31.87096 Y-25.92324
X31.94716 Y-25.87244
X32.17576 Y-25.64384
X32.22656 Y-25.56764
X32.25196 Y-25.49144
X32.27736 Y-25.46604
X32.30276 Y-25.38984
X32.32816 Y-25.36444
X32.32816 Y-25.31364
X32.35356 Y-25.28824
X32.35356 Y-25.21204
X32.37896 Y-25.18664
X32.37896 Y-25.05964
X32.40436 Y-25.03424
X32.40436 Y-23.91664
X32.37896 Y-23.89124
X32.37896 Y-23.76424
X32.35356 Y-23.73884
X32.35356 Y-23.66264
X32.32816 Y-23.63724
X32.32816 Y-23.58644
X32.30276 Y-23.56104
X32.27736 Y-23.48484
X32.25196 Y-23.45944
X32.22656 Y-23.38324
X32.17576 Y-23.33244
X31.94716 Y-23.10384
X31.87096 Y-23.05304
X31.79476 Y-23.00224
X31.71856 Y-22.97684
X31.69316 Y-22.95144
X31.64236 Y-22.95144
X31.61696 Y-22.92604
X31.54076 Y-22.90064
X31.48996 Y-22.90064
X31.46456 Y-22.87524
X31.38836 Y-22.87524
X31.36296 Y-22.84984
X30.14376 Y-22.84984
X30.11836 Y-22.87524
X30.04216 Y-22.87524
X30.01676 Y-22.90064
X29.94056 Y-22.90064
X29.91516 Y-22.92604
X29.83896 Y-22.95144
X29.76276 Y-22.97684
X29.73736 Y-23.00224
X29.66116 Y-23.05304
X29.58496 Y-23.10384
X29.43256 Y-23.25624
G04 P0 ( dwell for no time -- G64 should not smooth over this point )
G00 Z3.00000 ( retract )

G00 X18.10416 Y-26.60904 ( rapid move to begin. )
G01 Z-0.20000
G04 P0 ( dwell for no time -- G64 should not smooth over this point )
X18.10416 Y-26.60904
X18.07876 Y-26.63444
X18.05336 Y-26.71064
X18.02796 Y-26.73604
X18.02796 Y-26.78684
X18.00256 Y-26.81224
X18.00256 Y-26.86304
X17.97716 Y-26.88844
X17.97716 Y-26.93924
X17.49456 Y-27.39644
X15.64036 Y-27.39644
X15.64036 Y-27.14244
X15.31016 Y-27.14244
X15.28476 Y-27.16784
X15.20856 Y-27.16784
X15.18316 Y-27.19324
X15.10696 Y-27.19324
X15.08156 Y-27.21864
X14.97996 Y-27.21864
X14.95456 Y-27.24404
X14.77676 Y-27.24404
X14.75136 Y-27.26944
X13.73536 Y-27.26944
X13.70996 Y-27.24404
X13.53216 Y-27.24404
X13.50676 Y-27.21864
X13.40516 Y-27.21864
X13.37976 Y-27.19324
X13.30356 Y-27.19324
X13.27816 Y-27.16784
X13.20196 Y-27.16784
X13.17656 Y-27.14244
X12.84636 Y-27.14244
X12.84636 Y-27.39644
X12.21136 Y-27.39644
X12.18596 Y-27.42184
X12.10976 Y-27.42184
X12.08436 Y-27.44724
X12.03356 Y-27.44724
X12.00816 Y-27.47264
X11.93196 Y-27.49804
X11.90656 Y-27.52344
X10.28096 Y-29.12364
X8.35056 Y-29.12364
X8.32516 Y-29.09824
X8.24896 Y-29.04744
X8.17276 Y-29.02204
X8.14736 Y-28.99664
X6.36936 Y-28.99664
X6.34396 Y-29.02204
X6.26776 Y-29.04744
X6.21696 Y-29.09824
X6.06456 Y-29.25064
X6.01376 Y-29.32684
X5.98836 Y-29.40304
X5.96296 Y-29.42844
X5.93756 Y-29.50464
X5.93756 Y-29.55544
X5.91216 Y-29.58084
X5.91216 Y-29.63164
X5.88676 Y-29.65704
X5.88676 Y-30.87624
X5.91216 Y-30.90164
X5.91216 Y-30.95244
X5.93756 Y-30.97784
X5.93756 Y-31.05404
X5.96296 Y-31.07944
X5.98836 Y-31.15564
X6.01376 Y-31.18104
X6.06456 Y-31.25724
X6.21696 Y-31.40964
X6.29316 Y-31.46044
X6.36936 Y-31.48584
X6.42016 Y-31.53664
X6.49636 Y-31.56204
X6.52176 Y-31.58744
X6.59796 Y-31.58744
X6.62336 Y-31.61284
X6.75036 Y-31.61284
X6.77576 Y-31.63824
X7.79176 Y-31.63824
X7.81716 Y-31.61284
X7.94416 Y-31.61284
X7.96956 Y-31.58744
X8.04576 Y-31.58744
X8.07116 Y-31.56204
X8.14736 Y-31.53664
X8.19816 Y-31.48584
X8.27436 Y-31.46044
X8.32516 Y-31.40964
X11.50016 Y-31.40964
X11.52556 Y-31.38424
X11.60176 Y-31.38424
X11.62716 Y-31.35884
X11.67796 Y-31.35884
X11.70336 Y-31.33344
X11.77956 Y-31.30804
X11.80496 Y-31.28264
X13.20196 Y-29.91104
X15.64036 Y-29.91104
X15.64036 Y-29.68244
X18.71376 Y-29.68244
X18.73916 Y-29.65704
X18.81536 Y-29.65704
X18.84076 Y-29.63164
X18.89156 Y-29.63164
X18.91696 Y-29.60624
X18.99316 Y-29.58084
X19.01856 Y-29.55544
X19.85676 Y-28.74264
X19.93296 Y-28.74264
X19.95836 Y-28.71724
X20.00916 Y-28.71724
X20.03456 Y-28.69184
X20.11076 Y-28.66644
X20.16156 Y-28.61564
X20.23776 Y-28.59024
X20.41556 Y-28.38704
X20.44096 Y-28.31084
X20.46636 Y-28.28544
X20.49176 Y-28.20924
X20.51716 Y-28.13304
X20.54256 Y-28.05684
X20.54256 Y-26.86304
X20.51716 Y-26.83764
X20.51716 Y-26.78684
X20.49176 Y-26.76144
X20.49176 Y-26.71064
X20.46636 Y-26.68524
X20.44096 Y-26.60904
X20.41556 Y-26.58364
X20.21236 Y-26.38044
X20.13616 Y-26.35504
X20.08536 Y-26.30424
X20.00916 Y-26.27884
X19.98376 Y-26.25344
X19.93296 Y-26.25344
X19.90756 Y-26.22804
X19.78056 Y-26.22804
X19.75516 Y-26.20264
X18.73916 Y-26.20264
X18.71376 Y-26.22804
X18.58676 Y-26.22804
X18.56136 Y-26.25344
X18.51056 Y-26.25344
X18.48516 Y-26.27884
X18.40896 Y-26.30424
X18.35816 Y-26.35504
X18.28196 Y-26.38044
X18.10416 Y-26.58364
X18.10416 Y-26.60904
G04 P0 ( dwell for no time -- G64 should not smooth over this point )
G00 Z3.00000 ( retract )

G00 X29.43256 Y-28.26004 ( rapid move to begin. )
G01 Z-0.20000
G04 P0 ( dwell for no time -- G64 should not smooth over this point )
X29.43256 Y-28.26004
X29.35636 Y-28.33624
X29.30556 Y-28.41244
X29.28016 Y-28.48864
X29.25476 Y-28.51404
X29.22936 Y-28.59024
X29.20396 Y-28.61564
X29.20396 Y-28.66644
X29.17856 Y-28.69184
X29.17856 Y-28.76804
X29.15316 Y-28.79344
X29.15316 Y-28.92044
X29.12776 Y-28.94584
X29.12776 Y-30.06344
X29.15316 Y-30.08884
X29.15316 Y-30.21584
X29.17856 Y-30.24124
X29.17856 Y-30.31744
X29.20396 Y-30.34284
X29.20396 Y-30.39364
X29.22936 Y-30.41904
X29.25476 Y-30.49524
X29.28016 Y-30.52064
X29.30556 Y-30.59684
X29.35636 Y-30.64764
X29.58496 Y-30.87624
X29.66116 Y-30.92704
X29.73736 Y-30.97784
X29.81356 Y-31.00324
X29.83896 Y-31.02864
X29.88976 Y-31.02864
X29.91516 Y-31.05404
X29.99136 Y-31.07944
X30.04216 Y-31.07944
X30.06756 Y-31.10484
X30.16916 Y-31.10484
X30.19456 Y-31.13024
X31.36296 Y-31.13024
X31.38836 Y-31.10484
X31.48996 Y-31.10484
X31.51536 Y-31.07944
X31.59156 Y-31.07944
X31.61696 Y-31.05404
X31.69316 Y-31.02864
X31.76936 Y-31.00324
X31.79476 Y-30.97784
X31.87096 Y-30.92704
X31.94716 Y-30.87624
X32.17576 Y-30.64764
X32.22656 Y-30.57144
X32.25196 Y-30.49524
X32.27736 Y-30.46984
X32.30276 Y-30.39364
X32.32816 Y-30.36824
X32.32816 Y-30.31744
X32.35356 Y-30.29204
X32.35356 Y-30.21584
X32.37896 Y-30.19044
X32.37896 Y-30.06344
X32.40436 Y-30.03804
X32.40436 Y-28.92044
X32.37896 Y-28.89504
X32.37896 Y-28.76804
X32.35356 Y-28.74264
X32.35356 Y-28.66644
X32.32816 Y-28.64104
X32.32816 Y-28.59024
X32.30276 Y-28.56484
X32.27736 Y-28.48864
X32.25196 Y-28.46324
X32.22656 Y-28.38704
X32.17576 Y-28.33624
X31.94716 Y-28.10764
X31.87096 Y-28.05684
X31.79476 Y-28.00604
X31.71856 Y-27.98064
X31.69316 Y-27.95524
X31.64236 Y-27.95524
X31.61696 Y-27.92984
X31.54076 Y-27.90444
X31.48996 Y-27.90444
X31.46456 Y-27.87904
X31.38836 Y-27.87904
X31.36296 Y-27.85364
X30.14376 Y-27.85364
X30.11836 Y-27.87904
X30.04216 Y-27.87904
X30.01676 Y-27.90444
X29.94056 Y-27.90444
X29.91516 Y-27.92984
X29.83896 Y-27.95524
X29.76276 Y-27.98064
X29.73736 Y-28.00604
X29.66116 Y-28.05684
X29.58496 Y-28.10764
X29.43256 Y-28.26004
G04 P0 ( dwell for no time -- G64 should not smooth over this point )
G00 Z3.00000 ( retract )

G00 X29.43256 Y-33.26384 ( rapid move to begin. )
G01 Z-0.20000
G04 P0 ( dwell for no time -- G64 should not smooth over this point )
X29.43256 Y-33.26384
X29.35636 Y-33.34004
X29.30556 Y-33.41624
X29.28016 Y-33.49244
X29.25476 Y-33.51784
X29.22936 Y-33.59404
X29.20396 Y-33.61944
X29.20396 Y-33.67024
X29.17856 Y-33.69564
X29.17856 Y-33.77184
X29.15316 Y-33.79724
X29.15316 Y-33.92424
X29.12776 Y-33.94964
X29.12776 Y-35.06724
X29.15316 Y-35.09264
X29.15316 Y-35.21964
X29.17856 Y-35.24504
X29.17856 Y-35.32124
X29.20396 Y-35.34664
X29.20396 Y-35.39744
X29.22936 Y-35.42284
X29.25476 Y-35.49904
X29.28016 Y-35.52444
X29.30556 Y-35.60064
X29.35636 Y-35.65144
X29.58496 Y-35.88004
X29.66116 Y-35.93084
X29.73736 Y-35.98164
X29.81356 Y-36.00704
X29.83896 Y-36.03244
X29.88976 Y-36.03244
X29.91516 Y-36.05784
X29.99136 Y-36.08324
X30.04216 Y-36.08324
X30.06756 Y-36.10864
X30.16916 Y-36.10864
X30.19456 Y-36.13404
X31.36296 Y-36.13404
X31.38836 Y-36.10864
X31.48996 Y-36.10864
X31.51536 Y-36.08324
X31.59156 Y-36.08324
X31.61696 Y-36.05784
X31.69316 Y-36.03244
X31.76936 Y-36.00704
X31.79476 Y-35.98164
X31.87096 Y-35.93084
X31.94716 Y-35.88004
X32.17576 Y-35.65144
X32.22656 Y-35.57524
X32.25196 Y-35.49904
X32.27736 Y-35.47364
X32.30276 Y-35.39744
X32.32816 Y-35.37204
X32.32816 Y-35.32124
X32.35356 Y-35.29584
X32.35356 Y-35.21964
X32.37896 Y-35.19424
X32.37896 Y-35.06724
X32.40436 Y-35.04184
X32.40436 Y-33.92424
X32.37896 Y-33.89884
X32.37896 Y-33.77184
X32.35356 Y-33.74644
X32.35356 Y-33.67024
X32.32816 Y-33.64484
X32.32816 Y-33.59404
X32.30276 Y-33.56864
X32.27736 Y-33.49244
X32.25196 Y-33.46704
X32.22656 Y-33.39084
X32.17576 Y-33.34004
X31.94716 Y-33.11144
X31.87096 Y-33.06064
X31.79476 Y-33.00984
X31.71856 Y-32.98444
X31.69316 Y-32.95904
X31.64236 Y-32.95904
X31.61696 Y-32.93364
X31.54076 Y-32.90824
X31.48996 Y-32.90824
X31.46456 Y-32.88284
X31.38836 Y-32.88284
X31.36296 Y-32.85744
X30.14376 Y-32.85744
X30.11836 Y-32.88284
X30.04216 Y-32.88284
X30.01676 Y-32.90824
X29.94056 Y-32.90824
X29.91516 Y-32.93364
X29.83896 Y-32.95904
X29.76276 Y-32.98444
X29.73736 Y-33.00984
X29.66116 Y-33.06064
X29.58496 Y-33.11144
X29.43256 Y-33.26384
G04 P0 ( dwell for no time -- G64 should not smooth over this point )
G00 Z3.00000 ( retract )

G00 X24.42876 Y-33.26384 ( rapid move to begin. )
G01 Z-0.20000
G04 P0 ( dwell for no time -- G64 should not smooth over this point )
X24.42876 Y-33.26384
X24.35256 Y-33.34004
X24.30176 Y-33.41624
X24.27636 Y-33.49244
X24.25096 Y-33.51784
X24.22556 Y-33.59404
X24.20016 Y-33.61944
X24.20016 Y-33.67024
X24.17476 Y-33.69564
X24.17476 Y-33.77184
X24.14936 Y-33.79724
X24.14936 Y-33.92424
X24.12396 Y-33.94964
X24.12396 Y-35.06724
X24.14936 Y-35.09264
X24.14936 Y-35.21964
X24.17476 Y-35.24504
X24.17476 Y-35.32124
X24.20016 Y-35.34664
X24.20016 Y-35.39744
X24.22556 Y-35.42284
X24.25096 Y-35.49904
X24.27636 Y-35.52444
X24.30176 Y-35.60064
X24.35256 Y-35.65144
X24.58116 Y-35.88004
X24.60656 Y-35.90544
X24.60656 Y-38.11524
X24.55576 Y-38.11524
X24.35256 Y-38.34384
X24.32716 Y-38.36924
X21.73636 Y-38.36924
X21.43156 Y-38.03904
X20.54256 Y-37.12464
X20.54256 Y-36.87064
X20.51716 Y-36.84524
X20.51716 Y-36.79444
X20.49176 Y-36.76904
X20.49176 Y-36.71824
X20.46636 Y-36.69284
X20.44096 Y-36.61664
X20.41556 Y-36.59124
X20.21236 Y-36.38804
X20.13616 Y-36.36264
X20.08536 Y-36.31184
X20.00916 Y-36.28644
X19.98376 Y-36.26104
X19.93296 Y-36.26104
X19.90756 Y-36.23564
X19.78056 Y-36.23564
X19.75516 Y-36.21024
X18.86616 Y-36.21024
X18.84076 Y-36.23564
X18.78996 Y-36.23564
X18.73916 Y-36.28644
X18.68836 Y-36.28644
X18.63756 Y-36.33724
X18.58676 Y-36.33724
X18.45976 Y-36.46424
X18.38356 Y-36.48964
X18.20576 Y-36.69284
X18.18036 Y-36.76904
X18.12956 Y-36.81984
X18.12956 Y-36.87064
X18.10416 Y-36.89604
X18.10416 Y-37.02304
X18.07876 Y-37.04844
X18.07876 Y-37.98824
X18.10416 Y-38.01364
X18.10416 Y-38.14064
X18.12956 Y-38.16604
X18.12956 Y-38.24224
X18.15496 Y-38.26764
X18.15496 Y-38.36924
X18.18036 Y-38.39464
X18.18036 Y-38.44544
X18.20576 Y-38.47084
X18.20576 Y-38.52164
X18.30736 Y-38.59784
X18.68836 Y-38.97884
X20.23776 Y-40.52824
X20.31396 Y-40.55364
X20.33936 Y-40.57904
X20.41556 Y-40.60444
X20.49176 Y-40.62984
X20.54256 Y-40.62984
X20.56796 Y-40.65524
X24.35256 Y-40.65524
X24.58116 Y-40.88384
X24.60656 Y-40.90924
X24.60656 Y-43.09364
X24.55576 Y-43.09364
X24.35256 Y-43.32224
X24.30176 Y-43.39844
X24.27636 Y-43.47464
X24.25096 Y-43.50004
X24.22556 Y-43.57624
X24.20016 Y-43.60164
X24.20016 Y-43.65244
X24.17476 Y-43.67784
X24.17476 Y-43.75404
X24.14936 Y-43.77944
X24.14936 Y-43.90644
X24.12396 Y-43.93184
X24.12396 Y-45.04944
X24.14936 Y-45.07484
X24.14936 Y-45.20184
X24.17476 Y-45.22724
X24.17476 Y-45.30344
X24.20016 Y-45.32884
X24.20016 Y-45.37964
X24.22556 Y-45.40504
X24.25096 Y-45.48124
X24.27636 Y-45.50664
X24.30176 Y-45.58284
X24.35256 Y-45.63364
X24.58116 Y-45.86224
X24.65736 Y-45.91304
X24.73356 Y-45.96384
X24.80976 Y-45.98924
X24.83516 Y-46.01464
X24.88596 Y-46.01464
X24.91136 Y-46.04004
X24.98756 Y-46.06544
X25.03836 Y-46.06544
X25.06376 Y-46.09084
X25.16536 Y-46.09084
X25.19076 Y-46.11624
X26.35916 Y-46.11624
X26.38456 Y-46.09084
X26.48616 Y-46.09084
X26.51156 Y-46.06544
X26.58776 Y-46.06544
X26.61316 Y-46.04004
X26.68936 Y-46.01464
X26.76556 Y-45.98924
X26.79096 Y-45.96384
X26.86716 Y-45.91304
X26.94336 Y-45.86224
X27.17196 Y-45.63364
X27.22276 Y-45.55744
X27.24816 Y-45.48124
X27.27356 Y-45.45584
X27.29896 Y-45.37964
X27.32436 Y-45.35424
X27.32436 Y-45.30344
X27.34976 Y-45.27804
X27.34976 Y-45.20184
X27.37516 Y-45.17644
X27.37516 Y-45.04944
X27.40056 Y-45.02404
X27.40056 Y-43.90644
X27.37516 Y-43.88104
X27.37516 Y-43.75404
X27.34976 Y-43.72864
X27.34976 Y-43.65244
X27.32436 Y-43.62704
X27.32436 Y-43.57624
X27.29896 Y-43.55084
X27.27356 Y-43.47464
X27.24816 Y-43.44924
X27.22276 Y-43.37304
X27.17196 Y-43.32224
X26.94336 Y-43.09364
X26.89256 Y-43.04284
X26.89256 Y-40.90924
X26.96876 Y-40.88384
X27.17196 Y-40.65524
X27.22276 Y-40.57904
X27.24816 Y-40.50284
X27.27356 Y-40.47744
X27.29896 Y-40.40124
X27.32436 Y-40.37584
X27.32436 Y-40.32504
X27.34976 Y-40.29964
X27.34976 Y-40.22344
X27.37516 Y-40.19804
X27.37516 Y-40.07104
X27.40056 Y-40.04564
X27.40056 Y-38.92804
X27.37516 Y-38.90264
X27.37516 Y-38.77564
X27.34976 Y-38.75024
X27.34976 Y-38.67404
X27.32436 Y-38.64864
X27.32436 Y-38.59784
X27.29896 Y-38.57244
X27.27356 Y-38.49624
X27.24816 Y-38.47084
X27.22276 Y-38.39464
X27.17196 Y-38.34384
X26.94336 Y-38.11524
X26.89256 Y-38.06444
X26.89256 Y-35.90544
X26.96876 Y-35.88004
X27.17196 Y-35.65144
X27.22276 Y-35.57524
X27.24816 Y-35.49904
X27.27356 Y-35.47364
X27.29896 Y-35.39744
X27.32436 Y-35.37204
X27.32436 Y-35.32124
X27.34976 Y-35.29584
X27.34976 Y-35.21964
X27.37516 Y-35.19424
X27.37516 Y-35.06724
X27.40056 Y-35.04184
X27.40056 Y-33.92424
X27.37516 Y-33.89884
X27.37516 Y-33.77184
X27.34976 Y-33.74644
X27.34976 Y-33.67024
X27.32436 Y-33.64484
X27.32436 Y-33.59404
X27.29896 Y-33.56864
X27.27356 Y-33.49244
X27.24816 Y-33.46704
X27.22276 Y-33.39084
X27.17196 Y-33.34004
X26.94336 Y-33.11144
X26.86716 Y-33.06064
X26.79096 Y-33.00984
X26.71476 Y-32.98444
X26.68936 Y-32.95904
X26.63856 Y-32.95904
X26.61316 Y-32.93364
X26.53696 Y-32.90824
X26.48616 Y-32.90824
X26.46076 Y-32.88284
X26.38456 Y-32.88284
X26.35916 Y-32.85744
X25.13996 Y-32.85744
X25.11456 Y-32.88284
X25.03836 Y-32.88284
X25.01296 Y-32.90824
X24.93676 Y-32.90824
X24.91136 Y-32.93364
X24.83516 Y-32.95904
X24.75896 Y-32.98444
X24.73356 Y-33.00984
X24.65736 Y-33.06064
X24.58116 Y-33.11144
X24.42876 Y-33.26384
G04 P0 ( dwell for no time -- G64 should not smooth over this point )
G00 Z3.00000 ( retract )

G00 X13.60836 Y-33.61944 ( rapid move to begin. )
G01 Z-0.20000
G04 P0 ( dwell for no time -- G64 should not smooth over this point )
X13.60836 Y-33.61944
X13.58296 Y-33.64484
X13.55756 Y-33.72104
X13.53216 Y-33.74644
X13.53216 Y-33.79724
X13.50676 Y-33.82264
X13.50676 Y-33.87344
X13.48136 Y-33.89884
X13.48136 Y-35.11804
X13.50676 Y-35.14344
X13.50676 Y-35.19424
X13.53216 Y-35.21964
X13.53216 Y-35.27044
X13.55756 Y-35.29584
X13.58296 Y-35.37204
X13.60836 Y-35.39744
X13.60836 Y-36.84524
X12.74476 Y-36.84524
X12.71936 Y-36.87064
X12.64316 Y-36.87064
X12.61776 Y-36.89604
X12.56696 Y-36.89604
X12.54156 Y-36.92144
X12.46536 Y-36.94684
X12.43996 Y-36.97224
X10.99216 Y-38.42004
X10.94136 Y-38.49624
X10.91596 Y-38.57244
X10.89056 Y-38.59784
X10.89056 Y-38.64864
X10.86516 Y-38.67404
X10.86516 Y-38.75024
X10.83976 Y-38.77564
X10.83976 Y-39.84244
X10.81436 Y-39.86784
X10.81436 Y-39.94404
X10.78896 Y-39.96944
X10.78896 Y-40.04564
X10.76356 Y-40.07104
X10.76356 Y-40.22344
X10.73816 Y-40.24884
X10.73816 Y-42.12844
X10.76356 Y-42.15384
X10.76356 Y-42.30624
X10.78896 Y-42.33164
X10.78896 Y-42.40784
X10.81436 Y-42.43324
X10.81436 Y-42.50944
X10.83976 Y-42.53484
X10.83976 Y-42.63644
X10.81436 Y-42.66184
X10.81436 Y-42.71264
X10.78896 Y-42.73804
X10.78896 Y-42.78884
X10.76356 Y-42.81424
X10.73816 Y-42.83964
X10.66196 Y-42.86504
X10.58576 Y-42.89044
X10.50956 Y-42.91584
X9.54436 Y-43.85564
X7.05516 Y-43.85564
X7.05516 Y-43.44924
X7.02976 Y-43.42384
X7.02976 Y-43.27144
X7.00436 Y-43.24604
X7.00436 Y-43.19524
X6.97896 Y-43.16984
X6.97896 Y-43.11904
X6.95356 Y-43.09364
X6.95356 Y-43.04284
X6.92816 Y-43.01744
X6.90276 Y-42.94124
X6.87736 Y-42.91584
X6.82656 Y-42.83964
X6.77576 Y-42.76344
X6.52176 Y-42.50944
X6.42016 Y-42.43324
X6.34396 Y-42.38244
X6.26776 Y-42.35704
X6.24236 Y-42.33164
X6.16616 Y-42.30624
X6.08996 Y-42.28084
X6.01376 Y-42.25544
X5.93756 Y-42.23004
X5.81056 Y-42.23004
X5.78516 Y-42.20464
X4.71836 Y-42.20464
X4.69296 Y-42.23004
X4.54056 Y-42.23004
X4.51516 Y-42.25544
X4.46436 Y-42.25544
X4.43896 Y-42.28084
X4.38816 Y-42.28084
X4.36276 Y-42.30624
X4.31196 Y-42.30624
X4.28656 Y-42.33164
X4.21036 Y-42.35704
X4.18496 Y-42.38244
X4.10876 Y-42.43324
X4.00716 Y-42.50944
X3.77856 Y-42.73804
X3.70236 Y-42.83964
X3.67696 Y-42.91584
X3.62616 Y-42.96664
X3.60076 Y-43.04284
X3.57536 Y-43.06824
X3.57536 Y-43.11904
X3.54996 Y-43.14444
X3.54996 Y-43.19524
X3.52456 Y-43.22064
X3.52456 Y-43.27144
X3.49916 Y-43.29684
X3.49916 Y-43.44924
X3.47376 Y-43.47464
X3.47376 Y-44.54144
X3.49916 Y-44.56684
X3.49916 Y-44.71924
X3.52456 Y-44.74464
X3.52456 Y-44.79544
X3.54996 Y-44.82084
X3.54996 Y-44.87164
X3.57536 Y-44.89704
X3.57536 Y-44.94784
X3.60076 Y-44.97324
X3.62616 Y-45.04944
X3.67696 Y-45.10024
X3.70236 Y-45.17644
X3.77856 Y-45.25264
X4.00716 Y-45.48124
X4.10876 Y-45.55744
X4.18496 Y-45.58284
X4.23576 Y-45.63364
X4.31196 Y-45.65904
X4.33736 Y-45.68444
X4.38816 Y-45.68444
X4.41356 Y-45.70984
X4.46436 Y-45.70984
X4.48976 Y-45.73524
X4.54056 Y-45.73524
X4.56596 Y-45.76064
X4.71836 Y-45.76064
X4.74376 Y-45.78604
X5.20096 Y-45.78604
X5.42956 Y-46.01464
X5.50576 Y-46.04004
X5.53116 Y-46.06544
X5.60736 Y-46.09084
X5.68356 Y-46.11624
X5.73436 Y-46.11624
X5.75976 Y-46.14164
X10.76356 Y-46.14164
X10.78896 Y-46.11624
X10.86516 Y-46.11624
X10.89056 Y-46.09084
X10.94136 Y-46.09084
X10.96676 Y-46.06544
X11.04296 Y-46.04004
X11.06836 Y-46.01464
X12.97336 Y-44.10964
X13.02416 Y-44.03344
X13.04956 Y-43.95724
X13.07496 Y-43.93184
X13.07496 Y-43.88104
X13.10036 Y-43.85564
X13.10036 Y-43.77944
X13.12576 Y-43.75404
X13.12576 Y-42.61104
X13.17656 Y-42.56024
X13.22736 Y-42.48404
X13.27816 Y-42.40784
X13.27816 Y-39.91864
X13.22736 Y-39.86784
X13.93856 Y-39.15664
X14.01476 Y-39.18204
X14.04016 Y-39.20744
X14.09096 Y-39.20744
X14.11636 Y-39.23284
X14.24336 Y-39.23284
X14.26876 Y-39.25824
X15.28476 Y-39.25824
X15.31016 Y-39.23284
X15.43716 Y-39.23284
X15.46256 Y-39.20744
X15.51336 Y-39.20744
X15.53876 Y-39.18204
X15.61496 Y-39.15664
X15.66576 Y-39.10584
X15.74196 Y-39.08044
X15.91976 Y-38.87724
X15.91976 Y-38.77564
X15.94516 Y-38.75024
X15.94516 Y-38.62324
X15.97056 Y-38.59784
X15.97056 Y-37.32784
X15.94516 Y-37.30244
X15.94516 Y-37.17544
X15.91976 Y-37.15004
X15.91976 Y-37.04844
X15.89436 Y-37.02304
X15.89436 Y-35.42284
X15.91976 Y-35.39744
X15.94516 Y-35.32124
X15.97056 Y-35.29584
X15.99596 Y-35.21964
X16.02136 Y-35.14344
X16.04676 Y-35.06724
X16.04676 Y-33.87344
X16.02136 Y-33.84804
X16.02136 Y-33.79724
X15.99596 Y-33.77184
X15.99596 Y-33.72104
X15.97056 Y-33.69564
X15.94516 Y-33.61944
X15.91976 Y-33.59404
X15.71656 Y-33.39084
X15.64036 Y-33.36544
X15.58956 Y-33.31464
X15.51336 Y-33.28924
X15.48796 Y-33.26384
X15.43716 Y-33.26384
X15.41176 Y-33.23844
X15.28476 Y-33.23844
X15.25936 Y-33.21304
X14.24336 Y-33.21304
X14.21796 Y-33.23844
X14.09096 Y-33.23844
X14.06556 Y-33.26384
X14.01476 Y-33.26384
X13.98936 Y-33.28924
X13.91316 Y-33.31464
X13.86236 Y-33.36544
X13.78616 Y-33.39084
X13.60836 Y-33.59404
X13.60836 Y-33.61944
G04 P0 ( dwell for no time -- G64 should not smooth over this point )
G00 Z3.00000 ( retract )

G00 X29.43256 Y-38.26764 ( rapid move to begin. )
G01 Z-0.20000
G04 P0 ( dwell for no time -- G64 should not smooth over this point )
X29.43256 Y-38.26764
X29.35636 Y-38.34384
X29.30556 Y-38.42004
X29.28016 Y-38.49624
X29.25476 Y-38.52164
X29.22936 Y-38.59784
X29.20396 Y-38.62324
X29.20396 Y-38.67404
X29.17856 Y-38.69944
X29.17856 Y-38.77564
X29.15316 Y-38.80104
X29.15316 Y-38.92804
X29.12776 Y-38.95344
X29.12776 Y-40.07104
X29.15316 Y-40.09644
X29.15316 Y-40.22344
X29.17856 Y-40.24884
X29.17856 Y-40.32504
X29.20396 Y-40.35044
X29.20396 Y-40.40124
X29.22936 Y-40.42664
X29.25476 Y-40.50284
X29.28016 Y-40.52824
X29.30556 Y-40.60444
X29.35636 Y-40.65524
X29.58496 Y-40.88384
X29.66116 Y-40.93464
X29.73736 Y-40.98544
X29.81356 Y-41.01084
X29.83896 Y-41.03624
X29.88976 Y-41.03624
X29.91516 Y-41.06164
X29.99136 Y-41.08704
X30.04216 Y-41.08704
X30.06756 Y-41.11244
X30.16916 Y-41.11244
X30.19456 Y-41.13784
X31.36296 Y-41.13784
X31.38836 Y-41.11244
X31.48996 Y-41.11244
X31.51536 Y-41.08704
X31.59156 Y-41.08704
X31.61696 Y-41.06164
X31.69316 Y-41.03624
X31.76936 Y-41.01084
X31.79476 Y-40.98544
X31.87096 Y-40.93464
X31.94716 Y-40.88384
X32.17576 Y-40.65524
X32.22656 Y-40.57904
X32.25196 Y-40.50284
X32.27736 Y-40.47744
X32.30276 Y-40.40124
X32.32816 Y-40.37584
X32.32816 Y-40.32504
X32.35356 Y-40.29964
X32.35356 Y-40.22344
X32.37896 Y-40.19804
X32.37896 Y-40.07104
X32.40436 Y-40.04564
X32.40436 Y-38.92804
X32.37896 Y-38.90264
X32.37896 Y-38.77564
X32.35356 Y-38.75024
X32.35356 Y-38.67404
X32.32816 Y-38.64864
X32.32816 Y-38.59784
X32.30276 Y-38.57244
X32.27736 Y-38.49624
X32.25196 Y-38.47084
X32.22656 Y-38.39464
X32.17576 Y-38.34384
X31.94716 Y-38.11524
X31.87096 Y-38.06444
X31.79476 Y-38.01364
X31.71856 Y-37.98824
X31.69316 Y-37.96284
X31.64236 Y-37.96284
X31.61696 Y-37.93744
X31.54076 Y-37.91204
X31.48996 Y-37.91204
X31.46456 Y-37.88664
X31.38836 Y-37.88664
X31.36296 Y-37.86124
X30.14376 Y-37.86124
X30.11836 Y-37.88664
X30.04216 Y-37.88664
X30.01676 Y-37.91204
X29.94056 Y-37.91204
X29.91516 Y-37.93744
X29.83896 Y-37.96284
X29.76276 Y-37.98824
X29.73736 Y-38.01364
X29.66116 Y-38.06444
X29.58496 Y-38.11524
X29.43256 Y-38.26764
G04 P0 ( dwell for no time -- G64 should not smooth over this point )
G00 Z3.00000 ( retract )

G00 X13.32896 Y-39.84244 ( rapid move to begin. )
G01 Z-0.20000
G04 P0 ( dwell for no time -- G64 should not smooth over this point )
X13.32896 Y-39.84244
X13.30356 Y-39.86784
X13.27816 Y-39.94404
X13.27816 Y-42.45864
X13.30356 Y-42.48404
X13.35436 Y-42.56024
X13.48136 Y-42.68724
X13.55756 Y-42.71264
X13.60836 Y-42.76344
X13.68456 Y-42.78884
X13.70996 Y-42.81424
X13.78616 Y-42.86504
X13.88776 Y-42.86504
X13.91316 Y-42.89044
X14.04016 Y-42.89044
X14.06556 Y-42.91584
X15.03076 Y-42.91584
X15.05616 Y-42.89044
X15.18316 Y-42.89044
X15.20856 Y-42.86504
X15.31016 Y-42.86504
X15.33556 Y-42.83964
X15.41176 Y-42.78884
X15.48796 Y-42.76344
X15.53876 Y-42.71264
X15.61496 Y-42.68724
X15.71656 Y-42.56024
X15.76736 Y-42.48404
X15.79276 Y-42.40784
X15.79276 Y-39.89324
X15.76736 Y-39.86784
X15.71656 Y-39.79164
X15.58956 Y-39.66464
X15.51336 Y-39.63924
X15.46256 Y-39.58844
X15.38636 Y-39.56304
X15.33556 Y-39.51224
X15.25936 Y-39.48684
X15.18316 Y-39.48684
X15.15776 Y-39.46144
X15.03076 Y-39.46144
X15.00536 Y-39.43604
X14.04016 Y-39.43604
X14.01476 Y-39.46144
X13.88776 Y-39.46144
X13.86236 Y-39.48684
X13.76076 Y-39.48684
X13.70996 Y-39.53764
X13.63376 Y-39.56304
X13.60836 Y-39.58844
X13.53216 Y-39.63924
X13.45596 Y-39.66464
X13.35436 Y-39.79164
X13.32896 Y-39.84244
G04 P0 ( dwell for no time -- G64 should not smooth over this point )
G00 Z3.00000 ( retract )

G00 X29.43256 Y-43.24604 ( rapid move to begin. )
G01 Z-0.20000
G04 P0 ( dwell for no time -- G64 should not smooth over this point )
X29.43256 Y-43.24604
X29.35636 Y-43.32224
X29.30556 Y-43.39844
X29.28016 Y-43.47464
X29.25476 Y-43.50004
X29.22936 Y-43.57624
X29.20396 Y-43.60164
X29.20396 Y-43.65244
X29.17856 Y-43.67784
X29.17856 Y-43.75404
X29.15316 Y-43.77944
X29.15316 Y-43.90644
X29.12776 Y-43.93184
X29.12776 Y-45.04944
X29.15316 Y-45.07484
X29.15316 Y-45.20184
X29.17856 Y-45.22724
X29.17856 Y-45.30344
X29.20396 Y-45.32884
X29.20396 Y-45.37964
X29.22936 Y-45.40504
X29.25476 Y-45.48124
X29.28016 Y-45.50664
X29.30556 Y-45.58284
X29.35636 Y-45.63364
X29.58496 Y-45.86224
X29.66116 Y-45.91304
X29.73736 Y-45.96384
X29.81356 Y-45.98924
X29.83896 Y-46.01464
X29.88976 Y-46.01464
X29.91516 Y-46.04004
X29.99136 Y-46.06544
X30.04216 Y-46.06544
X30.06756 Y-46.09084
X30.16916 Y-46.09084
X30.19456 Y-46.11624
X31.36296 Y-46.11624
X31.38836 Y-46.09084
X31.48996 Y-46.09084
X31.51536 Y-46.06544
X31.59156 Y-46.06544
X31.61696 Y-46.04004
X31.69316 Y-46.01464
X31.76936 Y-45.98924
X31.79476 Y-45.96384
X31.87096 Y-45.91304
X31.94716 Y-45.86224
X32.17576 Y-45.63364
X32.22656 Y-45.55744
X32.25196 Y-45.48124
X32.27736 Y-45.45584
X32.30276 Y-45.37964
X32.32816 Y-45.35424
X32.32816 Y-45.30344
X32.35356 Y-45.27804
X32.35356 Y-45.20184
X32.37896 Y-45.17644
X32.37896 Y-45.04944
X32.40436 Y-45.02404
X32.40436 Y-43.90644
X32.37896 Y-43.88104
X32.37896 Y-43.75404
X32.35356 Y-43.72864
X32.35356 Y-43.65244
X32.32816 Y-43.62704
X32.32816 Y-43.57624
X32.30276 Y-43.55084
X32.27736 Y-43.47464
X32.25196 Y-43.44924
X32.22656 Y-43.37304
X32.17576 Y-43.32224
X31.94716 Y-43.09364
X31.87096 Y-43.04284
X31.79476 Y-42.99204
X31.71856 Y-42.96664
X31.69316 Y-42.94124
X31.64236 Y-42.94124
X31.61696 Y-42.91584
X31.54076 Y-42.89044
X31.48996 Y-42.89044
X31.46456 Y-42.86504
X31.38836 Y-42.86504
X31.36296 Y-42.83964
X30.14376 Y-42.83964
X30.11836 Y-42.86504
X30.04216 Y-42.86504
X30.01676 Y-42.89044
X29.94056 Y-42.89044
X29.91516 Y-42.91584
X29.83896 Y-42.94124
X29.76276 Y-42.96664
X29.73736 Y-42.99204
X29.66116 Y-43.04284
X29.58496 Y-43.09364
X29.43256 Y-43.24604
G04 P0 ( dwell for no time -- G64 should not smooth over this point )
G00 Z3.00000 ( retract )

G00 X13.32896 Y-47.46244 ( rapid move to begin. )
G01 Z-0.20000
G04 P0 ( dwell for no time -- G64 should not smooth over this point )
X13.32896 Y-47.46244
X13.30356 Y-47.48784
X13.25276 Y-47.53864
X13.22736 Y-47.46244
X13.17656 Y-47.41164
X13.04956 Y-47.28464
X12.97336 Y-47.25924
X12.92256 Y-47.20844
X12.84636 Y-47.18304
X12.79556 Y-47.13224
X12.71936 Y-47.10684
X12.64316 Y-47.10684
X12.61776 Y-47.08144
X12.49076 Y-47.08144
X12.46536 Y-47.05604
X11.50016 Y-47.05604
X11.47476 Y-47.08144
X11.34776 Y-47.08144
X11.32236 Y-47.10684
X11.22076 Y-47.10684
X11.16996 Y-47.15764
X11.09376 Y-47.18304
X11.06836 Y-47.20844
X10.99216 Y-47.25924
X10.91596 Y-47.28464
X10.81436 Y-47.41164
X10.76356 Y-47.48784
X10.73816 Y-47.56404
X10.73816 Y-50.07864
X10.76356 Y-50.10404
X10.81436 Y-50.18024
X10.83976 Y-50.25644
X10.83976 Y-51.72964
X10.86516 Y-51.75504
X10.86516 Y-51.83124
X10.89056 Y-51.85664
X10.89056 Y-51.90744
X10.91596 Y-51.93284
X10.94136 Y-52.00904
X10.99216 Y-52.05984
X11.55096 Y-52.64404
X12.43996 Y-53.55844
X12.43996 Y-54.06644
X12.46536 Y-54.09184
X12.46536 Y-54.14264
X12.49076 Y-54.16804
X12.49076 Y-54.21884
X12.51616 Y-54.24424
X12.54156 Y-54.32044
X12.56696 Y-54.34584
X12.77016 Y-54.54904
X12.84636 Y-54.57444
X12.89716 Y-54.62524
X12.97336 Y-54.65064
X12.99876 Y-54.67604
X13.04956 Y-54.67604
X13.07496 Y-54.70144
X13.20196 Y-54.70144
X13.22736 Y-54.72684
X14.24336 Y-54.72684
X14.26876 Y-54.70144
X14.39576 Y-54.70144
X14.42116 Y-54.67604
X14.47196 Y-54.67604
X14.49736 Y-54.65064
X14.57356 Y-54.62524
X14.62436 Y-54.57444
X14.70056 Y-54.54904
X14.87836 Y-54.34584
X14.90376 Y-54.26964
X14.92916 Y-54.24424
X14.95456 Y-54.16804
X14.97996 Y-54.09184
X15.00536 Y-54.01564
X15.00536 Y-52.82184
X14.97996 Y-52.79644
X14.97996 Y-52.74564
X14.95456 Y-52.72024
X14.95456 Y-52.66944
X14.92916 Y-52.64404
X14.90376 Y-52.56784
X14.87836 Y-52.54244
X14.85296 Y-52.46624
X14.82756 Y-52.44084
X14.82756 Y-52.36464
X14.80216 Y-52.33924
X14.80216 Y-52.28844
X14.77676 Y-52.26304
X14.75136 Y-52.18684
X14.70056 Y-52.13604
X14.14176 Y-51.55184
X13.12576 Y-50.51044
X13.12576 Y-50.23104
X13.17656 Y-50.18024
X13.22736 Y-50.10404
X13.27816 Y-50.05324
X13.30356 Y-50.12944
X13.35436 Y-50.18024
X13.48136 Y-50.30724
X13.55756 Y-50.33264
X13.60836 Y-50.38344
X13.68456 Y-50.40884
X13.70996 Y-50.43424
X13.78616 Y-50.48504
X13.88776 Y-50.48504
X13.91316 Y-50.51044
X14.04016 Y-50.51044
X14.06556 Y-50.53584
X15.03076 Y-50.53584
X15.05616 Y-50.51044
X15.18316 Y-50.51044
X15.20856 Y-50.48504
X15.31016 Y-50.48504
X15.33556 Y-50.45964
X15.41176 Y-50.40884
X15.48796 Y-50.38344
X15.53876 Y-50.33264
X15.61496 Y-50.30724
X15.71656 Y-50.18024
X15.76736 Y-50.10404
X15.79276 Y-50.02784
X15.79276 Y-47.51324
X15.76736 Y-47.48784
X15.71656 Y-47.41164
X15.58956 Y-47.28464
X15.51336 Y-47.25924
X15.46256 Y-47.20844
X15.38636 Y-47.18304
X15.33556 Y-47.13224
X15.25936 Y-47.10684
X15.18316 Y-47.10684
X15.15776 Y-47.08144
X15.03076 Y-47.08144
X15.00536 Y-47.05604
X14.04016 Y-47.05604
X14.01476 Y-47.08144
X13.88776 Y-47.08144
X13.86236 Y-47.10684
X13.76076 Y-47.10684
X13.70996 Y-47.15764
X13.63376 Y-47.18304
X13.60836 Y-47.20844
X13.53216 Y-47.25924
X13.45596 Y-47.28464
X13.35436 Y-47.41164
X13.32896 Y-47.46244
G04 P0 ( dwell for no time -- G64 should not smooth over this point )
G00 Z3.00000 ( retract )

G00 X29.43256 Y-48.24984 ( rapid move to begin. )
G01 Z-0.20000
G04 P0 ( dwell for no time -- G64 should not smooth over this point )
X29.43256 Y-48.24984
X29.35636 Y-48.32604
X29.30556 Y-48.40224
X29.28016 Y-48.47844
X29.25476 Y-48.50384
X29.22936 Y-48.58004
X29.20396 Y-48.60544
X29.20396 Y-48.65624
X29.17856 Y-48.68164
X29.17856 Y-48.75784
X29.15316 Y-48.78324
X29.15316 Y-48.91024
X29.12776 Y-48.93564
X29.12776 Y-50.05324
X29.15316 Y-50.07864
X29.15316 Y-50.20564
X29.17856 Y-50.23104
X29.17856 Y-50.30724
X29.20396 Y-50.33264
X29.20396 Y-50.38344
X29.22936 Y-50.40884
X29.25476 Y-50.48504
X29.28016 Y-50.51044
X29.30556 Y-50.58664
X29.35636 Y-50.63744
X29.58496 Y-50.86604
X29.66116 Y-50.91684
X29.73736 Y-50.96764
X29.81356 Y-50.99304
X29.83896 Y-51.01844
X29.88976 Y-51.01844
X29.91516 Y-51.04384
X29.99136 Y-51.06924
X30.04216 Y-51.06924
X30.06756 Y-51.09464
X30.16916 Y-51.09464
X30.19456 Y-51.12004
X31.36296 Y-51.12004
X31.38836 Y-51.09464
X31.48996 Y-51.09464
X31.51536 Y-51.06924
X31.59156 Y-51.06924
X31.61696 Y-51.04384
X31.69316 Y-51.01844
X31.76936 Y-50.99304
X31.79476 Y-50.96764
X31.87096 Y-50.91684
X31.94716 Y-50.86604
X32.17576 Y-50.63744
X32.22656 Y-50.56124
X32.25196 Y-50.48504
X32.27736 Y-50.45964
X32.30276 Y-50.38344
X32.32816 Y-50.35804
X32.32816 Y-50.30724
X32.35356 Y-50.28184
X32.35356 Y-50.20564
X32.37896 Y-50.18024
X32.37896 Y-50.05324
X32.40436 Y-50.02784
X32.40436 Y-48.91024
X32.37896 Y-48.88484
X32.37896 Y-48.75784
X32.35356 Y-48.73244
X32.35356 Y-48.65624
X32.32816 Y-48.63084
X32.32816 Y-48.58004
X32.30276 Y-48.55464
X32.27736 Y-48.47844
X32.25196 Y-48.45304
X32.22656 Y-48.37684
X32.17576 Y-48.32604
X31.94716 Y-48.09744
X31.87096 Y-48.04664
X31.79476 Y-47.99584
X31.71856 Y-47.97044
X31.69316 Y-47.94504
X31.64236 Y-47.94504
X31.61696 Y-47.91964
X31.54076 Y-47.89424
X31.48996 Y-47.89424
X31.46456 Y-47.86884
X31.38836 Y-47.86884
X31.36296 Y-47.84344
X30.14376 Y-47.84344
X30.11836 Y-47.86884
X30.04216 Y-47.86884
X30.01676 Y-47.89424
X29.94056 Y-47.89424
X29.91516 Y-47.91964
X29.83896 Y-47.94504
X29.76276 Y-47.97044
X29.73736 Y-47.99584
X29.66116 Y-48.04664
X29.58496 Y-48.09744
X29.43256 Y-48.24984
G04 P0 ( dwell for no time -- G64 should not smooth over this point )
G00 Z3.00000 ( retract )

G00 X24.42876 Y-48.24984 ( rapid move to begin. )
G01 Z-0.20000
G04 P0 ( dwell for no time -- G64 should not smooth over this point )
X24.42876 Y-48.24984
X24.35256 Y-48.32604
X24.32716 Y-48.35144
X23.74296 Y-48.35144
X23.71756 Y-48.37684
X23.64136 Y-48.37684
X23.61596 Y-48.40224
X23.56516 Y-48.40224
X23.53976 Y-48.42764
X23.46356 Y-48.45304
X23.43816 Y-48.47844
X20.87276 Y-51.04384
X19.80596 Y-52.13604
X19.75516 Y-52.21224
X19.72976 Y-52.28844
X19.70436 Y-52.31384
X19.70436 Y-52.36464
X19.67896 Y-52.39004
X19.67896 Y-52.46624
X19.65356 Y-52.49164
X19.65356 Y-59.65444
X19.62816 Y-59.67984
X19.60276 Y-59.75604
X19.57736 Y-59.78144
X19.57736 Y-59.83224
X19.55196 Y-59.85764
X19.55196 Y-59.90844
X19.52656 Y-59.93384
X19.52656 Y-61.15304
X19.55196 Y-61.17844
X19.55196 Y-61.22924
X19.57736 Y-61.25464
X19.57736 Y-61.30544
X19.60276 Y-61.33084
X19.62816 Y-61.40704
X19.65356 Y-61.43244
X19.85676 Y-61.63564
X19.93296 Y-61.66104
X19.98376 Y-61.71184
X20.05996 Y-61.73724
X20.08536 Y-61.76264
X20.13616 Y-61.76264
X20.16156 Y-61.78804
X20.28856 Y-61.78804
X20.31396 Y-61.81344
X21.32996 Y-61.81344
X21.35536 Y-61.78804
X21.48236 Y-61.78804
X21.50776 Y-61.76264
X21.55856 Y-61.76264
X21.58396 Y-61.73724
X21.66016 Y-61.71184
X21.71096 Y-61.66104
X21.78716 Y-61.63564
X21.96496 Y-61.43244
X21.99036 Y-61.35624
X22.01576 Y-61.33084
X22.04116 Y-61.25464
X22.06656 Y-61.17844
X22.09196 Y-61.10224
X22.09196 Y-59.90844
X22.06656 Y-59.88304
X22.06656 Y-59.83224
X22.04116 Y-59.80684
X22.04116 Y-59.75604
X22.01576 Y-59.73064
X21.99036 Y-59.65444
X21.96496 Y-59.62904
X21.93956 Y-59.55284
X21.93956 Y-53.66004
X24.22556 Y-51.37404
X24.68276 Y-50.91684
X24.73356 Y-50.96764
X24.80976 Y-50.99304
X24.83516 Y-51.01844
X24.88596 Y-51.01844
X24.91136 Y-51.04384
X24.98756 Y-51.06924
X25.03836 Y-51.06924
X25.06376 Y-51.09464
X25.16536 Y-51.09464
X25.19076 Y-51.12004
X26.35916 Y-51.12004
X26.38456 Y-51.09464
X26.48616 Y-51.09464
X26.51156 Y-51.06924
X26.58776 Y-51.06924
X26.61316 Y-51.04384
X26.68936 Y-51.01844
X26.76556 Y-50.99304
X26.79096 Y-50.96764
X26.86716 Y-50.91684
X26.94336 Y-50.86604
X27.17196 Y-50.63744
X27.22276 Y-50.56124
X27.24816 Y-50.48504
X27.27356 Y-50.45964
X27.29896 Y-50.38344
X27.32436 Y-50.35804
X27.32436 Y-50.30724
X27.34976 Y-50.28184
X27.34976 Y-50.20564
X27.37516 Y-50.18024
X27.37516 Y-50.05324
X27.40056 Y-50.02784
X27.40056 Y-48.91024
X27.37516 Y-48.88484
X27.37516 Y-48.75784
X27.34976 Y-48.73244
X27.34976 Y-48.65624
X27.32436 Y-48.63084
X27.32436 Y-48.58004
X27.29896 Y-48.55464
X27.27356 Y-48.47844
X27.24816 Y-48.45304
X27.22276 Y-48.37684
X27.17196 Y-48.32604
X26.94336 Y-48.09744
X26.86716 Y-48.04664
X26.79096 Y-47.99584
X26.71476 Y-47.97044
X26.68936 Y-47.94504
X26.63856 Y-47.94504
X26.61316 Y-47.91964
X26.53696 Y-47.89424
X26.48616 Y-47.89424
X26.46076 Y-47.86884
X26.38456 Y-47.86884
X26.35916 Y-47.84344
X25.13996 Y-47.84344
X25.11456 Y-47.86884
X25.03836 Y-47.86884
X25.01296 Y-47.89424
X24.93676 Y-47.89424
X24.91136 Y-47.91964
X24.83516 Y-47.94504
X24.75896 Y-47.97044
X24.73356 Y-47.99584
X24.65736 Y-48.04664
X24.58116 Y-48.09744
X24.42876 Y-48.24984
G04 P0 ( dwell for no time -- G64 should not smooth over this point )
G00 Z3.00000 ( retract )

G00 X27.01956 Y-53.50764 ( rapid move to begin. )
G01 Z-0.20000
G04 P0 ( dwell for no time -- G64 should not smooth over this point )
X27.01956 Y-53.50764
X26.96876 Y-53.50764
X26.94336 Y-53.53304
X26.86716 Y-53.55844
X26.84176 Y-53.58384
X26.76556 Y-53.60924
X26.74016 Y-53.63464
X26.66396 Y-53.66004
X26.61316 Y-53.71084
X26.53696 Y-53.76164
X26.46076 Y-53.78704
X26.40996 Y-53.83784
X26.33376 Y-53.86324
X26.25756 Y-53.93944
X26.15596 Y-54.01564
X26.05436 Y-54.09184
X25.85116 Y-54.26964
X25.54636 Y-54.57444
X25.36856 Y-54.77764
X25.29236 Y-54.87924
X25.21616 Y-54.98084
X25.13996 Y-55.08244
X25.11456 Y-55.15864
X25.06376 Y-55.20944
X25.03836 Y-55.28564
X24.98756 Y-55.33644
X24.93676 Y-55.41264
X24.91136 Y-55.48884
X24.88596 Y-55.51424
X24.86056 Y-55.59044
X24.83516 Y-55.61584
X24.80976 Y-55.69204
X24.78436 Y-55.71744
X24.75896 Y-55.79364
X24.73356 Y-55.86984
X24.70816 Y-55.89524
X24.68276 Y-55.97144
X24.65736 Y-56.04764
X24.63196 Y-56.12384
X24.60656 Y-56.20004
X24.58116 Y-56.22544
X24.58116 Y-56.30164
X24.55576 Y-56.32704
X24.55576 Y-56.37784
X24.53036 Y-56.40324
X24.53036 Y-56.47944
X24.50496 Y-56.50484
X24.50496 Y-56.58104
X24.47956 Y-56.60644
X24.47956 Y-56.68264
X24.45416 Y-56.70804
X24.45416 Y-56.83504
X24.42876 Y-56.86044
X24.42876 Y-57.01284
X24.40336 Y-57.03824
X24.40336 Y-57.26684
X24.37796 Y-57.29224
X24.37796 Y-58.71464
X24.40336 Y-58.74004
X24.40336 Y-58.96864
X24.42876 Y-58.99404
X24.42876 Y-59.14644
X24.45416 Y-59.17184
X24.45416 Y-59.29884
X24.47956 Y-59.32424
X24.47956 Y-59.40044
X24.50496 Y-59.42584
X24.50496 Y-59.50204
X24.53036 Y-59.52744
X24.53036 Y-59.60364
X24.55576 Y-59.62904
X24.55576 Y-59.67984
X24.58116 Y-59.70524
X24.58116 Y-59.78144
X24.60656 Y-59.80684
X24.63196 Y-59.88304
X24.65736 Y-59.95924
X24.68276 Y-60.03544
X24.70816 Y-60.06084
X24.70816 Y-60.11164
X24.73356 Y-60.13704
X24.75896 Y-60.21324
X24.78436 Y-60.28944
X24.80976 Y-60.31484
X24.83516 Y-60.39104
X24.86056 Y-60.41644
X24.88596 Y-60.49264
X24.91136 Y-60.51804
X24.93676 Y-60.59424
X24.98756 Y-60.64504
X25.03836 Y-60.72124
X25.06376 Y-60.79744
X25.11456 Y-60.84824
X25.13996 Y-60.92444
X25.21616 Y-61.00064
X25.29236 Y-61.10224
X25.36856 Y-61.20384
X25.54636 Y-61.40704
X25.85116 Y-61.71184
X26.05436 Y-61.88964
X26.15596 Y-61.96584
X26.25756 Y-62.04204
X26.35916 Y-62.11824
X26.43536 Y-62.14364
X26.48616 Y-62.19444
X26.56236 Y-62.21984
X26.61316 Y-62.27064
X26.68936 Y-62.32144
X26.76556 Y-62.34684
X26.79096 Y-62.37224
X26.86716 Y-62.39764
X26.89256 Y-62.42304
X26.96876 Y-62.44844
X26.99416 Y-62.47384
X27.07036 Y-62.49924
X27.14656 Y-62.52464
X27.17196 Y-62.55004
X27.24816 Y-62.57544
X27.32436 Y-62.60084
X27.40056 Y-62.62624
X27.47676 Y-62.65164
X27.50216 Y-62.67704
X27.57836 Y-62.67704
X27.60376 Y-62.70244
X27.65456 Y-62.70244
X27.67996 Y-62.72784
X30.88036 Y-62.72784
X30.90576 Y-62.70244
X30.98196 Y-62.70244
X31.00736 Y-62.67704
X31.05816 Y-62.67704
X31.08356 Y-62.65164
X31.15976 Y-62.62624
X31.23596 Y-62.60084
X31.31216 Y-62.57544
X31.38836 Y-62.55004
X31.41376 Y-62.52464
X31.46456 Y-62.52464
X31.48996 Y-62.49924
X31.56616 Y-62.47384
X31.59156 Y-62.44844
X31.66776 Y-62.42304
X31.69316 Y-62.39764
X31.76936 Y-62.37224
X31.79476 Y-62.34684
X31.87096 Y-62.32144
X31.92176 Y-62.27064
X31.99796 Y-62.24524
X32.04876 Y-62.19444
X32.12496 Y-62.14364
X32.20116 Y-62.11824
X32.27736 Y-62.04204
X32.37896 Y-61.96584
X32.48056 Y-61.88964
X32.68376 Y-61.71184
X32.98856 Y-61.40704
X33.16636 Y-61.20384
X33.24256 Y-61.10224
X33.31876 Y-61.00064
X33.39496 Y-60.89904
X33.42036 Y-60.82284
X33.47116 Y-60.77204
X33.52196 Y-60.69584
X33.54736 Y-60.61964
X33.59816 Y-60.56884
X33.62356 Y-60.49264
X33.64896 Y-60.46724
X33.67436 Y-60.39104
X33.69976 Y-60.36564
X33.72516 Y-60.28944
X33.75056 Y-60.26404
X33.77596 Y-60.18784
X33.80136 Y-60.16244
X33.80136 Y-60.11164
X33.82676 Y-60.08624
X33.85216 Y-60.01004
X33.87756 Y-59.93384
X33.90296 Y-59.85764
X33.92836 Y-59.78144
X33.95376 Y-59.75604
X33.95376 Y-59.70524
X33.97916 Y-59.67984
X33.97916 Y-59.60364
X34.00456 Y-59.57824
X34.00456 Y-56.37784
X33.97916 Y-56.35244
X33.97916 Y-56.27624
X33.95376 Y-56.25084
X33.95376 Y-56.20004
X33.92836 Y-56.17464
X33.90296 Y-56.09844
X33.87756 Y-56.02224
X33.85216 Y-55.94604
X33.82676 Y-55.86984
X33.80136 Y-55.84444
X33.80136 Y-55.79364
X33.77596 Y-55.76824
X33.75056 Y-55.69204
X33.72516 Y-55.66664
X33.69976 Y-55.59044
X33.67436 Y-55.56504
X33.64896 Y-55.48884
X33.62356 Y-55.46344
X33.59816 Y-55.38724
X33.54736 Y-55.33644
X33.52196 Y-55.26024
X33.47116 Y-55.20944
X33.42036 Y-55.13324
X33.39496 Y-55.05704
X33.31876 Y-54.98084
X33.24256 Y-54.87924
X33.16636 Y-54.77764
X32.98856 Y-54.57444
X32.68376 Y-54.26964
X32.48056 Y-54.09184
X32.37896 Y-54.01564
X32.27736 Y-53.93944
X32.17576 Y-53.86324
X32.09956 Y-53.83784
X32.04876 Y-53.78704
X31.97256 Y-53.73624
X31.89636 Y-53.71084
X31.84556 Y-53.66004
X31.76936 Y-53.63464
X31.74396 Y-53.60924
X31.66776 Y-53.58384
X31.64236 Y-53.55844
X31.56616 Y-53.53304
X31.54076 Y-53.50764
X31.46456 Y-53.48224
X31.43916 Y-53.45684
X31.38836 Y-53.45684
X31.36296 Y-53.43144
X31.28676 Y-53.40604
X31.21056 Y-53.38064
X31.13436 Y-53.35524
X31.05816 Y-53.32984
X31.03276 Y-53.30444
X30.98196 Y-53.30444
X30.95656 Y-53.27904
X30.88036 Y-53.27904
X30.85496 Y-53.25364
X30.77876 Y-53.25364
X30.75336 Y-53.22824
X30.67716 Y-53.22824
X30.65176 Y-53.20284
X30.57556 Y-53.20284
X30.55016 Y-53.17744
X30.42316 Y-53.17744
X30.39776 Y-53.15204
X30.24536 Y-53.15204
X30.21996 Y-53.12664
X29.99136 Y-53.12664
X29.96596 Y-53.10124
X28.54356 Y-53.10124
X28.51816 Y-53.12664
X28.28956 Y-53.12664
X28.26416 Y-53.15204
X28.11176 Y-53.15204
X28.08636 Y-53.17744
X27.95936 Y-53.17744
X27.93396 Y-53.20284
X27.85776 Y-53.20284
X27.83236 Y-53.22824
X27.75616 Y-53.22824
X27.73076 Y-53.25364
X27.65456 Y-53.25364
X27.62916 Y-53.27904
X27.55296 Y-53.27904
X27.52756 Y-53.30444
X27.47676 Y-53.30444
X27.45136 Y-53.32984
X27.37516 Y-53.35524
X27.29896 Y-53.38064
X27.22276 Y-53.40604
X27.14656 Y-53.43144
X27.12116 Y-53.45684
X27.04496 Y-53.48224
X27.01956 Y-53.50764
G04 P0 ( dwell for no time -- G64 should not smooth over this point )
G00 Z3.00000 ( retract )

G00 X4.00716 Y-53.50764 ( rapid move to begin. )
G01 Z-0.20000
G04 P0 ( dwell for no time -- G64 should not smooth over this point )
X4.00716 Y-53.50764
X3.95636 Y-53.50764
X3.93096 Y-53.53304
X3.85476 Y-53.55844
X3.82936 Y-53.58384
X3.75316 Y-53.60924
X3.72776 Y-53.63464
X3.65156 Y-53.66004
X3.60076 Y-53.71084
X3.52456 Y-53.76164
X3.44836 Y-53.78704
X3.39756 Y-53.83784
X3.32136 Y-53.86324
X3.24516 Y-53.93944
X3.14356 Y-54.01564
X3.04196 Y-54.09184
X2.83876 Y-54.26964
X2.53396 Y-54.57444
X2.35616 Y-54.77764
X2.27996 Y-54.87924
X2.20376 Y-54.98084
X2.12756 Y-55.08244
X2.10216 Y-55.15864
X2.05136 Y-55.20944
X2.02596 Y-55.28564
X1.97516 Y-55.33644
X1.92436 Y-55.41264
X1.89896 Y-55.48884
X1.87356 Y-55.51424
X1.84816 Y-55.59044
X1.82276 Y-55.61584
X1.79736 Y-55.69204
X1.77196 Y-55.71744
X1.74656 Y-55.79364
X1.72116 Y-55.86984
X1.69576 Y-55.89524
X1.67036 Y-55.97144
X1.64496 Y-56.04764
X1.61956 Y-56.12384
X1.59416 Y-56.20004
X1.56876 Y-56.22544
X1.56876 Y-56.30164
X1.54336 Y-56.32704
X1.54336 Y-56.37784
X1.51796 Y-56.40324
X1.51796 Y-56.47944
X1.49256 Y-56.50484
X1.49256 Y-56.58104
X1.46716 Y-56.60644
X1.46716 Y-56.68264
X1.44176 Y-56.70804
X1.44176 Y-56.83504
X1.41636 Y-56.86044
X1.41636 Y-57.01284
X1.39096 Y-57.03824
X1.39096 Y-57.26684
X1.36556 Y-57.29224
X1.36556 Y-58.71464
X1.39096 Y-58.74004
X1.39096 Y-58.96864
X1.41636 Y-58.99404
X1.41636 Y-59.14644
X1.44176 Y-59.17184
X1.44176 Y-59.29884
X1.46716 Y-59.32424
X1.46716 Y-59.40044
X1.49256 Y-59.42584
X1.49256 Y-59.50204
X1.51796 Y-59.52744
X1.51796 Y-59.60364
X1.54336 Y-59.62904
X1.54336 Y-59.67984
X1.56876 Y-59.70524
X1.56876 Y-59.78144
X1.59416 Y-59.80684
X1.61956 Y-59.88304
X1.64496 Y-59.95924
X1.67036 Y-60.03544
X1.69576 Y-60.06084
X1.69576 Y-60.11164
X1.72116 Y-60.13704
X1.74656 Y-60.21324
X1.77196 Y-60.28944
X1.79736 Y-60.31484
X1.82276 Y-60.39104
X1.84816 Y-60.41644
X1.87356 Y-60.49264
X1.89896 Y-60.51804
X1.92436 Y-60.59424
X1.97516 Y-60.64504
X2.02596 Y-60.72124
X2.05136 Y-60.79744
X2.10216 Y-60.84824
X2.12756 Y-60.92444
X2.20376 Y-61.00064
X2.27996 Y-61.10224
X2.35616 Y-61.20384
X2.53396 Y-61.40704
X2.83876 Y-61.71184
X3.04196 Y-61.88964
X3.14356 Y-61.96584
X3.24516 Y-62.04204
X3.34676 Y-62.11824
X3.42296 Y-62.14364
X3.47376 Y-62.19444
X3.54996 Y-62.21984
X3.60076 Y-62.27064
X3.67696 Y-62.32144
X3.75316 Y-62.34684
X3.77856 Y-62.37224
X3.85476 Y-62.39764
X3.88016 Y-62.42304
X3.95636 Y-62.44844
X3.98176 Y-62.47384
X4.05796 Y-62.49924
X4.13416 Y-62.52464
X4.15956 Y-62.55004
X4.23576 Y-62.57544
X4.31196 Y-62.60084
X4.38816 Y-62.62624
X4.46436 Y-62.65164
X4.48976 Y-62.67704
X4.56596 Y-62.67704
X4.59136 Y-62.70244
X4.64216 Y-62.70244
X4.66756 Y-62.72784
X7.86796 Y-62.72784
X7.89336 Y-62.70244
X7.96956 Y-62.70244
X7.99496 Y-62.67704
X8.04576 Y-62.67704
X8.07116 Y-62.65164
X8.14736 Y-62.62624
X8.22356 Y-62.60084
X8.29976 Y-62.57544
X8.37596 Y-62.55004
X8.40136 Y-62.52464
X8.45216 Y-62.52464
X8.47756 Y-62.49924
X8.55376 Y-62.47384
X8.57916 Y-62.44844
X8.65536 Y-62.42304
X8.68076 Y-62.39764
X8.75696 Y-62.37224
X8.78236 Y-62.34684
X8.85856 Y-62.32144
X8.90936 Y-62.27064
X8.98556 Y-62.24524
X9.03636 Y-62.19444
X9.11256 Y-62.14364
X9.18876 Y-62.11824
X9.26496 Y-62.04204
X9.36656 Y-61.96584
X9.46816 Y-61.88964
X9.67136 Y-61.71184
X9.97616 Y-61.40704
X10.15396 Y-61.20384
X10.23016 Y-61.10224
X10.30636 Y-61.00064
X10.38256 Y-60.89904
X10.40796 Y-60.82284
X10.45876 Y-60.77204
X10.50956 Y-60.69584
X10.53496 Y-60.61964
X10.58576 Y-60.56884
X10.61116 Y-60.49264
X10.63656 Y-60.46724
X10.66196 Y-60.39104
X10.68736 Y-60.36564
X10.71276 Y-60.28944
X10.73816 Y-60.26404
X10.76356 Y-60.18784
X10.78896 Y-60.16244
X10.78896 Y-60.11164
X10.81436 Y-60.08624
X10.83976 Y-60.01004
X10.86516 Y-59.93384
X10.89056 Y-59.85764
X10.91596 Y-59.78144
X10.94136 Y-59.75604
X10.94136 Y-59.70524
X10.96676 Y-59.67984
X10.96676 Y-59.60364
X10.99216 Y-59.57824
X10.99216 Y-59.50204
X11.01756 Y-59.47664
X11.01756 Y-59.40044
X11.04296 Y-59.37504
X11.04296 Y-59.29884
X11.06836 Y-59.27344
X11.06836 Y-59.14644
X11.09376 Y-59.12104
X11.09376 Y-58.96864
X11.11916 Y-58.94324
X11.11916 Y-58.71464
X11.14456 Y-58.68924
X11.14456 Y-57.26684
X11.11916 Y-57.24144
X11.11916 Y-57.01284
X11.09376 Y-56.98744
X11.09376 Y-56.83504
X11.06836 Y-56.80964
X11.06836 Y-56.68264
X11.04296 Y-56.65724
X11.04296 Y-56.58104
X11.01756 Y-56.55564
X11.01756 Y-56.47944
X10.99216 Y-56.45404
X10.99216 Y-56.37784
X10.96676 Y-56.35244
X10.96676 Y-56.27624
X10.94136 Y-56.25084
X10.94136 Y-56.20004
X10.91596 Y-56.17464
X10.89056 Y-56.09844
X10.86516 Y-56.02224
X10.83976 Y-55.94604
X10.81436 Y-55.86984
X10.78896 Y-55.84444
X10.78896 Y-55.79364
X10.76356 Y-55.76824
X10.73816 Y-55.69204
X10.71276 Y-55.66664
X10.68736 Y-55.59044
X10.66196 Y-55.56504
X10.63656 Y-55.48884
X10.61116 Y-55.46344
X10.58576 Y-55.38724
X10.53496 Y-55.33644
X10.50956 Y-55.26024
X10.45876 Y-55.20944
X10.40796 Y-55.13324
X10.38256 Y-55.05704
X10.30636 Y-54.98084
X10.23016 Y-54.87924
X10.15396 Y-54.77764
X9.97616 Y-54.57444
X9.67136 Y-54.26964
X9.46816 Y-54.09184
X9.36656 Y-54.01564
X9.26496 Y-53.93944
X9.16336 Y-53.86324
X9.08716 Y-53.83784
X9.03636 Y-53.78704
X8.96016 Y-53.73624
X8.88396 Y-53.71084
X8.83316 Y-53.66004
X8.75696 Y-53.63464
X8.73156 Y-53.60924
X8.65536 Y-53.58384
X8.62996 Y-53.55844
X8.55376 Y-53.53304
X8.52836 Y-53.50764
X8.45216 Y-53.48224
X8.42676 Y-53.45684
X8.37596 Y-53.45684
X8.35056 Y-53.43144
X8.27436 Y-53.40604
X8.19816 Y-53.38064
X8.12196 Y-53.35524
X8.04576 Y-53.32984
X8.02036 Y-53.30444
X7.96956 Y-53.30444
X7.94416 Y-53.27904
X7.86796 Y-53.27904
X7.84256 Y-53.25364
X7.76636 Y-53.25364
X7.74096 Y-53.22824
X7.66476 Y-53.22824
X7.63936 Y-53.20284
X7.56316 Y-53.20284
X7.53776 Y-53.17744
X7.41076 Y-53.17744
X7.38536 Y-53.15204
X7.23296 Y-53.15204
X7.20756 Y-53.12664
X6.97896 Y-53.12664
X6.95356 Y-53.10124
X5.53116 Y-53.10124
X5.50576 Y-53.12664
X5.27716 Y-53.12664
X5.25176 Y-53.15204
X5.09936 Y-53.15204
X5.07396 Y-53.17744
X4.94696 Y-53.17744
X4.92156 Y-53.20284
X4.84536 Y-53.20284
X4.81996 Y-53.22824
X4.74376 Y-53.22824
X4.71836 Y-53.25364
X4.64216 Y-53.25364
X4.61676 Y-53.27904
X4.54056 Y-53.27904
X4.51516 Y-53.30444
X4.46436 Y-53.30444
X4.43896 Y-53.32984
X4.36276 Y-53.35524
X4.28656 Y-53.38064
X4.21036 Y-53.40604
X4.13416 Y-53.43144
X4.10876 Y-53.45684
X4.03256 Y-53.48224
X4.00716 Y-53.50764

G04 P0 ( dwell for no time -- G64 should not smooth over this point )
G00 Z30.00000 ( retract )

M9 ( Coolant off. )
M2 ( Program end. )
