( pcb2gcode 1.1.5 )
      
G94     ( Millimeters per minute feed rate. )
G21     ( Units == Millimeters. )

G90     ( Absolute coordinates.        )
S20000  ( RPM spindle speed.           )
F200.00000
M3      ( Spindle on clockwise.        )

G64 P1.00000 ( set maximum deviation from commanded toolpath )

G04 P0 ( dwell for no time -- G64 should not smooth over this point )
G00 Z3.00000 ( retract )

G00 X-0.56134 Y0.06096 ( rapid move to begin. )
G01 Z-0.50000 F100.00000 ( plunge. )
G04 P0 ( dwell for no time -- G64 should not smooth over this point )
F200.00000
X-0.56134 Y0.06096
X-0.56134 Y-30.49892
Z-0.80000
X-0.56134 Y-33.49892
Z-0.50000
X-0.56134 Y-64.48044
X-0.48514 Y-64.50584
X15.99933 Y-64.50584
Z-0.80000
X18.99933 Y-64.50584
Z-0.50000
X35.50666 Y-64.50584
X35.53206 Y-64.42964
X35.53206 Y-33.49892
Z-0.80000
X35.53206 Y-30.49892
Z-0.50000
X35.53206 Y0.54356
X35.45586 Y0.56896
X18.99933 Y0.56896
Z-0.80000
X15.99933 Y0.56896
Z-0.50000
X-0.53594 Y0.56896
X-0.56134 Y0.49276
X-0.56134 Y0.06096
G01 Z-1.10000 F100.00000 ( plunge. )
G04 P0 ( dwell for no time -- G64 should not smooth over this point )
F200.00000
X-0.56134 Y0.06096
X-0.56134 Y-30.49892
Z-0.80000
X-0.56134 Y-33.49892
Z-1.10000
X-0.56134 Y-64.48044
X-0.48514 Y-64.50584
X15.99933 Y-64.50584
Z-0.80000
X18.99933 Y-64.50584
Z-1.10000
X35.50666 Y-64.50584
X35.53206 Y-64.42964
X35.53206 Y-33.49892
Z-0.80000
X35.53206 Y-30.49892
Z-1.10000
X35.53206 Y0.54356
X35.45586 Y0.56896
X18.99933 Y0.56896
Z-0.80000
X15.99933 Y0.56896
Z-1.10000
X-0.53594 Y0.56896
X-0.56134 Y0.49276
X-0.56134 Y0.06096
G01 Z-1.70000 F100.00000 ( plunge. )
G04 P0 ( dwell for no time -- G64 should not smooth over this point )
F200.00000
X-0.56134 Y0.06096
X-0.56134 Y-30.49892
Z-0.80000
X-0.56134 Y-33.49892
Z-1.70000
X-0.56134 Y-64.48044
X-0.48514 Y-64.50584
X15.99933 Y-64.50584
Z-0.80000
X18.99933 Y-64.50584
Z-1.70000
X35.50666 Y-64.50584
X35.53206 Y-64.42964
X35.53206 Y-33.49892
Z-0.80000
X35.53206 Y-30.49892
Z-1.70000
X35.53206 Y0.54356
X35.45586 Y0.56896
X18.99933 Y0.56896
Z-0.80000
X15.99933 Y0.56896
Z-1.70000
X-0.53594 Y0.56896
X-0.56134 Y0.49276
X-0.56134 Y0.06096

G04 P0 ( dwell for no time -- G64 should not smooth over this point )
G00 Z30.00000 ( retract )

M9 ( Coolant off. )
M2 ( Program end. )
