( pcb2gcode 2.5.0 )
( Software-independent Gcode )

G94 ( Millimeters per minute feed rate. )
G21 ( Units == Millimeters. )

G90 ( Absolute coordinates. )
G00 S20000 ( RPM spindle speed. )
G64 P0.05000 ( set maximum deviation from commanded toolpath )
G01 F400.00000 ( Feedrate. )


G00 Z30.00000 (Retract to tool change height)
T1
M5      (Spindle stop.)
G04 P1.00000 (Wait for spindle to stop)
(MSG, Change tool bit to mill diameter 1.00000mm)
M6      (Tool change.)
M0      (Temporary machine stop.)
M3 ( Spindle on clockwise. )
G04 P1.00000 (Wait for spindle to get up to speed)
G04 P0 ( dwell for no time -- G64 should not smooth over this point )
G00 Z3.50000 ( retract )

G00 X-6.75006 Y99.52658 ( rapid move to begin. )
G01 F200.00000
( Mill infeed pass 1/1 )
G01 Z-0.20000
G04 P0 ( dwell for no time -- G64 should not smooth over this point )
G01 F400.00000
G01 X-6.75006 Y99.52658
G01 X-6.92377 Y99.57928
G01 X-7.01988 Y99.59838
G01 X-7.21498 Y99.61761
G01 X-7.21630 Y99.61766
G01 X-7.26400 Y99.62002
G01 X-72.66900 Y99.62002
G01 X-72.71800 Y99.61761
G01 X-72.91309 Y99.59838
G01 X-73.00921 Y99.57928
G01 X-73.19681 Y99.52236
G01 X-73.28736 Y99.48484
G01 X-73.46026 Y99.39244
G01 X-73.54174 Y99.33798
G01 X-73.69328 Y99.21362
G01 X-73.72965 Y99.18068
G01 X-75.96531 Y96.94502
G01 X-77.21700 Y96.94502
G01 X-77.31453 Y96.93539
G01 X-77.40834 Y96.90695
G01 X-77.49477 Y96.86074
G01 X-77.57054 Y96.79856
G01 X-77.63272 Y96.72280
G01 X-77.67892 Y96.63636
G01 X-77.70737 Y96.54256
G01 X-77.71700 Y96.44502
G01 X-77.71700 Y95.19334
G01 X-81.60365 Y91.30668
G01 X-81.63660 Y91.27031
G01 X-81.76096 Y91.11877
G01 X-81.81541 Y91.03729
G01 X-81.90782 Y90.86439
G01 X-81.92494 Y90.82306
G01 X-81.93538 Y90.77079
G01 X-81.96443 Y90.57475
G01 X-81.97327 Y90.48542
G01 X-81.98290 Y90.28936
G01 X-81.98397 Y90.24600
G01 X-81.98397 Y84.02501
G01 X-81.98488 Y83.98508
G01 X-81.98569 Y83.96709
G01 X-81.99296 Y83.88693
G01 X-81.99540 Y83.86897
G01 X-82.01056 Y83.78597
G01 X-82.01470 Y83.76798
G01 X-82.02550 Y83.72534
G01 X-82.04300 Y83.66214
G01 X-82.04300 Y77.28095
G01 X-82.05057 Y77.20404
G01 X-82.05298 Y77.15502
G01 X-82.05295 Y68.58729
G01 X-82.03815 Y68.53860
G01 X-82.00111 Y68.39077
G01 X-81.98394 Y68.30467
G01 X-81.96202 Y68.15686
G01 X-81.95420 Y68.07749
G01 X-81.94691 Y67.92966
G01 X-81.94691 Y67.85237
G01 X-81.95420 Y67.70454
G01 X-81.96202 Y67.62519
G01 X-81.98394 Y67.47739
G01 X-82.00114 Y67.39121
G01 X-82.03815 Y67.24340
G01 X-82.05295 Y67.19471
G01 X-82.07955 Y67.15491
G01 X-82.17332 Y67.04066
G01 X-82.24264 Y66.97135
G01 X-82.35689 Y66.87757
G01 X-82.43840 Y66.82314
G01 X-82.50004 Y66.79017
G01 X-82.58102 Y66.77645
G04 P0 ( dwell for no time -- G64 should not smooth over this point )
G00 Z3.50000 ( retract )

G00 X-82.02118 Y66.34973 ( rapid move to begin. )
G01 F200.00000
( Mill infeed pass 1/1 )
G01 Z-0.20000
G04 P0 ( dwell for no time -- G64 should not smooth over this point )
G01 F400.00000
G01 X-82.02118 Y66.34973
G01 X-82.05298 Y66.46619
G01 X-82.05295 Y66.46624
G01 X-82.05295 Y67.19471
G04 P0 ( dwell for no time -- G64 should not smooth over this point )
G00 Z3.50000 ( retract )

G00 X-82.05295 Y68.58729 ( rapid move to begin. )
G01 F200.00000
( Mill infeed pass 1/1 )
G01 Z-0.20000
G04 P0 ( dwell for no time -- G64 should not smooth over this point )
G01 F400.00000
G01 X-82.05295 Y68.58729
G01 X-82.07955 Y68.62712
G01 X-82.17332 Y68.74137
G01 X-82.24264 Y68.81069
G01 X-82.35689 Y68.90444
G01 X-82.43840 Y68.95889
G01 X-82.48927 Y68.98610
G01 X-82.56875 Y69.02857
G01 X-82.65930 Y69.06608
G01 X-82.80076 Y69.10898
G01 X-82.89687 Y69.12811
G01 X-83.04399 Y69.14261
G01 X-83.14200 Y69.14261
G01 X-83.28910 Y69.12811
G01 X-83.38523 Y69.10898
G01 X-83.52666 Y69.06608
G01 X-83.61724 Y69.02857
G01 X-83.74759 Y68.95889
G01 X-83.82907 Y68.90444
G01 X-83.94335 Y68.81069
G01 X-84.01264 Y68.74137
G01 X-84.10642 Y68.62712
G01 X-84.16087 Y68.54561
G01 X-84.23055 Y68.41526
G01 X-84.26806 Y68.32471
G01 X-84.31096 Y68.18326
G01 X-84.33009 Y68.08712
G01 X-84.34457 Y67.94002
G01 X-84.34457 Y67.84201
G01 X-84.33009 Y67.69491
G01 X-84.31096 Y67.59878
G01 X-84.26806 Y67.45732
G01 X-84.23055 Y67.36677
G01 X-84.16087 Y67.23642
G01 X-84.10642 Y67.15491
G01 X-84.01264 Y67.04066
G01 X-83.94335 Y66.97135
G01 X-83.86456 Y66.90670
G04 P0 ( dwell for no time -- G64 should not smooth over this point )
G00 Z3.50000 ( retract )

G00 X-89.21293 Y68.58742 ( rapid move to begin. )
G01 F200.00000
( Mill infeed pass 1/1 )
G01 Z-0.20000
G04 P0 ( dwell for no time -- G64 should not smooth over this point )
G01 F400.00000
G01 X-89.21293 Y68.58742
G01 X-89.18642 Y68.62712
G01 X-89.09264 Y68.74137
G01 X-89.02335 Y68.81069
G01 X-88.90907 Y68.90444
G01 X-88.82759 Y68.95889
G01 X-88.69724 Y69.02857
G01 X-88.60666 Y69.06608
G01 X-88.46523 Y69.10898
G01 X-88.36910 Y69.12811
G01 X-88.22200 Y69.14261
G01 X-88.12399 Y69.14261
G01 X-87.97687 Y69.12811
G01 X-87.88076 Y69.10898
G01 X-87.73930 Y69.06608
G01 X-87.64875 Y69.02857
G01 X-87.51840 Y68.95889
G01 X-87.43689 Y68.90444
G01 X-87.32264 Y68.81069
G01 X-87.25332 Y68.74137
G01 X-87.15955 Y68.62712
G01 X-87.10509 Y68.54561
G01 X-87.03542 Y68.41526
G01 X-86.99790 Y68.32471
G01 X-86.95500 Y68.18326
G01 X-86.93588 Y68.08712
G01 X-86.92140 Y67.94002
G01 X-86.92140 Y67.84201
G01 X-86.93588 Y67.69491
G01 X-86.95500 Y67.59878
G01 X-86.99790 Y67.45732
G01 X-87.03542 Y67.36677
G01 X-87.06293 Y67.31531
G01 X-87.10509 Y67.23642
G01 X-87.15955 Y67.15491
G01 X-87.25332 Y67.04066
G01 X-87.32264 Y66.97135
G01 X-87.43689 Y66.87757
G01 X-87.51840 Y66.82314
G01 X-87.64875 Y66.75344
G01 X-87.73930 Y66.71595
G01 X-87.88076 Y66.67302
G01 X-87.97687 Y66.65390
G01 X-88.12399 Y66.63942
G01 X-88.22200 Y66.63942
G01 X-88.36910 Y66.65390
G01 X-88.46523 Y66.67302
G01 X-88.60666 Y66.71595
G01 X-88.69724 Y66.75344
G01 X-88.82759 Y66.82314
G01 X-88.90907 Y66.87757
G01 X-89.02335 Y66.97135
G01 X-89.09264 Y67.04066
G01 X-89.18642 Y67.15491
G01 X-89.24087 Y67.23642
G01 X-89.26782 Y67.28681
G04 P0 ( dwell for no time -- G64 should not smooth over this point )
G00 Z3.50000 ( retract )

G00 X-92.30333 Y69.09367 ( rapid move to begin. )
G01 F200.00000
( Mill infeed pass 1/1 )
G01 Z-0.20000
G04 P0 ( dwell for no time -- G64 should not smooth over this point )
G01 F400.00000
G01 X-92.30333 Y69.09367
G01 X-92.34668 Y69.14647
G01 X-92.40114 Y69.22798
G01 X-92.53975 Y69.48732
G01 X-92.57727 Y69.57787
G01 X-92.66261 Y69.85925
G01 X-92.68174 Y69.95539
G01 X-92.71057 Y70.24802
G01 X-92.71298 Y70.29702
G01 X-92.71298 Y76.18100
G01 X-96.73255 Y76.18100
G01 X-101.26676 Y71.64682
G01 X-101.30311 Y71.61386
G01 X-101.53041 Y71.42732
G01 X-101.61192 Y71.37286
G01 X-101.87125 Y71.23425
G01 X-101.96180 Y71.19674
G01 X-102.24319 Y71.11139
G01 X-102.33932 Y71.09227
G01 X-102.63196 Y71.06344
G01 X-102.68098 Y71.06102
G01 X-105.43500 Y71.06102
G01 X-105.48400 Y71.06344
G01 X-105.77663 Y71.09227
G01 X-105.87277 Y71.11139
G01 X-106.15415 Y71.19674
G01 X-106.24470 Y71.23425
G01 X-106.50404 Y71.37286
G01 X-106.58554 Y71.42732
G01 X-106.71163 Y71.53080
G01 X-145.99677 Y71.53080
G01 X-146.04576 Y71.53321
G01 X-146.33840 Y71.56204
G01 X-146.43454 Y71.58117
G01 X-146.71592 Y71.66651
G01 X-146.80647 Y71.70403
G01 X-147.06580 Y71.84263
G01 X-147.14731 Y71.89709
G01 X-147.37462 Y72.08363
G01 X-147.41096 Y72.11660
G01 X-149.95142 Y74.65700
G01 X-153.82766 Y74.65700
G01 X-156.25898 Y72.22569
G01 X-156.25895 Y47.54116
G04 P0 ( dwell for no time -- G64 should not smooth over this point )
G00 Z3.50000 ( retract )

G00 X-156.25895 Y45.82884 ( rapid move to begin. )
G01 F200.00000
( Mill infeed pass 1/1 )
G01 Z-0.20000
G04 P0 ( dwell for no time -- G64 should not smooth over this point )
G01 F400.00000
G01 X-156.25895 Y45.82884
G01 X-156.25898 Y43.50098
G01 X-156.35796 Y43.10502
G01 X-156.35796 Y40.10503
G01 X-156.25898 Y39.70907
G01 X-156.23477 Y39.68928
G01 X-156.14834 Y39.64308
G01 X-156.05453 Y39.61463
G01 X-155.95700 Y39.60500
G01 X-152.95698 Y39.60500
G01 X-152.85944 Y39.61463
G01 X-152.76564 Y39.64308
G01 X-152.67920 Y39.68928
G01 X-152.60343 Y39.75146
G01 X-152.54126 Y39.82723
G01 X-152.49505 Y39.91366
G01 X-152.46661 Y40.00747
G01 X-152.45698 Y40.10500
G01 X-148.85787 Y40.10503
G01 X-148.70761 Y40.14267
G01 X-148.61871 Y40.16040
G01 X-148.42267 Y40.18946
G01 X-148.34205 Y40.19743
G01 X-148.14601 Y40.20706
G01 X-148.10700 Y40.20803
G01 X-145.56700 Y40.20803
G01 X-145.52796 Y40.20899
G01 X-145.42062 Y40.21427
G01 X-145.33545 Y40.25453
G01 X-145.27030 Y40.28931
G01 X-145.09695 Y40.39319
G01 X-145.04787 Y40.42596
G01 X-144.88872 Y40.54399
G01 X-144.84945 Y40.57622
G01 X-144.70401 Y40.70802
G01 X-144.68659 Y40.72464
G01 X-144.44978 Y40.96141
G01 X-144.43236 Y40.97803
G01 X-144.28692 Y41.10983
G01 X-144.24765 Y41.14206
G01 X-144.08849 Y41.26009
G01 X-144.03942 Y41.29286
G01 X-143.86606 Y41.39675
G01 X-143.80091 Y41.43152
G01 X-143.61272 Y41.52052
G01 X-143.56942 Y41.53972
G01 X-143.46965 Y41.58105
G01 X-134.64500 Y41.58102
G01 X-134.59598 Y41.57861
G01 X-134.40088 Y41.55938
G01 X-134.30477 Y41.54028
G01 X-134.11716 Y41.48336
G01 X-134.02661 Y41.44584
G01 X-133.85371 Y41.35344
G01 X-133.77223 Y41.29898
G01 X-133.62069 Y41.17462
G01 X-133.58432 Y41.14168
G01 X-128.12332 Y35.68068
G01 X-128.09038 Y35.64431
G01 X-127.96602 Y35.49277
G01 X-127.91156 Y35.41129
G01 X-127.81916 Y35.23839
G01 X-127.78164 Y35.14784
G01 X-127.72472 Y34.96023
G01 X-127.70562 Y34.86412
G01 X-127.68639 Y34.66902
G01 X-127.68398 Y34.62000
G01 X-127.68398 Y32.28531
G01 X-127.63856 Y32.21731
G01 X-127.62099 Y32.18444
G01 X-127.54613 Y32.04444
G01 X-127.50862 Y31.95386
G01 X-127.45172 Y31.76626
G01 X-127.43259 Y31.67012
G01 X-127.41337 Y31.47502
G01 X-127.41095 Y31.42600
G01 X-127.41095 Y27.45827
G01 X-127.31517 Y27.27907
G01 X-127.27768 Y27.18852
G01 X-127.20653 Y26.95403
G01 X-127.18741 Y26.85789
G01 X-127.16340 Y26.61402
G01 X-127.16340 Y26.51600
G01 X-127.18741 Y26.27214
G01 X-127.20653 Y26.17600
G01 X-127.27768 Y25.94151
G01 X-127.31517 Y25.85095
G01 X-127.43069 Y25.63485
G01 X-127.48515 Y25.55334
G01 X-127.64059 Y25.36394
G01 X-127.70991 Y25.29462
G01 X-127.89932 Y25.13917
G01 X-127.98083 Y25.08471
G01 X-128.19693 Y24.96919
G01 X-128.28748 Y24.93170
G01 X-128.52197 Y24.86056
G01 X-128.61811 Y24.84143
G01 X-128.86198 Y24.81743
G01 X-128.96000 Y24.81743
G01 X-129.20386 Y24.84143
G01 X-129.30000 Y24.86056
G01 X-129.53449 Y24.93170
G01 X-129.62505 Y24.96919
G01 X-129.84115 Y25.08471
G01 X-129.92266 Y25.13917
G01 X-130.11207 Y25.29462
G01 X-130.18138 Y25.36394
G01 X-130.33683 Y25.55334
G01 X-130.39129 Y25.63485
G01 X-130.50681 Y25.85095
G01 X-130.54430 Y25.94151
G01 X-130.61544 Y26.17600
G01 X-130.63457 Y26.27214
G01 X-130.65857 Y26.51600
G01 X-130.65857 Y26.61402
G01 X-130.63457 Y26.85789
G01 X-130.61544 Y26.95403
G01 X-130.54430 Y27.18852
G01 X-130.50681 Y27.27907
G01 X-130.41097 Y27.45837
G01 X-130.41097 Y30.25613
G01 X-130.46177 Y30.28328
G01 X-130.53754 Y30.34546
G01 X-130.59972 Y30.42123
G01 X-130.64592 Y30.50766
G01 X-130.67437 Y30.60147
G01 X-130.68400 Y30.69900
G01 X-130.68400 Y33.99869
G01 X-135.26631 Y38.58100
G01 X-136.70098 Y38.58100
G01 X-136.70098 Y37.54100
G01 X-136.70339 Y37.49200
G01 X-136.72262 Y37.29691
G01 X-136.74172 Y37.20079
G01 X-136.79864 Y37.01319
G01 X-136.83616 Y36.92264
G01 X-136.92856 Y36.74974
G01 X-136.98302 Y36.66826
G01 X-137.10738 Y36.51672
G01 X-137.17669 Y36.44740
G01 X-137.32823 Y36.32304
G01 X-137.40971 Y36.26859
G01 X-137.58261 Y36.17618
G01 X-137.67316 Y36.13867
G01 X-137.86077 Y36.08174
G01 X-137.95688 Y36.06264
G01 X-138.15198 Y36.04342
G01 X-138.25000 Y36.04342
G01 X-138.44509 Y36.06264
G01 X-138.54121 Y36.08174
G01 X-138.72881 Y36.13867
G01 X-138.81936 Y36.17618
G01 X-138.99226 Y36.26859
G01 X-139.07374 Y36.32304
G01 X-139.22528 Y36.44740
G01 X-139.29460 Y36.51672
G01 X-139.41896 Y36.66826
G01 X-139.47341 Y36.74974
G01 X-139.56582 Y36.92264
G01 X-139.60333 Y37.01319
G01 X-139.66026 Y37.20079
G01 X-139.67936 Y37.29691
G01 X-139.69858 Y37.49200
G01 X-139.70100 Y37.54100
G01 X-139.70100 Y38.58100
G01 X-142.50506 Y38.58100
G04 P0 ( dwell for no time -- G64 should not smooth over this point )
G00 Z3.50000 ( retract )

G00 X-144.51503 Y37.40402 ( rapid move to begin. )
G01 F200.00000
( Mill infeed pass 1/1 )
G01 Z-0.20000
G04 P0 ( dwell for no time -- G64 should not smooth over this point )
G01 F400.00000
G01 X-144.51503 Y37.40402
G01 X-144.56154 Y37.33935
G01 X-144.59530 Y37.33264
G01 X-144.79039 Y37.31342
G01 X-144.83942 Y37.31100
G01 X-147.48567 Y37.31100
G01 X-149.71037 Y35.08632
G01 X-149.71393 Y35.08398
G01 X-149.54431 Y35.19539
G01 X-149.45853 Y35.22140
G01 X-149.36100 Y35.23102
G01 X-147.36098 Y35.23102
G01 X-147.26344 Y35.22140
G01 X-147.16964 Y35.19295
G01 X-147.08320 Y35.14675
G01 X-147.00743 Y35.08457
G01 X-146.94525 Y35.00880
G01 X-146.89905 Y34.92236
G01 X-146.87060 Y34.82856
G01 X-146.86098 Y34.73102
G01 X-146.86098 Y30.42900
G01 X-146.86339 Y30.38000
G01 X-146.88262 Y30.18491
G01 X-146.90172 Y30.08879
G01 X-146.95864 Y29.90119
G01 X-146.99616 Y29.81064
G01 X-147.08856 Y29.63774
G01 X-147.14302 Y29.55626
G01 X-147.26738 Y29.40472
G01 X-147.30032 Y29.36835
G01 X-150.34832 Y26.32035
G01 X-150.38469 Y26.28740
G01 X-150.53623 Y26.16304
G01 X-150.61771 Y26.10859
G01 X-150.79061 Y26.01618
G01 X-150.88116 Y25.97867
G01 X-151.06877 Y25.92174
G01 X-151.16488 Y25.90264
G01 X-151.35998 Y25.88342
G01 X-151.40900 Y25.88100
G01 X-153.14352 Y25.88100
G01 X-153.30643 Y25.74730
G01 X-153.38794 Y25.69284
G01 X-153.64727 Y25.55423
G01 X-153.73782 Y25.51672
G01 X-154.01921 Y25.43137
G01 X-154.11534 Y25.41225
G01 X-154.40798 Y25.38342
G01 X-154.50600 Y25.38342
G01 X-154.79863 Y25.41225
G01 X-154.89477 Y25.43137
G01 X-155.17615 Y25.51672
G01 X-155.26670 Y25.55423
G01 X-155.52604 Y25.69284
G01 X-155.60754 Y25.74730
G01 X-155.83485 Y25.93384
G01 X-155.90416 Y26.00315
G01 X-156.09070 Y26.23046
G01 X-156.14516 Y26.31196
G01 X-156.28377 Y26.57130
G01 X-156.32128 Y26.66185
G01 X-156.40663 Y26.94323
G01 X-156.42575 Y27.03937
G01 X-156.45458 Y27.33200
G01 X-156.45458 Y27.43002
G01 X-156.42575 Y27.72266
G01 X-156.40663 Y27.81879
G01 X-156.32128 Y28.10018
G01 X-156.28377 Y28.19073
G01 X-156.14516 Y28.45006
G01 X-156.09070 Y28.53157
G01 X-155.90416 Y28.75887
G01 X-155.83485 Y28.82819
G01 X-155.60754 Y29.01473
G01 X-155.52604 Y29.06919
G01 X-155.26670 Y29.20779
G01 X-155.17615 Y29.24531
G01 X-154.89477 Y29.33065
G01 X-154.79863 Y29.34978
G01 X-154.50600 Y29.37861
G01 X-154.40798 Y29.37861
G01 X-154.11534 Y29.34978
G01 X-154.01921 Y29.33065
G01 X-153.73782 Y29.24531
G01 X-153.64727 Y29.20779
G01 X-153.38794 Y29.06919
G01 X-153.30643 Y29.01473
G01 X-153.14352 Y28.88102
G01 X-152.03031 Y28.88102
G01 X-149.86100 Y31.05033
G01 X-149.86100 Y34.73102
G01 X-149.85137 Y34.82856
G01 X-149.82536 Y34.91431
G01 X-149.71393 Y35.08398
G01 X-149.71627 Y35.08043
G01 X-152.46757 Y32.32912
G01 X-152.48822 Y32.11937
G01 X-152.50735 Y32.02323
G01 X-152.59269 Y31.74185
G01 X-152.63021 Y31.65130
G01 X-152.76881 Y31.39196
G01 X-152.82327 Y31.31046
G01 X-153.00981 Y31.08315
G01 X-153.07913 Y31.01384
G01 X-153.30643 Y30.82730
G01 X-153.38794 Y30.77284
G01 X-153.64727 Y30.63423
G01 X-153.73782 Y30.59672
G01 X-154.01921 Y30.51137
G01 X-154.11534 Y30.49225
G01 X-154.40798 Y30.46342
G01 X-154.50600 Y30.46342
G01 X-154.79863 Y30.49225
G01 X-154.89477 Y30.51137
G01 X-155.17615 Y30.59672
G01 X-155.26670 Y30.63423
G01 X-155.52604 Y30.77284
G01 X-155.60754 Y30.82730
G01 X-155.77046 Y30.96100
G01 X-157.63200 Y30.96100
G01 X-157.64798 Y30.96179
G01 X-157.64798 Y15.95433
G01 X-157.64795 Y15.08448
G04 P0 ( dwell for no time -- G64 should not smooth over this point )
G00 Z3.50000 ( retract )

G00 X-157.62255 Y13.50742 ( rapid move to begin. )
G01 F200.00000
( Mill infeed pass 1/1 )
G01 Z-0.20000
G04 P0 ( dwell for no time -- G64 should not smooth over this point )
G01 F400.00000
G01 X-157.62255 Y13.50742
G01 X-157.62258 Y13.31722
G01 X-157.33038 Y13.02505
G01 X-157.31089 Y13.02505
G04 P0 ( dwell for no time -- G64 should not smooth over this point )
G00 Z3.50000 ( retract )

G00 X-152.62449 Y4.89021 ( rapid move to begin. )
G01 F200.00000
( Mill infeed pass 1/1 )
G01 Z-0.20000
G04 P0 ( dwell for no time -- G64 should not smooth over this point )
G01 F400.00000
G01 X-152.62449 Y4.89021
G01 X-152.62449 Y5.15984
G01 X-152.65467 Y5.42775
G01 X-152.71466 Y5.69062
G01 X-152.80371 Y5.94513
G01 X-152.92068 Y6.18800
G01 X-153.06414 Y6.41630
G01 X-153.23226 Y6.62712
G01 X-153.42289 Y6.81774
G01 X-153.63371 Y6.98587
G01 X-153.86198 Y7.12933
G01 X-154.10488 Y7.24629
G01 X-154.35939 Y7.33535
G01 X-154.62223 Y7.39534
G01 X-154.89017 Y7.42552
G01 X-155.15979 Y7.42552
G01 X-155.42771 Y7.39534
G01 X-155.69058 Y7.33535
G01 X-155.83967 Y7.28317
G01 X-155.94503 Y7.24629
G01 X-156.18796 Y7.12933
G01 X-156.41625 Y6.98587
G01 X-156.62707 Y6.81774
G01 X-156.81770 Y6.62712
G01 X-156.98582 Y6.41632
G01 X-157.12923 Y6.18803
G01 X-157.24625 Y5.94510
G01 X-157.33530 Y5.69059
G01 X-157.39530 Y5.42775
G01 X-157.42547 Y5.15984
G01 X-157.42547 Y4.89021
G01 X-157.39530 Y4.62230
G01 X-157.33530 Y4.35946
G01 X-157.24625 Y4.10495
G01 X-157.12923 Y3.86202
G01 X-156.98582 Y3.63373
G01 X-156.81770 Y3.42293
G01 X-156.62707 Y3.23231
G01 X-156.41625 Y3.06418
G01 X-156.18796 Y2.92072
G01 X-155.94506 Y2.80376
G01 X-155.69055 Y2.71470
G01 X-155.48819 Y2.66850
G01 X-155.42774 Y2.65471
G01 X-155.15979 Y2.62453
G01 X-154.89017 Y2.62453
G01 X-154.62223 Y2.65471
G01 X-154.35936 Y2.71470
G01 X-154.10488 Y2.80376
G01 X-153.86198 Y2.92072
G01 X-153.63368 Y3.06418
G01 X-153.42289 Y3.23231
G01 X-153.23224 Y3.42293
G01 X-153.06414 Y3.63373
G01 X-152.92068 Y3.86205
G01 X-152.80369 Y4.10497
G01 X-152.78118 Y4.16926
G01 X-152.76013 Y4.22951
G01 X-152.71466 Y4.35943
G01 X-152.65467 Y4.62230
G01 X-152.62449 Y4.89021
G04 P0 ( dwell for no time -- G64 should not smooth over this point )
G00 Z3.50000 ( retract )

G00 X-154.28941 Y13.02505 ( rapid move to begin. )
G01 F200.00000
( Mill infeed pass 1/1 )
G01 Z-0.20000
G04 P0 ( dwell for no time -- G64 should not smooth over this point )
G01 F400.00000
G01 X-154.28941 Y13.02505
G01 X-154.16647 Y13.17486
G01 X-154.11202 Y13.25636
G01 X-153.97341 Y13.51570
G01 X-153.93589 Y13.60625
G01 X-153.85055 Y13.88763
G01 X-153.83142 Y13.98377
G01 X-153.81075 Y14.19352
G01 X-153.39632 Y14.60798
G01 X-153.36338 Y14.64432
G01 X-153.23899 Y14.79586
G01 X-153.18456 Y14.87737
G01 X-153.09216 Y15.05024
G01 X-153.05464 Y15.14079
G01 X-152.99772 Y15.32840
G01 X-152.97862 Y15.42451
G01 X-152.95939 Y15.61961
G01 X-152.95698 Y15.66860
G01 X-152.95698 Y19.53100
G01 X-148.36100 Y19.53100
G01 X-148.31198 Y19.53342
G01 X-148.11688 Y19.55264
G01 X-148.02077 Y19.57174
G01 X-147.83316 Y19.62867
G01 X-147.74261 Y19.66618
G01 X-147.56971 Y19.75859
G01 X-147.48823 Y19.81304
G01 X-147.33669 Y19.93740
G01 X-147.26738 Y20.00672
G01 X-147.14302 Y20.15826
G01 X-147.08856 Y20.23974
G01 X-146.99616 Y20.41264
G01 X-146.95864 Y20.50319
G01 X-146.90172 Y20.69079
G01 X-146.88262 Y20.78691
G01 X-146.86339 Y20.98200
G01 X-146.86339 Y21.08002
G01 X-146.88262 Y21.27512
G01 X-146.90172 Y21.37123
G01 X-146.95864 Y21.55884
G01 X-146.99616 Y21.64939
G01 X-147.08856 Y21.82229
G01 X-147.14302 Y21.90377
G01 X-147.26738 Y22.05531
G01 X-147.33669 Y22.12462
G01 X-147.48823 Y22.24898
G01 X-147.56971 Y22.30344
G01 X-147.74261 Y22.39584
G01 X-147.83316 Y22.43336
G01 X-148.02077 Y22.49028
G01 X-148.11688 Y22.50938
G01 X-148.31198 Y22.52861
G01 X-148.36100 Y22.53102
G01 X-152.45698 Y22.53102
G01 X-152.45698 Y23.80102
G01 X-152.46661 Y23.89856
G01 X-152.49505 Y23.99236
G01 X-152.54126 Y24.07880
G01 X-152.60343 Y24.15457
G01 X-152.67920 Y24.21674
G01 X-152.76564 Y24.26295
G01 X-152.85944 Y24.29139
G01 X-152.95698 Y24.30102
G01 X-155.95700 Y24.30102
G01 X-156.05453 Y24.29139
G01 X-156.14834 Y24.26295
G01 X-156.23477 Y24.21674
G01 X-156.31054 Y24.15457
G01 X-156.37272 Y24.07880
G01 X-156.41892 Y23.99236
G01 X-156.44737 Y23.89856
G01 X-156.45700 Y23.80102
G01 X-156.45700 Y20.80100
G01 X-156.44737 Y20.70347
G01 X-156.41892 Y20.60966
G01 X-156.37272 Y20.52323
G01 X-156.31054 Y20.44746
G01 X-156.23477 Y20.38528
G01 X-156.14834 Y20.33908
G01 X-156.05453 Y20.31063
G01 X-155.95700 Y20.30100
G01 X-155.95700 Y16.31239
G01 X-156.14183 Y16.29418
G01 X-156.23797 Y16.27505
G01 X-156.51935 Y16.18971
G01 X-156.60990 Y16.15219
G01 X-156.86924 Y16.01359
G01 X-156.95075 Y15.95913
G01 X-157.17805 Y15.77259
G01 X-157.24734 Y15.70327
G01 X-157.43391 Y15.47597
G01 X-157.48836 Y15.39446
G01 X-157.62697 Y15.13513
G01 X-157.64795 Y15.08448
G01 X-157.65638 Y15.04216
G01 X-157.70002 Y14.74813
G01 X-157.70861 Y14.66114
G01 X-157.72306 Y14.36706
G01 X-157.72306 Y14.28374
G01 X-157.72136 Y14.24905
G01 X-157.71087 Y14.17569
G01 X-157.70124 Y14.07813
G01 X-157.69817 Y14.03658
G01 X-157.69593 Y13.99096
G01 X-157.68760 Y13.90650
G01 X-157.64396 Y13.61245
G01 X-157.62489 Y13.51682
G01 X-157.62255 Y13.50742
G01 X-157.48836 Y13.25636
G01 X-157.43391 Y13.17486
G01 X-157.31089 Y13.02505
G01 X-157.21069 Y12.97765
G01 X-157.12550 Y12.94227
G01 X-156.83147 Y12.83704
G01 X-156.77208 Y12.81900
G01 X-156.47803 Y12.74534
G01 X-156.43571 Y12.73691
G01 X-156.14163 Y12.69327
G01 X-156.10897 Y12.69005
G01 X-155.81493 Y12.67559
G01 X-155.78539 Y12.67559
G01 X-155.49136 Y12.69005
G01 X-155.45870 Y12.69327
G01 X-155.16464 Y12.73691
G01 X-155.12233 Y12.74534
G01 X-154.82827 Y12.81900
G01 X-154.76889 Y12.83704
G01 X-154.47486 Y12.94227
G01 X-154.38966 Y12.97765
G01 X-154.28941 Y13.02505
G01 X-138.33031 Y13.02505
G04 P0 ( dwell for no time -- G64 should not smooth over this point )
G00 Z3.50000 ( retract )

G00 X-136.31929 Y12.82540 ( rapid move to begin. )
G01 F200.00000
( Mill infeed pass 1/1 )
G01 Z-0.20000
G04 P0 ( dwell for no time -- G64 should not smooth over this point )
G01 F400.00000
G01 X-136.31929 Y12.82540
G01 X-134.51366 Y12.82540
G01 X-134.35074 Y12.69170
G01 X-134.26923 Y12.63724
G01 X-134.00990 Y12.49863
G01 X-133.91935 Y12.46112
G01 X-133.63797 Y12.37577
G01 X-133.54183 Y12.35665
G01 X-133.24919 Y12.32782
G01 X-133.15118 Y12.32782
G01 X-132.85854 Y12.35665
G01 X-132.76240 Y12.37577
G01 X-132.48102 Y12.46112
G01 X-132.39047 Y12.49863
G01 X-132.13114 Y12.63724
G01 X-132.04963 Y12.69170
G01 X-131.82232 Y12.87824
G01 X-131.75303 Y12.94755
G01 X-131.56647 Y13.17486
G01 X-131.51201 Y13.25636
G01 X-131.37340 Y13.51570
G01 X-131.33589 Y13.60625
G01 X-131.25054 Y13.88763
G01 X-131.23142 Y13.98377
G01 X-131.20259 Y14.27640
G01 X-131.20259 Y14.37442
G01 X-131.23142 Y14.66706
G01 X-131.25054 Y14.76319
G01 X-131.33589 Y15.04458
G01 X-131.37340 Y15.13513
G01 X-131.51201 Y15.39446
G01 X-131.56647 Y15.47597
G01 X-131.75303 Y15.70327
G01 X-131.82232 Y15.77259
G01 X-132.04963 Y15.95913
G01 X-132.13114 Y16.01359
G01 X-132.39047 Y16.15219
G01 X-132.48102 Y16.18971
G01 X-132.76240 Y16.27505
G01 X-132.85854 Y16.29418
G01 X-133.15118 Y16.32301
G01 X-133.24919 Y16.32301
G01 X-133.54183 Y16.29418
G01 X-133.63797 Y16.27505
G01 X-133.91935 Y16.18971
G01 X-134.00990 Y16.15219
G01 X-134.26923 Y16.01359
G01 X-134.35074 Y15.95913
G01 X-134.51366 Y15.82542
G01 X-136.97007 Y15.82542
G01 X-139.24098 Y18.09633
G01 X-139.24098 Y20.90121
G04 P0 ( dwell for no time -- G64 should not smooth over this point )
G00 Z3.50000 ( retract )

G00 X-139.65093 Y23.39775 ( rapid move to begin. )
G01 F200.00000
( Mill infeed pass 1/1 )
G01 Z-0.20000
G04 P0 ( dwell for no time -- G64 should not smooth over this point )
G01 F400.00000
G01 X-139.65093 Y23.39775
G01 X-139.65096 Y23.39775
G04 P0 ( dwell for no time -- G64 should not smooth over this point )
G00 Z3.50000 ( retract )

G00 X-139.64984 Y23.39437 ( rapid move to begin. )
G01 F200.00000
( Mill infeed pass 1/1 )
G01 Z-0.20000
G04 P0 ( dwell for no time -- G64 should not smooth over this point )
G01 F400.00000
G01 X-139.64984 Y23.39437
G01 X-139.65093 Y23.39775
G01 X-139.64387 Y23.46955
G01 X-139.61542 Y23.56335
G01 X-139.56922 Y23.64979
G01 X-139.50704 Y23.72556
G01 X-139.43127 Y23.78774
G01 X-139.34484 Y23.83394
G01 X-139.25104 Y23.86241
G01 X-139.20100 Y23.86734
G01 X-139.20100 Y26.55639
G01 X-139.25266 Y26.61936
G01 X-139.30712 Y26.70086
G01 X-139.38106 Y26.83917
G01 X-139.41855 Y26.92972
G01 X-139.46409 Y27.07981
G01 X-139.48322 Y27.17592
G01 X-139.49119 Y27.25700
G01 X-143.98809 Y31.75391
G01 X-144.02105 Y31.79026
G01 X-144.08323 Y31.86603
G01 X-144.13769 Y31.94754
G01 X-144.18389 Y32.03398
G01 X-144.22141 Y32.12453
G01 X-144.24986 Y32.21833
G01 X-144.26898 Y32.31447
G01 X-144.27858 Y32.41200
G01 X-144.28100 Y32.46100
G01 X-144.28100 Y36.71639
G01 X-144.33266 Y36.77936
G01 X-144.38712 Y36.86086
G01 X-144.46106 Y36.99917
G01 X-144.49855 Y37.08972
G01 X-144.54409 Y37.23981
G01 X-144.56322 Y37.33592
G01 X-144.56329 Y37.33689
G01 X-144.51503 Y37.40402
G01 X-144.44767 Y37.50486
G01 X-144.39786 Y37.57227
G01 X-144.37109 Y37.60486
G01 X-144.33312 Y37.65591
G01 X-144.29075 Y37.71931
G01 X-144.26291 Y37.75693
G01 X-144.20353 Y37.82929
G01 X-144.18308 Y37.85680
G01 X-144.16098 Y37.88992
G01 X-144.14369 Y37.91324
G01 X-144.05974 Y38.01555
G01 X-144.05280 Y38.02444
G01 X-144.04323 Y38.03737
G01 X-144.02961 Y38.05395
G01 X-143.92415 Y38.17031
G01 X-143.91026 Y38.18420
G01 X-143.79390 Y38.28967
G01 X-143.77732 Y38.30328
G01 X-143.64996 Y38.39772
G01 X-143.62735 Y38.41278
G01 X-143.48867 Y38.49591
G01 X-143.45557 Y38.51357
G01 X-143.30503 Y38.58479
G01 X-143.25491 Y38.60549
G01 X-143.09154 Y38.66393
G01 X-143.01534 Y38.68695
G01 X-142.99416 Y38.69226
G01 X-142.85606 Y38.67176
G01 X-142.77422 Y38.65545
G01 X-142.61742 Y38.61618
G01 X-142.52352 Y38.58761
G01 X-142.50506 Y38.58100
G01 X-142.39810 Y38.49320
G01 X-142.32880 Y38.42390
G01 X-142.22931 Y38.30267
G01 X-142.17486 Y38.22116
G01 X-142.10092 Y38.08286
G01 X-142.06343 Y37.99231
G01 X-142.01788 Y37.84222
G01 X-141.99876 Y37.74611
G01 X-141.98339 Y37.59002
G01 X-141.98339 Y37.49200
G01 X-141.99876 Y37.33592
G01 X-142.01788 Y37.23981
G01 X-142.06343 Y37.08972
G01 X-142.10092 Y36.99917
G01 X-142.17486 Y36.86086
G01 X-142.22931 Y36.77936
G01 X-142.28098 Y36.71639
G01 X-142.28098 Y32.87522
G01 X-138.07697 Y28.67122
G01 X-137.99589 Y28.66324
G01 X-137.89978 Y28.64412
G01 X-137.74969 Y28.59857
G01 X-137.65914 Y28.56108
G01 X-137.52084 Y28.48714
G01 X-137.43933 Y28.43269
G01 X-137.31810 Y28.33320
G01 X-137.24880 Y28.26390
G01 X-137.14931 Y28.14267
G01 X-137.09486 Y28.06116
G01 X-137.02092 Y27.92286
G01 X-136.98343 Y27.83231
G01 X-136.93788 Y27.68222
G01 X-136.91876 Y27.58611
G01 X-136.90339 Y27.43002
G01 X-136.90339 Y27.33200
G01 X-136.91876 Y27.17592
G01 X-136.93788 Y27.07981
G01 X-136.98343 Y26.92972
G01 X-137.02092 Y26.83917
G01 X-137.09486 Y26.70086
G01 X-137.14931 Y26.61936
G01 X-137.20098 Y26.55639
G01 X-137.20098 Y23.86734
G01 X-137.15094 Y23.86241
G01 X-137.05714 Y23.83394
G01 X-136.97070 Y23.78774
G01 X-136.89493 Y23.72556
G01 X-136.83275 Y23.64979
G01 X-136.78655 Y23.56335
G01 X-136.75810 Y23.46955
G01 X-136.74850 Y23.37204
G01 X-128.25718 Y23.37204
G01 X-127.13600 Y24.49322
G01 X-127.13600 Y33.60400
G01 X-127.13358 Y33.65302
G01 X-127.12398 Y33.75056
G01 X-127.10486 Y33.84670
G01 X-127.07641 Y33.94050
G01 X-127.07202 Y33.95109
G01 X-127.03889 Y34.03105
G01 X-126.99269 Y34.11749
G01 X-126.93823 Y34.19900
G01 X-126.87605 Y34.27476
G01 X-126.84309 Y34.31111
G01 X-124.42208 Y36.73211
G01 X-124.38574 Y36.76508
G01 X-124.30997 Y36.82726
G01 X-124.22846 Y36.88172
G01 X-124.14202 Y36.92792
G01 X-124.05147 Y36.96544
G01 X-123.95767 Y36.99388
G01 X-123.86153 Y37.01301
G01 X-123.76400 Y37.02261
G01 X-123.71500 Y37.02502
G01 X-114.58812 Y37.02502
G04 P0 ( dwell for no time -- G64 should not smooth over this point )
G00 Z3.50000 ( retract )

G00 X-111.49557 Y38.52507 ( rapid move to begin. )
G01 F200.00000
( Mill infeed pass 1/1 )
G01 Z-0.20000
G04 P0 ( dwell for no time -- G64 should not smooth over this point )
G01 F400.00000
G01 X-111.49557 Y38.52507
G01 X-111.45602 Y38.57326
G01 X-111.40156 Y38.65474
G01 X-111.30916 Y38.82764
G01 X-111.27164 Y38.91819
G01 X-111.26506 Y38.93988
G01 X-111.21472 Y39.10579
G01 X-111.19562 Y39.20191
G01 X-111.17639 Y39.39700
G01 X-111.17639 Y39.49502
G01 X-111.19562 Y39.69012
G01 X-111.21472 Y39.78623
G01 X-111.27164 Y39.97384
G01 X-111.30916 Y40.06439
G01 X-111.32658 Y40.09700
G01 X-110.06466 Y40.09700
G01 X-110.05506 Y39.99947
G01 X-110.02661 Y39.90566
G01 X-109.98041 Y39.81923
G01 X-109.91823 Y39.74346
G01 X-109.84246 Y39.68128
G01 X-109.75600 Y39.63508
G01 X-109.66222 Y39.60663
G01 X-109.56466 Y39.59700
G01 X-107.56466 Y39.59700
G01 X-107.46713 Y39.60663
G01 X-107.37332 Y39.63508
G01 X-107.28689 Y39.68128
G01 X-107.21112 Y39.74346
G01 X-107.14894 Y39.81923
G01 X-107.10271 Y39.90566
G01 X-107.07427 Y39.99947
G01 X-107.06466 Y40.09700
G01 X-107.06466 Y41.09670
G01 X-107.06464 Y41.09700
G01 X-107.06464 Y48.22805
G01 X-106.66032 Y48.63239
G01 X-106.62735 Y48.66874
G01 X-106.50297 Y48.82028
G01 X-106.44856 Y48.90179
G01 X-106.35611 Y49.07466
G01 X-106.31864 Y49.16521
G01 X-106.30414 Y49.21281
G04 P0 ( dwell for no time -- G64 should not smooth over this point )
G00 Z3.50000 ( retract )

G00 X-114.17156 Y39.43681 ( rapid move to begin. )
G01 F200.00000
( Mill infeed pass 1/1 )
G01 Z-0.20000
G04 P0 ( dwell for no time -- G64 should not smooth over this point )
G01 F400.00000
G01 X-114.17156 Y39.43681
G01 X-117.92728 Y43.19253
G01 X-115.72497 Y45.39481
G01 X-115.64389 Y45.40278
G01 X-115.54778 Y45.42191
G01 X-115.39769 Y45.46745
G01 X-115.30714 Y45.50494
G01 X-115.16884 Y45.57888
G01 X-115.08733 Y45.63334
G01 X-115.02436 Y45.68500
G01 X-113.11761 Y45.68500
G01 X-113.05464 Y45.63334
G01 X-112.97314 Y45.57888
G01 X-112.83483 Y45.50494
G01 X-112.74428 Y45.46745
G01 X-112.59419 Y45.42191
G01 X-112.49808 Y45.40278
G01 X-112.34200 Y45.38742
G01 X-112.24398 Y45.38742
G01 X-112.08789 Y45.40278
G01 X-111.99178 Y45.42191
G01 X-111.84169 Y45.46745
G01 X-111.75114 Y45.50494
G01 X-111.61284 Y45.57888
G01 X-111.53133 Y45.63334
G01 X-111.41010 Y45.73283
G01 X-111.34080 Y45.80212
G01 X-111.24131 Y45.92336
G01 X-111.18686 Y46.00486
G01 X-111.11292 Y46.14317
G01 X-111.07543 Y46.23372
G01 X-111.02988 Y46.38381
G01 X-111.01076 Y46.47992
G01 X-110.99539 Y46.63600
G01 X-110.99539 Y46.73402
G01 X-111.01076 Y46.89013
G01 X-111.02988 Y46.98624
G01 X-111.07543 Y47.13633
G01 X-111.11292 Y47.22688
G01 X-111.18686 Y47.36516
G01 X-111.24131 Y47.44670
G01 X-111.34080 Y47.56790
G01 X-111.41010 Y47.63720
G01 X-111.53133 Y47.73669
G01 X-111.61284 Y47.79114
G01 X-111.75114 Y47.86508
G01 X-111.84169 Y47.90257
G01 X-111.99178 Y47.94812
G01 X-112.08789 Y47.96724
G01 X-112.24398 Y47.98261
G01 X-112.34200 Y47.98261
G01 X-112.49808 Y47.96724
G01 X-112.59419 Y47.94812
G01 X-112.74428 Y47.90257
G01 X-112.83483 Y47.86508
G01 X-112.97314 Y47.79114
G01 X-113.05464 Y47.73669
G01 X-113.11761 Y47.68502
G01 X-114.84898 Y47.68502
G01 X-114.84898 Y51.76500
G01 X-114.85139 Y51.81402
G01 X-114.86099 Y51.91156
G01 X-114.88012 Y52.00770
G01 X-114.90856 Y52.10150
G01 X-114.94608 Y52.19205
G01 X-114.99228 Y52.27849
G01 X-115.04674 Y52.35999
G01 X-115.10892 Y52.43576
G01 X-115.14186 Y52.47211
G01 X-115.43475 Y52.76502
G01 X-116.15192 Y53.06210
G01 X-116.17148 Y53.06965
G01 X-116.26947 Y53.10472
G01 X-116.29998 Y53.11399
G01 X-116.39800 Y53.13853
G01 X-116.42233 Y53.14338
G01 X-116.52035 Y53.15794
G01 X-116.54110 Y53.15999
G01 X-116.63914 Y53.16479
G01 X-116.64897 Y53.16505
G01 X-118.89700 Y53.16505
G01 X-118.90683 Y53.16530
G01 X-119.10284 Y53.17493
G01 X-119.12456 Y53.17706
G01 X-119.32062 Y53.20615
G01 X-119.34882 Y53.21178
G01 X-119.54485 Y53.26088
G01 X-119.58440 Y53.27290
G01 X-119.78046 Y53.34305
G01 X-119.80822 Y53.35380
G01 X-120.31823 Y53.56505
G01 X-120.81831 Y54.06502
G01 X-121.03309 Y54.06502
G01 X-121.05150 Y54.07162
G01 X-121.14541 Y54.10017
G01 X-121.30223 Y54.13947
G01 X-121.38399 Y54.15575
G01 X-121.54084 Y54.17904
G01 X-121.61582 Y54.18643
G01 X-121.77264 Y54.19413
G01 X-121.80898 Y54.19502
G01 X-122.60898 Y54.19502
G01 X-122.64530 Y54.19413
G01 X-122.80215 Y54.18643
G01 X-122.87715 Y54.17904
G01 X-123.03397 Y54.15575
G01 X-123.11569 Y54.13947
G01 X-123.27251 Y54.10020
G01 X-123.36651 Y54.07160
G01 X-123.38482 Y54.06505
G01 X-123.49186 Y53.97721
G01 X-123.56118 Y53.90790
G01 X-123.66067 Y53.78666
G01 X-123.71513 Y53.70518
G01 X-123.78904 Y53.56685
G01 X-123.82656 Y53.47630
G01 X-123.87210 Y53.32624
G01 X-123.89120 Y53.23010
G01 X-123.90659 Y53.07401
G01 X-123.90659 Y52.97600
G01 X-123.89120 Y52.81994
G01 X-123.87210 Y52.72380
G01 X-123.82656 Y52.57374
G01 X-123.78904 Y52.48316
G01 X-123.71513 Y52.34486
G01 X-123.66067 Y52.26335
G01 X-123.56118 Y52.14214
G01 X-123.49186 Y52.07282
G01 X-123.37065 Y51.97333
G01 X-123.28914 Y51.91887
G01 X-123.15084 Y51.84496
G01 X-123.06029 Y51.80744
G01 X-122.91020 Y51.76193
G01 X-122.87543 Y51.75502
G04 P0 ( dwell for no time -- G64 should not smooth over this point )
G00 Z3.50000 ( retract )

G00 X-121.08971 Y51.56503 ( rapid move to begin. )
G01 F200.00000
( Mill infeed pass 1/1 )
G01 Z-0.20000
G04 P0 ( dwell for no time -- G64 should not smooth over this point )
G01 F400.00000
G01 X-121.08971 Y51.56503
G01 X-121.04734 Y51.53670
G01 X-120.92610 Y51.43721
G01 X-120.85679 Y51.36790
G01 X-120.75730 Y51.24666
G01 X-120.70284 Y51.16518
G01 X-120.62892 Y51.02685
G01 X-120.59141 Y50.93630
G01 X-120.54589 Y50.78624
G01 X-120.52677 Y50.69010
G01 X-120.51140 Y50.53401
G01 X-120.51140 Y50.43600
G01 X-120.52677 Y50.27994
G01 X-120.54589 Y50.18380
G01 X-120.59141 Y50.03374
G01 X-120.62892 Y49.94316
G01 X-120.70284 Y49.80486
G01 X-120.75730 Y49.72335
G01 X-120.85679 Y49.60214
G01 X-120.92610 Y49.53282
G01 X-121.03304 Y49.44507
G04 P0 ( dwell for no time -- G64 should not smooth over this point )
G00 Z3.50000 ( retract )

G00 X-123.38482 Y49.44504 ( rapid move to begin. )
G01 F200.00000
( Mill infeed pass 1/1 )
G01 Z-0.20000
G04 P0 ( dwell for no time -- G64 should not smooth over this point )
G01 F400.00000
G01 X-123.38482 Y49.44504
G01 X-123.49186 Y49.53282
G01 X-123.56118 Y49.60214
G01 X-123.66067 Y49.72335
G01 X-123.71513 Y49.80486
G01 X-123.78904 Y49.94316
G01 X-123.82656 Y50.03374
G01 X-123.87210 Y50.18380
G01 X-123.89120 Y50.27994
G01 X-123.90659 Y50.43600
G01 X-123.90659 Y50.53401
G01 X-123.89120 Y50.69010
G01 X-123.87210 Y50.78624
G01 X-123.82656 Y50.93630
G01 X-123.78904 Y51.02685
G01 X-123.71513 Y51.16518
G01 X-123.66067 Y51.24666
G01 X-123.56118 Y51.36790
G01 X-123.49186 Y51.43721
G01 X-123.37065 Y51.53670
G01 X-123.28914 Y51.59114
G01 X-123.15084 Y51.66508
G01 X-123.06029 Y51.70259
G01 X-122.91020 Y51.74811
G01 X-122.87543 Y51.75502
G01 X-122.28257 Y51.75502
G01 X-122.24325 Y51.74430
G01 X-122.14523 Y51.71974
G01 X-122.06164 Y51.70307
G01 X-121.96362 Y51.68852
G01 X-121.88539 Y51.68080
G01 X-121.80898 Y51.67704
G01 X-121.78739 Y51.67569
G01 X-121.77063 Y51.67440
G01 X-121.74899 Y51.67303
G01 X-121.61383 Y51.66640
G01 X-121.53489 Y51.65860
G01 X-121.37805 Y51.63533
G01 X-121.29222 Y51.61821
G01 X-121.13540 Y51.57892
G01 X-121.08971 Y51.56503
G01 X-117.06320 Y51.56503
G01 X-116.84900 Y51.35080
G01 X-116.84900 Y47.50964
G01 X-116.90066 Y47.44670
G01 X-116.95512 Y47.36516
G01 X-117.02906 Y47.22688
G01 X-117.06655 Y47.13633
G01 X-117.11209 Y46.98624
G01 X-117.13122 Y46.89013
G01 X-117.13919 Y46.80903
G01 X-120.83520 Y43.11302
G01 X-122.70700 Y43.11302
G01 X-122.75600 Y43.11061
G01 X-122.85353 Y43.10101
G01 X-122.94967 Y43.08188
G01 X-123.04347 Y43.05344
G01 X-123.08068 Y43.03802
G01 X-123.13199 Y43.03802
G01 X-123.22953 Y43.02842
G01 X-123.32333 Y42.99994
G01 X-123.40977 Y42.95374
G01 X-123.48554 Y42.89156
G01 X-123.54771 Y42.81579
G01 X-123.59392 Y42.72936
G01 X-123.62239 Y42.63555
G01 X-123.63199 Y42.53802
G01 X-123.63199 Y42.48671
G01 X-123.64741 Y42.44950
G01 X-123.67586 Y42.35570
G01 X-123.69498 Y42.25956
G01 X-123.70458 Y42.16202
G01 X-123.70458 Y42.06400
G01 X-123.69498 Y41.96647
G01 X-123.67586 Y41.87033
G01 X-123.64741 Y41.77653
G01 X-123.63199 Y41.73932
G01 X-123.63199 Y41.68801
G01 X-123.62239 Y41.59047
G01 X-123.59392 Y41.49667
G01 X-123.54771 Y41.41023
G01 X-123.48554 Y41.33446
G01 X-123.40977 Y41.27229
G01 X-123.32333 Y41.22608
G01 X-123.22953 Y41.19761
G01 X-123.13199 Y41.18801
G01 X-123.08068 Y41.18801
G01 X-123.04347 Y41.17259
G01 X-122.94967 Y41.14414
G01 X-122.85353 Y41.12502
G01 X-122.75600 Y41.11541
G01 X-122.70700 Y41.11300
G01 X-120.42100 Y41.11300
G01 X-120.37198 Y41.11541
G01 X-120.27444 Y41.12502
G01 X-120.17830 Y41.14414
G01 X-120.08450 Y41.17259
G01 X-119.99395 Y41.21011
G01 X-119.90751 Y41.25631
G01 X-119.82600 Y41.31077
G01 X-119.75024 Y41.37295
G01 X-119.71389 Y41.40591
G01 X-119.34147 Y41.77830
G01 X-114.58812 Y37.02502
G01 X-114.29531 Y36.90371
G01 X-114.25883 Y36.88964
G01 X-114.16081 Y36.85457
G01 X-114.09813 Y36.83552
G01 X-114.00011 Y36.81095
G01 X-113.94512 Y36.79998
G01 X-113.84710 Y36.78545
G01 X-113.79660 Y36.78047
G01 X-113.69861 Y36.77565
G01 X-113.67397 Y36.77504
G01 X-98.59298 Y36.77504
G01 X-98.56836 Y36.77565
G01 X-98.47032 Y36.78047
G01 X-98.41982 Y36.78545
G01 X-98.32181 Y36.79998
G01 X-98.26682 Y36.81095
G01 X-98.16880 Y36.83552
G01 X-98.10611 Y36.85457
G01 X-98.03423 Y36.88030
G01 X-98.01485 Y36.89787
G01 X-97.98970 Y36.92180
G01 X-96.06872 Y38.84278
G01 X-96.04480 Y38.86792
G01 X-95.97888 Y38.94064
G01 X-95.93365 Y38.99578
G01 X-95.87462 Y39.07539
G01 X-95.83156 Y39.13988
G01 X-95.80299 Y39.18753
G01 X-95.79644 Y39.23167
G01 X-95.78874 Y39.30970
G01 X-95.78391 Y39.40772
G01 X-95.78297 Y39.44600
G01 X-95.78297 Y45.03400
G01 X-95.78203 Y45.07230
G01 X-95.77721 Y45.17035
G01 X-95.76951 Y45.24838
G01 X-95.75496 Y45.34639
G01 X-95.73835 Y45.42978
G01 X-95.71379 Y45.52780
G01 X-95.68564 Y45.62033
G01 X-95.67195 Y45.65856
G01 X-95.63405 Y45.70476
G01 X-95.60109 Y45.74111
G01 X-94.70708 Y46.63511
G01 X-94.67073 Y46.66808
G01 X-94.59497 Y46.73026
G01 X-94.51346 Y46.78472
G01 X-94.42702 Y46.83092
G01 X-94.33647 Y46.86844
G01 X-94.24267 Y46.89691
G01 X-94.14653 Y46.91604
G01 X-94.04899 Y46.92564
G01 X-94.00000 Y46.92805
G01 X-90.15461 Y46.92805
G01 X-90.09165 Y46.97969
G01 X-90.01014 Y47.03417
G01 X-89.87184 Y47.10809
G01 X-89.78128 Y47.14558
G01 X-89.63120 Y47.19112
G01 X-89.53506 Y47.21022
G01 X-89.37900 Y47.22561
G01 X-89.32998 Y47.22800
G01 X-88.52998 Y47.22800
G01 X-88.48098 Y47.22561
G01 X-88.32490 Y47.21022
G01 X-88.22876 Y47.19112
G01 X-88.07870 Y47.14558
G01 X-87.98815 Y47.10809
G01 X-87.84984 Y47.03417
G01 X-87.76833 Y46.97969
G01 X-87.64710 Y46.88020
G01 X-87.57778 Y46.81088
G01 X-87.47832 Y46.68967
G01 X-87.42386 Y46.60816
G01 X-87.34992 Y46.46986
G01 X-87.31240 Y46.37931
G01 X-87.26689 Y46.22922
G01 X-87.24776 Y46.13308
G01 X-87.23239 Y45.97703
G01 X-87.23239 Y45.87901
G01 X-87.24776 Y45.72292
G01 X-87.26689 Y45.62681
G01 X-87.31240 Y45.47672
G01 X-87.34992 Y45.38617
G01 X-87.42386 Y45.24787
G01 X-87.47832 Y45.16636
G01 X-87.57778 Y45.04513
G01 X-87.64710 Y44.97583
G01 X-87.76833 Y44.87634
G01 X-87.84984 Y44.82188
G01 X-87.98815 Y44.74795
G01 X-88.07870 Y44.71043
G01 X-88.22876 Y44.66491
G01 X-88.26346 Y44.65803
G01 X-89.59647 Y44.65803
G01 X-89.63120 Y44.65112
G01 X-89.78128 Y44.60558
G01 X-89.87184 Y44.56809
G01 X-90.01014 Y44.49415
G01 X-90.09165 Y44.43969
G01 X-90.13023 Y44.40802
G01 X-90.21288 Y44.34020
G01 X-90.28217 Y44.27088
G01 X-90.35019 Y44.18803
G01 X-90.42754 Y44.18803
G01 X-90.41926 Y44.23492
G01 X-90.41926 Y44.32206
G01 X-90.43440 Y44.40789
G01 X-90.45436 Y44.48241
G01 X-90.48418 Y44.56433
G01 X-90.52774 Y44.63982
G01 X-90.58377 Y44.70659
G01 X-90.63831 Y44.76113
G01 X-90.70506 Y44.81713
G01 X-90.78055 Y44.86072
G01 X-90.86244 Y44.89054
G01 X-90.93693 Y44.91051
G01 X-91.06637 Y44.92755
G01 X-93.24450 Y44.92755
G01 X-93.37391 Y44.91051
G01 X-93.44841 Y44.89054
G01 X-93.53035 Y44.86070
G01 X-93.60584 Y44.81711
G01 X-93.67262 Y44.76105
G01 X-93.72715 Y44.70649
G01 X-93.78313 Y44.63974
G01 X-93.82669 Y44.56430
G01 X-93.85649 Y44.48244
G01 X-93.87645 Y44.40794
G01 X-93.89349 Y44.27850
G01 X-93.89349 Y40.20429
G01 X-93.87645 Y40.07488
G01 X-93.85649 Y40.00038
G01 X-93.82667 Y39.91849
G01 X-93.78308 Y39.84300
G01 X-93.72707 Y39.77625
G01 X-93.67254 Y39.72172
G01 X-93.60579 Y39.66571
G01 X-93.53030 Y39.62212
G01 X-93.44841 Y39.59230
G01 X-93.37391 Y39.57234
G01 X-93.28808 Y39.55720
G01 X-93.20094 Y39.55720
G01 X-93.11511 Y39.57234
G01 X-93.04059 Y39.59230
G01 X-92.96655 Y39.61852
G01 X-92.89753 Y39.65601
G01 X-92.88448 Y39.66449
G01 X-92.87564 Y39.67056
G01 X-92.73304 Y39.74323
G01 X-92.58326 Y39.79190
G01 X-92.42774 Y39.81651
G01 X-90.37196 Y39.81651
G01 X-90.24252 Y39.83355
G01 X-90.16803 Y39.85352
G01 X-90.04745 Y39.90348
G01 X-89.90641 Y39.98491
G01 X-89.75807 Y40.04635
G01 X-89.74898 Y40.05011
G01 X-89.58423 Y40.09426
G01 X-89.41519 Y40.11651
G01 X-88.44474 Y40.11651
G01 X-88.27573 Y40.09426
G01 X-88.11103 Y40.05014
G01 X-87.95355 Y39.98491
G01 X-87.80588 Y39.89964
G01 X-87.78403 Y39.88291
G01 X-87.67067 Y39.79589
G01 X-87.55010 Y39.67534
G01 X-87.44631 Y39.54008
G01 X-87.36107 Y39.39246
G01 X-87.29584 Y39.23498
G01 X-87.25172 Y39.07028
G01 X-87.22947 Y38.90127
G01 X-87.22947 Y38.73079
G01 X-87.25172 Y38.56178
G01 X-87.29584 Y38.39708
G01 X-87.36107 Y38.23960
G01 X-87.44631 Y38.09195
G01 X-87.56239 Y37.94069
G01 X-87.62764 Y37.82766
G01 X-87.65716 Y37.75642
G01 X-87.68337 Y37.67331
G01 X-87.69475 Y37.58692
G01 X-87.69094 Y37.49988
G01 X-87.68088 Y37.42340
G01 X-87.65863 Y37.32784
G01 X-87.63514 Y37.27603
G01 X-87.70537 Y37.27603
G01 X-87.76833 Y37.32769
G01 X-87.84984 Y37.38215
G01 X-87.98815 Y37.45609
G01 X-88.07870 Y37.49358
G01 X-88.22876 Y37.53912
G01 X-88.26346 Y37.54600
G04 P0 ( dwell for no time -- G64 should not smooth over this point )
G00 Z3.50000 ( retract )

G00 X-87.69772 Y35.27601 ( rapid move to begin. )
G01 F200.00000
( Mill infeed pass 1/1 )
G01 Z-0.20000
G04 P0 ( dwell for no time -- G64 should not smooth over this point )
G01 F400.00000
G01 X-87.69772 Y35.27601
G01 X-87.80618 Y35.19280
G01 X-87.95378 Y35.10758
G01 X-88.11121 Y35.04238
G01 X-88.12995 Y35.03735
G01 X-88.12995 Y35.04288
G01 X-88.07870 Y35.05843
G01 X-87.98815 Y35.09595
G01 X-87.84984 Y35.16988
G01 X-87.76833 Y35.22434
G01 X-87.70537 Y35.27601
G01 X-87.69772 Y35.27601
G04 P0 ( dwell for no time -- G64 should not smooth over this point )
G00 Z3.50000 ( retract )

G00 X-89.72998 Y35.03735 ( rapid move to begin. )
G01 F200.00000
( Mill infeed pass 1/1 )
G01 Z-0.20000
G04 P0 ( dwell for no time -- G64 should not smooth over this point )
G01 F400.00000
G01 X-89.72998 Y35.03735
G01 X-89.72998 Y35.04288
G01 X-89.78128 Y35.05843
G01 X-89.87184 Y35.09595
G01 X-90.01014 Y35.16988
G01 X-90.09165 Y35.22434
G01 X-90.21288 Y35.32383
G01 X-90.28217 Y35.39313
G01 X-90.35019 Y35.47601
G01 X-90.35472 Y35.47601
G01 X-90.30945 Y35.41703
G01 X-90.18895 Y35.29653
G01 X-90.05378 Y35.19280
G01 X-89.90618 Y35.10758
G01 X-89.74875 Y35.04238
G01 X-89.72998 Y35.03735
G04 P0 ( dwell for no time -- G64 should not smooth over this point )
G00 Z3.50000 ( retract )

G00 X-89.71999 Y32.92714 ( rapid move to begin. )
G01 F200.00000
( Mill infeed pass 1/1 )
G01 Z-0.20000
G04 P0 ( dwell for no time -- G64 should not smooth over this point )
G01 F400.00000
G01 X-89.71999 Y32.92714
G01 X-89.71999 Y32.93270
G01 X-89.73877 Y32.92767
G01 X-89.89617 Y32.86247
G01 X-90.04377 Y32.77726
G01 X-90.17897 Y32.67352
G01 X-90.29947 Y32.55302
G01 X-90.34471 Y32.49405
G01 X-90.34019 Y32.49405
G01 X-90.27219 Y32.57690
G01 X-90.20287 Y32.64619
G01 X-90.08164 Y32.74568
G01 X-90.00013 Y32.80014
G01 X-89.86183 Y32.87408
G01 X-89.77128 Y32.91160
G01 X-89.71999 Y32.92714
G04 P0 ( dwell for no time -- G64 should not smooth over this point )
G00 Z3.50000 ( retract )

G00 X-88.14253 Y30.45404 ( rapid move to begin. )
G01 F200.00000
( Mill infeed pass 1/1 )
G01 Z-0.20000
G04 P0 ( dwell for no time -- G64 should not smooth over this point )
G01 F400.00000
G01 X-88.14253 Y30.45404
G01 X-87.72000 Y30.45402
G01 X-87.62244 Y30.44442
G01 X-87.52863 Y30.41594
G01 X-87.44220 Y30.36974
G01 X-87.36643 Y30.30756
G01 X-87.30425 Y30.23179
G01 X-87.25805 Y30.14536
G01 X-87.22960 Y30.05156
G01 X-87.22000 Y29.95402
G01 X-87.22000 Y28.35402
G01 X-87.22960 Y28.25646
G01 X-87.25805 Y28.16266
G01 X-87.30425 Y28.07622
G01 X-87.36643 Y28.00046
G01 X-87.44220 Y27.93828
G01 X-87.49681 Y27.90909
G01 X-87.53509 Y27.89012
G01 X-87.62244 Y27.86363
G01 X-87.72000 Y27.85402
G01 X-87.91997 Y27.85402
G01 X-87.91997 Y26.13924
G01 X-87.74875 Y25.96802
G01 X-84.03461 Y25.96802
G01 X-83.97164 Y26.01969
G01 X-83.89014 Y26.07414
G01 X-83.75183 Y26.14808
G01 X-83.66128 Y26.18557
G01 X-83.51119 Y26.23112
G01 X-83.41508 Y26.25024
G01 X-83.25900 Y26.26561
G01 X-83.16098 Y26.26561
G01 X-83.00490 Y26.25024
G01 X-82.90878 Y26.23112
G01 X-82.75869 Y26.18557
G01 X-82.66814 Y26.14808
G01 X-82.52984 Y26.07414
G01 X-82.44833 Y26.01969
G01 X-82.32710 Y25.92020
G01 X-82.25780 Y25.85090
G01 X-82.15831 Y25.72967
G01 X-82.10386 Y25.64816
G01 X-82.02992 Y25.50986
G01 X-82.00800 Y25.45690
G01 X-81.99243 Y25.41931
G01 X-81.94688 Y25.26922
G01 X-81.92776 Y25.17311
G01 X-81.91239 Y25.01702
G01 X-81.91239 Y24.91900
G01 X-81.92776 Y24.76292
G01 X-81.94688 Y24.66681
G01 X-81.99243 Y24.51672
G01 X-82.02992 Y24.42617
G01 X-82.10386 Y24.28786
G01 X-82.15831 Y24.20636
G01 X-82.25780 Y24.08512
G01 X-82.32710 Y24.01583
G01 X-82.44833 Y23.91634
G01 X-82.52984 Y23.86188
G01 X-82.66814 Y23.78794
G01 X-82.75869 Y23.75045
G01 X-82.90878 Y23.70491
G01 X-83.00490 Y23.68578
G01 X-83.16098 Y23.67042
G01 X-83.25900 Y23.67042
G01 X-83.41508 Y23.68578
G01 X-83.51119 Y23.70491
G01 X-83.66128 Y23.75045
G01 X-83.75183 Y23.78794
G01 X-83.89014 Y23.86188
G01 X-83.97164 Y23.91634
G01 X-84.03461 Y23.96800
G01 X-88.16300 Y23.96800
G01 X-88.21200 Y23.97042
G01 X-88.30953 Y23.98002
G01 X-88.40567 Y23.99914
G01 X-88.49947 Y24.02762
G01 X-88.59002 Y24.06511
G01 X-88.67649 Y24.11133
G01 X-88.75797 Y24.16579
G01 X-88.83374 Y24.22797
G01 X-88.87011 Y24.26091
G01 X-89.62711 Y25.01794
G01 X-89.66005 Y25.05428
G01 X-89.72223 Y25.13005
G01 X-89.77669 Y25.21156
G01 X-89.82289 Y25.29800
G01 X-89.86041 Y25.38855
G01 X-89.88885 Y25.48235
G01 X-89.90798 Y25.57849
G01 X-89.91758 Y25.67603
G01 X-89.91999 Y25.72502
G01 X-89.91999 Y27.85402
G01 X-90.11999 Y27.85402
G01 X-90.21753 Y27.86363
G01 X-90.30483 Y27.89009
G01 X-90.34344 Y27.90922
G01 X-90.39777 Y27.93828
G01 X-90.47354 Y28.00046
G01 X-90.53572 Y28.07622
G01 X-90.58192 Y28.16266
G01 X-90.61039 Y28.25646
G01 X-90.61999 Y28.35402
G01 X-90.61999 Y29.95402
G01 X-90.61039 Y30.05156
G01 X-90.58192 Y30.14536
G01 X-90.53572 Y30.23179
G01 X-90.47354 Y30.30756
G01 X-90.39777 Y30.36974
G01 X-90.31133 Y30.41594
G01 X-90.21753 Y30.44442
G01 X-90.11999 Y30.45402
G01 X-89.69721 Y30.45402
G01 X-89.61771 Y30.44223
G01 X-89.52297 Y30.43286
G01 X-89.36615 Y30.42516
G01 X-89.32000 Y30.42402
G01 X-88.51997 Y30.42402
G01 X-88.47382 Y30.42516
G01 X-88.31697 Y30.43286
G01 X-88.22221 Y30.44223
G01 X-88.14253 Y30.45404
G01 X-88.06869 Y30.47645
G01 X-87.97814 Y30.51394
G01 X-87.83984 Y30.58788
G01 X-87.75833 Y30.64233
G01 X-87.63709 Y30.74183
G01 X-87.56780 Y30.81114
G01 X-87.49976 Y30.89402
G01 X-87.45838 Y30.89402
G01 X-87.47603 Y30.82816
G01 X-87.49117 Y30.74233
G01 X-87.49117 Y30.65519
G01 X-87.47603 Y30.56936
G01 X-87.45607 Y30.49486
G01 X-87.42698 Y30.41455
G01 X-87.38464 Y30.34035
G01 X-87.37108 Y30.32069
G01 X-87.34708 Y30.28869
G01 X-87.29991 Y30.23085
G01 X-87.25277 Y30.14063
G01 X-87.22391 Y30.03975
G01 X-87.21949 Y29.98986
G01 X-87.21949 Y28.31808
G01 X-87.22008 Y28.31125
G01 X-87.22391 Y28.26837
G01 X-87.25279 Y28.16741
G01 X-87.29993 Y28.07719
G01 X-87.36425 Y27.99830
G01 X-87.44314 Y27.93398
G01 X-87.57098 Y27.86718
G01 X-87.67781 Y27.79215
G01 X-87.73460 Y27.73995
G01 X-87.79338 Y27.67561
G01 X-87.84009 Y27.60206
G01 X-87.87334 Y27.52151
G01 X-87.89643 Y27.44793
G01 X-87.91926 Y27.30836
G01 X-87.91939 Y27.30208
G01 X-87.91949 Y27.29195
G01 X-87.91949 Y26.61750
G01 X-87.90245 Y26.48809
G01 X-87.88248 Y26.41359
G01 X-87.85266 Y26.33170
G01 X-87.80908 Y26.25621
G01 X-87.75307 Y26.18946
G01 X-87.69854 Y26.13493
G01 X-87.63178 Y26.07892
G01 X-87.55630 Y26.03533
G01 X-87.47441 Y26.00551
G01 X-87.39991 Y25.98555
G01 X-87.27049 Y25.96851
G01 X-84.25135 Y25.96851
G01 X-84.12191 Y25.98555
G01 X-84.04741 Y26.00551
G01 X-83.97678 Y26.03025
G01 X-83.91061 Y26.06525
G01 X-83.90116 Y26.07120
G01 X-83.88567 Y26.08136
G01 X-83.86204 Y26.09746
G01 X-83.68643 Y26.18202
G01 X-83.50017 Y26.23947
G01 X-83.30746 Y26.26851
G01 X-83.09011 Y26.26851
G01 X-82.96067 Y26.28555
G01 X-82.88618 Y26.30551
G01 X-82.80429 Y26.33533
G01 X-82.72880 Y26.37892
G01 X-82.66205 Y26.43493
G01 X-82.60751 Y26.48946
G01 X-82.55151 Y26.55621
G01 X-82.50792 Y26.63170
G01 X-82.47810 Y26.71359
G01 X-82.45813 Y26.78809
G01 X-82.44300 Y26.87391
G01 X-82.44300 Y26.96106
G01 X-82.45813 Y27.04689
G01 X-82.47810 Y27.12141
G01 X-82.50718 Y27.20175
G01 X-82.54952 Y27.27597
G01 X-82.56309 Y27.29563
G01 X-82.58719 Y27.32776
G01 X-84.52496 Y29.70309
G01 X-84.52496 Y54.86327
G01 X-84.52653 Y54.90287
G01 X-84.52839 Y54.92621
G01 X-84.53298 Y54.96489
G01 X-84.65214 Y55.71661
G01 X-84.63339 Y55.90700
G01 X-84.63339 Y56.00502
G01 X-84.65262 Y56.20012
G01 X-84.67172 Y56.29623
G01 X-84.72864 Y56.48384
G01 X-84.76616 Y56.57439
G01 X-84.79737 Y56.63283
G01 X-84.83857 Y56.89270
G01 X-84.84624 Y56.93121
G01 X-84.85170 Y56.95394
G01 X-84.86237 Y56.99179
G01 X-86.24022 Y61.22866
G01 X-86.52495 Y62.10430
G01 X-86.52495 Y66.26830
G01 X-86.54200 Y66.39774
G01 X-86.56196 Y66.47223
G01 X-86.59176 Y66.55410
G01 X-86.63212 Y66.62397
G01 X-86.63532 Y66.62954
G01 X-86.69130 Y66.69629
G01 X-86.74583 Y66.75085
G01 X-86.81266 Y66.80693
G01 X-86.88820 Y66.85054
G01 X-86.97019 Y66.88036
G01 X-87.04469 Y66.90030
G01 X-87.13041 Y66.91541
G01 X-87.21746 Y66.91541
G01 X-87.30318 Y66.90033
G01 X-87.37771 Y66.88039
G01 X-87.44873 Y66.85552
G01 X-87.51522 Y66.82027
G01 X-87.52465 Y66.81432
G01 X-87.53956 Y66.80454
G01 X-87.54395 Y66.80155
G01 X-87.71337 Y66.71996
G01 X-87.89305 Y66.66456
G01 X-88.07898 Y66.63655
G01 X-88.26699 Y66.63655
G01 X-88.48997 Y66.67015
G01 X-88.49038 Y66.66733
G01 X-88.55584 Y66.67846
G01 X-88.63290 Y66.68133
G01 X-88.71992 Y66.67696
G01 X-88.80486 Y66.65758
G01 X-88.88512 Y66.62375
G01 X-88.95332 Y66.58770
G01 X-89.02652 Y66.54041
G01 X-89.09040 Y66.48115
G01 X-89.14303 Y66.41171
G01 X-89.18408 Y66.34640
G01 X-89.22955 Y66.25423
G01 X-89.25520 Y66.15468
G01 X-89.26180 Y66.11077
G01 X-89.26737 Y66.03640
G01 X-89.26737 Y60.23786
G01 X-89.26983 Y60.21901
G01 X-89.29305 Y60.04278
G01 X-89.34397 Y59.85272
G01 X-89.41921 Y59.67103
G01 X-89.51756 Y59.50072
G01 X-89.63732 Y59.34464
G01 X-91.23549 Y57.74650
G01 X-91.30374 Y57.69415
G01 X-91.30414 Y57.69382
G01 X-91.32009 Y57.68155
G01 X-91.39154 Y57.62674
G01 X-91.56190 Y57.52836
G01 X-91.66741 Y57.48467
G01 X-91.74359 Y57.45313
G01 X-91.93363 Y57.40220
G01 X-92.03109 Y57.38935
G01 X-92.12857 Y57.37655
G01 X-100.49150 Y57.37655
G01 X-100.62091 Y57.35950
G01 X-100.69541 Y57.33954
G01 X-100.77730 Y57.30972
G01 X-100.85279 Y57.26613
G01 X-100.91954 Y57.21013
G01 X-100.97407 Y57.15559
G01 X-101.03008 Y57.08884
G01 X-101.07367 Y57.01335
G01 X-101.10349 Y56.93146
G01 X-101.12345 Y56.85696
G01 X-101.14050 Y56.72753
G01 X-101.14050 Y52.24564
G01 X-101.16630 Y52.04956
G01 X-101.17862 Y51.98761
G01 X-101.18370 Y51.94902
G01 X-101.18799 Y51.88375
G01 X-101.18799 Y51.30821
G01 X-101.19241 Y51.25832
G01 X-101.22127 Y51.15746
G01 X-101.26843 Y51.06716
G01 X-101.33275 Y50.98829
G01 X-101.41161 Y50.92398
G01 X-101.50186 Y50.87684
G01 X-101.60283 Y50.84796
G01 X-101.65264 Y50.84354
G01 X-102.50516 Y50.84354
G01 X-102.54321 Y50.84209
G01 X-102.55520 Y50.84118
G01 X-102.66292 Y50.82091
G01 X-102.72543 Y50.80186
G01 X-102.83699 Y50.75225
G01 X-102.93320 Y50.67712
G01 X-102.98774 Y50.62258
G01 X-103.04374 Y50.55583
G01 X-103.08733 Y50.48034
G01 X-103.10013 Y50.44524
G01 X-103.13132 Y50.41405
G01 X-103.20198 Y50.34336
G01 X-103.68095 Y50.82236
G01 X-103.68095 Y50.85840
G04 P0 ( dwell for no time -- G64 should not smooth over this point )
G00 Z3.50000 ( retract )

G00 X-106.68095 Y53.74658 ( rapid move to begin. )
G01 F200.00000
( Mill infeed pass 1/1 )
G01 Z-0.20000
G04 P0 ( dwell for no time -- G64 should not smooth over this point )
G01 F400.00000
G01 X-106.68095 Y53.74658
G01 X-106.70932 Y53.76987
G01 X-106.79083 Y53.82433
G01 X-106.80495 Y53.83187
G01 X-111.05556 Y58.08246
G01 X-111.09191 Y58.11541
G01 X-111.28134 Y58.27085
G01 X-111.36283 Y58.32531
G01 X-111.57893 Y58.44083
G01 X-111.66951 Y58.47832
G01 X-111.90400 Y58.54947
G01 X-112.00011 Y58.56859
G01 X-112.24398 Y58.59260
G01 X-112.34200 Y58.59260
G01 X-112.58586 Y58.56859
G01 X-112.68200 Y58.54947
G01 X-112.91649 Y58.47832
G01 X-113.00704 Y58.44083
G01 X-113.22315 Y58.32531
G01 X-113.30466 Y58.27085
G01 X-113.49406 Y58.11541
G01 X-113.56338 Y58.04609
G01 X-113.71883 Y57.85666
G01 X-113.77329 Y57.77517
G01 X-113.88881 Y57.55907
G01 X-113.92630 Y57.46849
G01 X-113.98530 Y57.27401
G01 X-114.56102 Y56.69829
G04 P0 ( dwell for no time -- G64 should not smooth over this point )
G00 Z3.50000 ( retract )

G00 X-116.64900 Y57.86522 ( rapid move to begin. )
G01 F200.00000
( Mill infeed pass 1/1 )
G01 Z-0.20000
G04 P0 ( dwell for no time -- G64 should not smooth over this point )
G01 F400.00000
G01 X-116.64900 Y57.86522
G01 X-116.73188 Y57.79720
G01 X-116.80117 Y57.72790
G01 X-116.86917 Y57.64505
G01 X-116.87376 Y57.64505
G01 X-116.80462 Y57.73174
G01 X-116.66180 Y57.86425
G01 X-116.64900 Y57.87299
G01 X-116.64900 Y57.86522
G04 P0 ( dwell for no time -- G64 should not smooth over this point )
G00 Z3.50000 ( retract )

G00 X-105.27567 Y66.77035 ( rapid move to begin. )
G01 F200.00000
( Mill infeed pass 1/1 )
G01 Z-0.20000
G04 P0 ( dwell for no time -- G64 should not smooth over this point )
G01 F400.00000
G01 X-105.27567 Y66.77035
G01 X-105.27925 Y66.77394
G01 X-105.38595 Y66.76342
G01 X-105.48400 Y66.76342
G01 X-105.59070 Y66.77394
G01 X-105.59428 Y66.77035
G01 X-105.53238 Y66.76103
G01 X-105.33754 Y66.76103
G01 X-105.27567 Y66.77035
G04 P0 ( dwell for no time -- G64 should not smooth over this point )
G00 Z3.50000 ( retract )

G00 X-104.13134 Y68.06103 ( rapid move to begin. )
G01 F200.00000
( Mill infeed pass 1/1 )
G01 Z-0.20000
G04 P0 ( dwell for no time -- G64 should not smooth over this point )
G01 F400.00000
G01 X-104.13134 Y68.06103
G01 X-104.14333 Y67.90076
G01 X-104.14788 Y67.90533
G01 X-104.13736 Y68.01201
G01 X-104.13736 Y68.11003
G01 X-104.14788 Y68.21673
G01 X-104.14333 Y68.22130
G01 X-104.13134 Y68.06103
G04 P0 ( dwell for no time -- G64 should not smooth over this point )
G00 Z3.50000 ( retract )

G00 X-105.27569 Y69.35168 ( rapid move to begin. )
G01 F200.00000
( Mill infeed pass 1/1 )
G01 Z-0.20000
G04 P0 ( dwell for no time -- G64 should not smooth over this point )
G01 F400.00000
G01 X-105.27569 Y69.35168
G01 X-105.27925 Y69.34810
G01 X-105.38595 Y69.35861
G01 X-105.48400 Y69.35861
G01 X-105.59068 Y69.34810
G01 X-105.59426 Y69.35168
G01 X-105.53238 Y69.36100
G01 X-105.33754 Y69.36100
G01 X-105.27569 Y69.35168
G04 P0 ( dwell for no time -- G64 should not smooth over this point )
G00 Z3.50000 ( retract )

G00 X-106.72207 Y67.90530 ( rapid move to begin. )
G01 F200.00000
( Mill infeed pass 1/1 )
G01 Z-0.20000
G04 P0 ( dwell for no time -- G64 should not smooth over this point )
G01 F400.00000
G01 X-106.72207 Y67.90530
G01 X-106.72662 Y67.90076
G01 X-106.73860 Y68.06101
G01 X-106.72662 Y68.22130
G01 X-106.72207 Y68.21676
G01 X-106.73258 Y68.11003
G01 X-106.73258 Y68.01201
G01 X-106.72207 Y67.90530
G04 P0 ( dwell for no time -- G64 should not smooth over this point )
G00 Z3.50000 ( retract )

G00 X-117.13132 Y64.40379 ( rapid move to begin. )
G01 F200.00000
( Mill infeed pass 1/1 )
G01 Z-0.20000
G04 P0 ( dwell for no time -- G64 should not smooth over this point )
G01 F400.00000
G01 X-117.13132 Y64.40379
G01 X-117.13663 Y64.40909
G01 X-117.24773 Y64.37539
G01 X-117.34387 Y64.35626
G01 X-117.57798 Y64.33320
G01 X-117.67600 Y64.33320
G01 X-117.91011 Y64.35626
G01 X-118.00625 Y64.37539
G01 X-118.11732 Y64.40907
G01 X-118.12263 Y64.40379
G01 X-118.06789 Y64.38522
G01 X-117.84933 Y64.34173
G01 X-117.62697 Y64.32715
G01 X-117.40462 Y64.34173
G01 X-117.18606 Y64.38522
G01 X-117.13132 Y64.40379
G04 P0 ( dwell for no time -- G64 should not smooth over this point )
G00 Z3.50000 ( retract )

G00 X-115.92335 Y66.03081 ( rapid move to begin. )
G01 F200.00000
( Mill infeed pass 1/1 )
G01 Z-0.20000
G04 P0 ( dwell for no time -- G64 should not smooth over this point )
G01 F400.00000
G01 X-115.92335 Y66.03081
G01 X-115.93790 Y65.80843
G01 X-115.98138 Y65.58989
G01 X-115.99995 Y65.53515
G01 X-116.00526 Y65.54049
G01 X-115.97158 Y65.65154
G01 X-115.95245 Y65.74767
G01 X-115.92939 Y65.98179
G01 X-115.92939 Y66.07981
G01 X-115.95245 Y66.31392
G01 X-115.97158 Y66.41006
G01 X-116.00529 Y66.52113
G01 X-115.99995 Y66.52646
G01 X-115.98138 Y66.47173
G01 X-115.93790 Y66.25319
G01 X-115.92335 Y66.03081
G04 P0 ( dwell for no time -- G64 should not smooth over this point )
G00 Z3.50000 ( retract )

G00 X-117.13132 Y67.65783 ( rapid move to begin. )
G01 F200.00000
( Mill infeed pass 1/1 )
G01 Z-0.20000
G04 P0 ( dwell for no time -- G64 should not smooth over this point )
G01 F400.00000
G01 X-117.13132 Y67.65783
G01 X-117.13665 Y67.65250
G01 X-117.24773 Y67.68620
G01 X-117.34387 Y67.70533
G01 X-117.57798 Y67.72839
G01 X-117.67600 Y67.72839
G01 X-117.91011 Y67.70533
G01 X-118.00625 Y67.68620
G01 X-118.11730 Y67.65252
G01 X-118.12263 Y67.65783
G01 X-118.06789 Y67.67640
G01 X-117.84935 Y67.71988
G01 X-117.62697 Y67.73444
G01 X-117.40460 Y67.71988
G01 X-117.18606 Y67.67640
G01 X-117.13132 Y67.65783
G04 P0 ( dwell for no time -- G64 should not smooth over this point )
G00 Z3.50000 ( retract )

G00 X-119.24869 Y66.52116 ( rapid move to begin. )
G01 F200.00000
( Mill infeed pass 1/1 )
G01 Z-0.20000
G04 P0 ( dwell for no time -- G64 should not smooth over this point )
G01 F400.00000
G01 X-119.24869 Y66.52116
G01 X-119.28239 Y66.41006
G01 X-119.30152 Y66.31392
G01 X-119.32458 Y66.07981
G01 X-119.32458 Y65.98179
G01 X-119.30152 Y65.74767
G01 X-119.28239 Y65.65154
G01 X-119.24871 Y65.54046
G01 X-119.25400 Y65.53515
G01 X-119.27256 Y65.58989
G01 X-119.31605 Y65.80843
G01 X-119.33060 Y66.03081
G01 X-119.31605 Y66.25319
G01 X-119.27256 Y66.47173
G01 X-119.25400 Y66.52646
G01 X-119.24869 Y66.52116
G04 P0 ( dwell for no time -- G64 should not smooth over this point )
G00 Z3.50000 ( retract )

G00 X-124.42645 Y60.40103 ( rapid move to begin. )
G01 F200.00000
( Mill infeed pass 1/1 )
G01 Z-0.20000
G04 P0 ( dwell for no time -- G64 should not smooth over this point )
G01 F400.00000
G01 X-124.42645 Y60.40103
G01 X-124.43844 Y60.56130
G01 X-124.44301 Y60.55673
G01 X-124.43250 Y60.45002
G01 X-124.43250 Y60.35200
G01 X-124.44301 Y60.24532
G01 X-124.43844 Y60.24075
G01 X-124.42645 Y60.40103
G04 P0 ( dwell for no time -- G64 should not smooth over this point )
G00 Z3.50000 ( retract )

G00 X-126.86724 Y59.77885 ( rapid move to begin. )
G01 F200.00000
( Mill infeed pass 1/1 )
G01 Z-0.20000
G04 P0 ( dwell for no time -- G64 should not smooth over this point )
G01 F400.00000
G01 X-126.86724 Y59.77885
G01 X-126.93011 Y59.66130
G01 X-126.93011 Y59.60100
G01 X-126.93971 Y59.50347
G01 X-126.96815 Y59.40966
G01 X-127.01436 Y59.32323
G01 X-127.07654 Y59.24746
G01 X-127.15230 Y59.18528
G01 X-127.23877 Y59.13908
G01 X-127.33254 Y59.11063
G01 X-127.40643 Y59.10334
G01 X-128.32896 Y58.18081
G01 X-128.32896 Y57.06504
G01 X-120.19700 Y57.06504
G01 X-120.14798 Y57.06263
G01 X-119.95288 Y57.04340
G01 X-119.85676 Y57.02430
G01 X-119.66916 Y56.96738
G01 X-119.57861 Y56.92986
G01 X-119.40571 Y56.83746
G01 X-119.32423 Y56.78300
G01 X-119.17269 Y56.65864
G01 X-119.13632 Y56.62570
G01 X-118.27567 Y55.76504
G01 X-116.56823 Y55.76504
G04 P0 ( dwell for no time -- G64 should not smooth over this point )
G00 Z3.50000 ( retract )

G00 X-113.61903 Y53.39992 ( rapid move to begin. )
G01 F200.00000
( Mill infeed pass 1/1 )
G01 Z-0.20000
G04 P0 ( dwell for no time -- G64 should not smooth over this point )
G01 F400.00000
G01 X-113.61903 Y53.39992
G01 X-113.61393 Y53.40206
G01 X-112.92866 Y54.08732
G01 X-112.82505 Y54.16680
G01 X-112.75825 Y54.20536
G01 X-112.67928 Y54.24219
G01 X-112.59511 Y54.26474
G01 X-112.50832 Y54.27234
G01 X-112.43120 Y54.27234
G01 X-112.34438 Y54.26474
G01 X-112.26021 Y54.24219
G01 X-112.18124 Y54.20536
G01 X-112.11444 Y54.16680
G01 X-112.01083 Y54.08732
G01 X-109.41155 Y51.48804
G01 X-109.36837 Y51.43881
G01 X-109.34469 Y51.40795
G01 X-109.29298 Y51.32474
G01 X-109.25846 Y51.23305
G01 X-109.23850 Y51.15855
G01 X-109.22145 Y51.02911
G01 X-109.22145 Y50.58337
G01 X-109.22575 Y50.51806
G01 X-109.23083 Y50.47951
G01 X-109.25308 Y50.38410
G01 X-109.29351 Y50.29487
G01 X-109.33207 Y50.22807
G01 X-109.41155 Y50.12446
G01 X-109.82752 Y49.70851
G01 X-109.83377 Y49.70036
G01 X-109.94728 Y49.55246
G01 X-110.04561 Y49.38212
G01 X-110.08114 Y49.29637
G01 X-110.12089 Y49.20039
G01 X-110.17180 Y49.01040
G01 X-110.19747 Y48.81537
G01 X-110.19747 Y48.61868
G01 X-110.17180 Y48.42366
G01 X-110.12092 Y48.23377
G01 X-110.11459 Y48.21850
G01 X-110.08607 Y48.12444
G01 X-110.07474 Y48.06745
G01 X-110.06514 Y47.96999
G01 X-110.06514 Y47.83199
G01 X-110.07385 Y47.73915
G01 X-110.08414 Y47.68472
G01 X-110.11716 Y47.57761
G01 X-110.17322 Y47.48055
G01 X-110.21904 Y47.41850
G01 X-110.27667 Y47.35325
G01 X-110.34474 Y47.29894
G01 X-110.42120 Y47.25731
G01 X-110.49189 Y47.22643
G01 X-110.57454 Y47.19864
G01 X-110.66077 Y47.18563
G01 X-110.66407 Y47.18571
G01 X-110.74794 Y47.18782
G01 X-110.82458 Y47.19645
G01 X-110.91005 Y47.21373
G01 X-110.99120 Y47.24560
G01 X-111.06560 Y47.29107
G01 X-111.12765 Y47.33689
G01 X-111.22150 Y47.42734
G01 X-111.33697 Y47.57204
G01 X-111.47987 Y47.70466
G01 X-111.64088 Y47.81446
G01 X-111.81650 Y47.89902
G01 X-112.00275 Y47.95647
G01 X-112.19549 Y47.98553
G01 X-112.39046 Y47.98553
G01 X-112.58317 Y47.95647
G01 X-112.76943 Y47.89902
G01 X-112.94504 Y47.81446
G01 X-112.96867 Y47.79838
G01 X-112.98416 Y47.78822
G01 X-112.99361 Y47.78225
G01 X-113.05978 Y47.74725
G01 X-113.13041 Y47.72254
G01 X-113.20491 Y47.70255
G01 X-113.33435 Y47.68551
G01 X-114.19950 Y47.68551
G01 X-114.32891 Y47.70255
G01 X-114.40341 Y47.72254
G01 X-114.48530 Y47.75233
G01 X-114.56079 Y47.79592
G01 X-114.62754 Y47.85193
G01 X-114.68207 Y47.90646
G01 X-114.73808 Y47.97321
G01 X-114.78167 Y48.04870
G01 X-114.81149 Y48.13062
G01 X-114.83145 Y48.20511
G01 X-114.84849 Y48.33450
G01 X-114.84849 Y51.84377
G01 X-114.86681 Y51.95944
G01 X-114.87311 Y51.99932
G01 X-114.87463 Y52.00399
G01 X-114.87872 Y52.01715
G01 X-114.88093 Y52.02464
G01 X-114.90135 Y52.16607
G01 X-114.90135 Y52.24318
G01 X-114.89376 Y52.33000
G01 X-114.87120 Y52.41417
G01 X-114.83437 Y52.49314
G01 X-114.79581 Y52.55994
G01 X-114.74583 Y52.63137
G01 X-114.68416 Y52.69304
G01 X-114.61273 Y52.74303
G01 X-114.54593 Y52.78158
G01 X-114.42548 Y52.83150
G01 X-114.38967 Y52.84110
G01 X-114.23788 Y52.90396
G01 X-114.23033 Y52.91316
G01 X-114.09749 Y53.02217
G01 X-114.09152 Y53.02713
G01 X-114.02757 Y53.08049
G01 X-114.02183 Y53.08524
G01 X-113.87605 Y53.20488
G01 X-113.87031 Y53.20963
G01 X-113.84154 Y53.23363
G01 X-113.79973 Y53.26655
G01 X-113.64055 Y53.38461
G01 X-113.61903 Y53.39992
G01 X-113.61106 Y53.40564
G01 X-112.46976 Y54.54691
G01 X-109.22100 Y51.29817
G01 X-109.22100 Y50.31433
G01 X-109.75765 Y49.77765
G01 X-109.79062 Y49.74131
G01 X-109.91498 Y49.58974
G01 X-109.96943 Y49.50824
G01 X-110.06186 Y49.33531
G01 X-110.09935 Y49.24476
G01 X-110.15628 Y49.05713
G01 X-110.17538 Y48.96102
G01 X-110.19458 Y48.76587
G01 X-110.19458 Y48.66785
G01 X-110.17533 Y48.47273
G01 X-110.15620 Y48.37659
G01 X-110.09925 Y48.18898
G01 X-110.06466 Y48.10547
G01 X-110.06466 Y42.09718
G01 X-113.40278 Y42.09702
G01 X-113.91499 Y42.60924
G01 X-113.91758 Y42.63555
G01 X-113.94606 Y42.72936
G01 X-113.99226 Y42.81579
G01 X-114.05444 Y42.89156
G01 X-114.13021 Y42.95374
G01 X-114.21664 Y42.99994
G01 X-114.31045 Y43.02842
G01 X-114.40798 Y43.03802
G01 X-114.45929 Y43.03802
G01 X-114.49650 Y43.05344
G01 X-114.59030 Y43.08188
G01 X-114.68644 Y43.10101
G01 X-114.78398 Y43.11061
G01 X-114.88200 Y43.11061
G01 X-114.97953 Y43.10101
G01 X-115.07567 Y43.08188
G01 X-115.16947 Y43.05344
G01 X-115.20668 Y43.03802
G01 X-115.25799 Y43.03802
G01 X-115.35553 Y43.02842
G01 X-115.44933 Y42.99994
G01 X-115.53577 Y42.95374
G01 X-115.61154 Y42.89156
G01 X-115.67371 Y42.81579
G01 X-115.71992 Y42.72936
G01 X-115.74839 Y42.63555
G01 X-115.75799 Y42.53802
G01 X-115.75799 Y42.48671
G01 X-115.77341 Y42.44950
G01 X-115.80186 Y42.35570
G01 X-115.82098 Y42.25956
G01 X-115.83058 Y42.16202
G01 X-115.83058 Y42.06400
G01 X-115.82098 Y41.96647
G01 X-115.80186 Y41.87033
G01 X-115.77341 Y41.77653
G01 X-115.75799 Y41.73932
G01 X-115.75799 Y41.68801
G01 X-115.74839 Y41.59047
G01 X-115.71992 Y41.49667
G01 X-115.67371 Y41.41023
G01 X-115.61154 Y41.33446
G01 X-115.53577 Y41.27229
G01 X-115.44933 Y41.22608
G01 X-115.35553 Y41.19761
G01 X-115.32921 Y41.19502
G01 X-114.52409 Y40.38991
G01 X-114.48774 Y40.35695
G01 X-114.41197 Y40.29477
G01 X-114.33046 Y40.24031
G01 X-114.24402 Y40.19411
G01 X-114.22409 Y40.18585
G01 X-114.15347 Y40.15659
G01 X-114.05967 Y40.12814
G01 X-114.01004 Y40.11829
G01 X-114.03882 Y40.06439
G01 X-114.07633 Y39.97384
G01 X-114.13326 Y39.78623
G01 X-114.15236 Y39.69012
G01 X-114.17158 Y39.49502
G01 X-114.17156 Y39.43681
G01 X-114.15573 Y39.39853
G01 X-114.06673 Y39.21034
G01 X-114.02800 Y39.13775
G01 X-113.92409 Y38.96439
G01 X-113.88698 Y38.90879
G01 X-113.76894 Y38.74963
G01 X-113.73196 Y38.70455
G01 X-113.60013 Y38.55911
G01 X-113.56089 Y38.51987
G01 X-113.41545 Y38.38804
G01 X-113.37037 Y38.35106
G01 X-113.34090 Y38.32921
G01 X-113.18119 Y38.28918
G01 X-113.13039 Y38.27907
G01 X-112.93435 Y38.24999
G01 X-112.89071 Y38.24567
G01 X-112.69468 Y38.23605
G01 X-112.65330 Y38.23605
G01 X-112.45726 Y38.24567
G01 X-112.41360 Y38.24999
G01 X-112.21756 Y38.27907
G01 X-112.16676 Y38.28918
G01 X-111.97075 Y38.33831
G01 X-111.90745 Y38.35753
G01 X-111.71142 Y38.42771
G01 X-111.62927 Y38.46183
G01 X-111.49557 Y38.52507
G01 X-99.00717 Y38.52505
G01 X-97.67200 Y39.86022
G01 X-97.67197 Y40.60434
G04 P0 ( dwell for no time -- G64 should not smooth over this point )
G00 Z3.50000 ( retract )

G00 X-97.67197 Y41.58966 ( rapid move to begin. )
G01 F200.00000
( Mill infeed pass 1/1 )
G01 Z-0.20000
G04 P0 ( dwell for no time -- G64 should not smooth over this point )
G01 F400.00000
G01 X-97.67197 Y41.58966
G01 X-97.67200 Y50.62200
G01 X-97.66958 Y50.67102
G01 X-97.65998 Y50.76856
G01 X-97.64086 Y50.86470
G01 X-97.61241 Y50.95850
G01 X-97.57489 Y51.04905
G01 X-97.52869 Y51.13549
G01 X-97.47423 Y51.21699
G01 X-97.41205 Y51.29276
G01 X-97.37909 Y51.32911
G01 X-94.96108 Y53.74711
G01 X-94.92473 Y53.78008
G01 X-94.84897 Y53.84226
G01 X-94.76746 Y53.89672
G01 X-94.68102 Y53.94292
G01 X-94.59047 Y53.98044
G01 X-94.49667 Y54.00889
G01 X-94.40053 Y54.02801
G01 X-94.30299 Y54.03761
G01 X-94.25400 Y54.04003
G01 X-90.15461 Y54.04003
G01 X-90.09165 Y54.09169
G01 X-90.01014 Y54.14615
G01 X-89.87184 Y54.22009
G01 X-89.78128 Y54.25758
G01 X-89.63120 Y54.30312
G01 X-89.53506 Y54.32222
G01 X-89.37900 Y54.33761
G01 X-89.32998 Y54.34000
G01 X-88.52998 Y54.34000
G01 X-88.48098 Y54.33761
G01 X-88.32490 Y54.32222
G01 X-88.22876 Y54.30312
G01 X-88.07870 Y54.25758
G01 X-87.98815 Y54.22009
G01 X-87.84984 Y54.14615
G01 X-87.76833 Y54.09169
G01 X-87.64710 Y53.99220
G01 X-87.57778 Y53.92288
G01 X-87.47832 Y53.80167
G01 X-87.42386 Y53.72017
G01 X-87.34992 Y53.58186
G01 X-87.31240 Y53.49131
G01 X-87.26689 Y53.34122
G01 X-87.24776 Y53.24508
G01 X-87.23239 Y53.08903
G01 X-87.23239 Y52.99101
G01 X-87.24776 Y52.83492
G01 X-87.26689 Y52.73881
G01 X-87.31240 Y52.58872
G01 X-87.34992 Y52.49817
G01 X-87.42386 Y52.35987
G01 X-87.47832 Y52.27836
G01 X-87.57778 Y52.15713
G01 X-87.64710 Y52.08783
G01 X-87.76833 Y51.98834
G01 X-87.84984 Y51.93388
G01 X-87.98815 Y51.85995
G01 X-88.07870 Y51.82243
G01 X-88.22876 Y51.77691
G01 X-88.26333 Y51.77000
G01 X-89.59647 Y51.77000
G01 X-89.63120 Y51.76312
G01 X-89.78128 Y51.71758
G01 X-89.87184 Y51.68009
G01 X-90.01014 Y51.60615
G01 X-90.09165 Y51.55169
G01 X-90.21288 Y51.45220
G01 X-90.28217 Y51.38288
G01 X-90.35019 Y51.30003
G01 X-90.42754 Y51.30003
G01 X-90.41926 Y51.34692
G01 X-90.41926 Y51.43406
G01 X-90.43440 Y51.51989
G01 X-90.45436 Y51.59441
G01 X-90.48418 Y51.67633
G01 X-90.52774 Y51.75182
G01 X-90.58377 Y51.81859
G01 X-90.63831 Y51.87313
G01 X-90.70506 Y51.92913
G01 X-90.78055 Y51.97272
G01 X-90.86244 Y52.00254
G01 X-90.93693 Y52.02251
G01 X-91.06637 Y52.03955
G01 X-93.57074 Y52.03955
G01 X-93.70015 Y52.02251
G01 X-93.77465 Y52.00254
G01 X-93.86644 Y51.96797
G01 X-93.94975 Y51.91613
G01 X-93.98062 Y51.89243
G01 X-94.02964 Y51.84943
G01 X-95.48140 Y50.39769
G01 X-95.56088 Y50.29409
G01 X-95.59943 Y50.22728
G01 X-95.63987 Y50.13805
G01 X-95.66212 Y50.04265
G01 X-95.66720 Y50.00409
G01 X-95.67149 Y49.93877
G01 X-95.67149 Y47.22401
G01 X-95.65445 Y47.09463
G01 X-95.63449 Y47.02013
G01 X-95.60467 Y46.93821
G01 X-95.56108 Y46.86272
G01 X-95.50507 Y46.79597
G01 X-95.45054 Y46.74144
G01 X-95.38379 Y46.68543
G01 X-95.30830 Y46.64185
G01 X-95.22641 Y46.61203
G01 X-95.15191 Y46.59206
G01 X-95.06609 Y46.57692
G01 X-94.97894 Y46.57692
G01 X-94.89311 Y46.59206
G01 X-94.81859 Y46.61203
G01 X-94.74455 Y46.63824
G01 X-94.67553 Y46.67573
G01 X-94.66248 Y46.68421
G01 X-94.64094 Y46.69902
G01 X-94.57175 Y46.74931
G01 X-94.52438 Y46.78373
G01 X-94.38404 Y46.85526
G01 X-94.23426 Y46.90392
G01 X-94.07874 Y46.92854
G01 X-90.37196 Y46.92854
G01 X-90.24252 Y46.94555
G01 X-90.16803 Y46.96552
G01 X-90.04745 Y47.01548
G01 X-89.90641 Y47.09691
G01 X-89.75807 Y47.15835
G01 X-89.74898 Y47.16211
G01 X-89.58423 Y47.20626
G01 X-89.41519 Y47.22851
G01 X-88.44474 Y47.22851
G01 X-88.27573 Y47.20626
G01 X-88.11103 Y47.16216
G01 X-87.95355 Y47.09691
G01 X-87.80588 Y47.01164
G01 X-87.78403 Y46.99491
G01 X-87.67067 Y46.90789
G01 X-87.55010 Y46.78734
G01 X-87.50793 Y46.73240
G01 X-87.44631 Y46.65208
G01 X-87.36107 Y46.50446
G01 X-87.29584 Y46.34698
G01 X-87.25172 Y46.18228
G01 X-87.22947 Y46.01327
G01 X-87.22947 Y45.84279
G01 X-87.25170 Y45.67385
G01 X-87.25338 Y45.66758
G01 X-87.29584 Y45.50913
G01 X-87.31421 Y45.46481
G01 X-87.36112 Y45.35153
G01 X-87.44634 Y45.20395
G01 X-87.56242 Y45.05264
G01 X-87.62764 Y44.93966
G01 X-87.65716 Y44.86842
G01 X-87.68337 Y44.78531
G01 X-87.69475 Y44.69892
G01 X-87.69094 Y44.61188
G01 X-87.68088 Y44.53540
G01 X-87.65863 Y44.43984
G01 X-87.63514 Y44.38803
G01 X-87.70537 Y44.38803
G01 X-87.76833 Y44.43969
G01 X-87.84984 Y44.49415
G01 X-87.98815 Y44.56809
G01 X-88.07870 Y44.60558
G01 X-88.22876 Y44.65112
G01 X-88.26346 Y44.65803
G04 P0 ( dwell for no time -- G64 should not smooth over this point )
G00 Z3.50000 ( retract )

G00 X-87.69772 Y42.38801 ( rapid move to begin. )
G01 F200.00000
( Mill infeed pass 1/1 )
G01 Z-0.20000
G04 P0 ( dwell for no time -- G64 should not smooth over this point )
G01 F400.00000
G01 X-87.69772 Y42.38801
G01 X-87.80618 Y42.30480
G01 X-87.95378 Y42.21958
G01 X-88.11121 Y42.15438
G01 X-88.12995 Y42.14935
G01 X-88.12995 Y42.15488
G01 X-88.07870 Y42.17043
G01 X-87.98815 Y42.20795
G01 X-87.84984 Y42.28188
G01 X-87.76833 Y42.33634
G01 X-87.70537 Y42.38801
G01 X-87.69772 Y42.38801
G04 P0 ( dwell for no time -- G64 should not smooth over this point )
G00 Z3.50000 ( retract )

G00 X-89.72998 Y42.14935 ( rapid move to begin. )
G01 F200.00000
( Mill infeed pass 1/1 )
G01 Z-0.20000
G04 P0 ( dwell for no time -- G64 should not smooth over this point )
G01 F400.00000
G01 X-89.72998 Y42.14935
G01 X-89.74875 Y42.15438
G01 X-89.90618 Y42.21958
G01 X-90.05378 Y42.30480
G01 X-90.18895 Y42.40853
G01 X-90.30945 Y42.52903
G01 X-90.35472 Y42.58801
G01 X-90.35019 Y42.58801
G01 X-90.28217 Y42.50513
G01 X-90.21288 Y42.43583
G01 X-90.09165 Y42.33634
G01 X-90.01014 Y42.28188
G01 X-89.87184 Y42.20795
G01 X-89.78128 Y42.17043
G01 X-89.72998 Y42.15488
G01 X-89.72998 Y42.14935
G04 P0 ( dwell for no time -- G64 should not smooth over this point )
G00 Z3.50000 ( retract )

G00 X-95.67195 Y45.65856 ( rapid move to begin. )
G01 F200.00000
( Mill infeed pass 1/1 )
G01 Z-0.20000
G04 P0 ( dwell for no time -- G64 should not smooth over this point )
G01 F400.00000
G01 X-95.67195 Y45.65856
G01 X-95.67198 Y50.20780
G01 X-93.83977 Y52.04001
G01 X-90.15461 Y52.04001
G01 X-90.09165 Y51.98834
G01 X-90.01014 Y51.93388
G01 X-89.87184 Y51.85995
G01 X-89.78128 Y51.82243
G01 X-89.63120 Y51.77691
G01 X-89.59647 Y51.77000
G04 P0 ( dwell for no time -- G64 should not smooth over this point )
G00 Z3.50000 ( retract )

G00 X-94.54307 Y60.37702 ( rapid move to begin. )
G01 F200.00000
( Mill infeed pass 1/1 )
G01 Z-0.20000
G04 P0 ( dwell for no time -- G64 should not smooth over this point )
G01 F400.00000
G01 X-94.54307 Y60.37702
G01 X-101.66495 Y60.37702
G01 X-101.71400 Y60.37461
G01 X-101.90907 Y60.35538
G01 X-102.00521 Y60.33628
G01 X-102.19282 Y60.27936
G01 X-102.28337 Y60.24184
G01 X-102.45627 Y60.14944
G01 X-102.53775 Y60.09498
G01 X-102.68929 Y59.97062
G01 X-102.72563 Y59.93768
G01 X-103.70160 Y58.96171
G01 X-103.73455 Y58.92534
G01 X-103.85896 Y58.77380
G01 X-103.91341 Y58.69232
G01 X-104.00582 Y58.51942
G01 X-104.04333 Y58.42887
G01 X-104.05776 Y58.38124
G04 P0 ( dwell for no time -- G64 should not smooth over this point )
G00 Z3.50000 ( retract )

G00 X-106.33340 Y60.33996 ( rapid move to begin. )
G01 F200.00000
( Mill infeed pass 1/1 )
G01 Z-0.20000
G04 P0 ( dwell for no time -- G64 should not smooth over this point )
G01 F400.00000
G01 X-106.33340 Y60.33996
G01 X-106.45097 Y60.36554
G01 X-106.66497 Y60.38086
G01 X-106.87899 Y60.36554
G01 X-106.99654 Y60.33996
G01 X-106.99489 Y60.33831
G01 X-106.90909 Y60.35538
G01 X-106.71399 Y60.37461
G01 X-106.61597 Y60.37461
G01 X-106.42090 Y60.35538
G01 X-106.33505 Y60.33831
G01 X-106.33340 Y60.33996
G04 P0 ( dwell for no time -- G64 should not smooth over this point )
G00 Z3.50000 ( retract )

G00 X-108.12628 Y58.54708 ( rapid move to begin. )
G01 F200.00000
( Mill infeed pass 1/1 )
G01 Z-0.20000
G04 P0 ( dwell for no time -- G64 should not smooth over this point )
G01 F400.00000
G01 X-108.12628 Y58.54708
G01 X-108.14338 Y58.63291
G01 X-108.16258 Y58.82800
G01 X-108.16258 Y58.92602
G01 X-108.14338 Y59.12112
G01 X-108.12628 Y59.20697
G01 X-108.12791 Y59.20860
G01 X-108.15349 Y59.09105
G01 X-108.16880 Y58.87703
G01 X-108.15349 Y58.66301
G01 X-108.12791 Y58.54545
G01 X-108.12628 Y58.54708
G04 P0 ( dwell for no time -- G64 should not smooth over this point )
G00 Z3.50000 ( retract )

G00 X-114.23033 Y52.91316 ( rapid move to begin. )
G01 F200.00000
( Mill infeed pass 1/1 )
G01 Z-0.20000
G04 P0 ( dwell for no time -- G64 should not smooth over this point )
G01 F400.00000
G01 X-114.23033 Y52.91316
G01 X-114.25459 Y52.90020
G01 X-114.34514 Y52.86269
G01 X-114.53275 Y52.80577
G01 X-114.62886 Y52.78666
G01 X-114.82396 Y52.76744
G01 X-114.87298 Y52.76502
G01 X-115.43475 Y52.76502
G04 P0 ( dwell for no time -- G64 should not smooth over this point )
G00 Z3.50000 ( retract )

G00 X-120.31823 Y53.56505 ( rapid move to begin. )
G01 F200.00000
( Mill infeed pass 1/1 )
G01 Z-0.20000
G04 P0 ( dwell for no time -- G64 should not smooth over this point )
G01 F400.00000
G01 X-120.31823 Y53.56505
G01 X-120.62816 Y53.56505
G01 X-120.62892 Y53.56685
G01 X-120.70284 Y53.70518
G01 X-120.75730 Y53.78666
G01 X-120.85679 Y53.90790
G01 X-120.92610 Y53.97721
G01 X-121.03309 Y54.06502
G04 P0 ( dwell for no time -- G64 should not smooth over this point )
G00 Z3.50000 ( retract )

G00 X-123.38482 Y54.06505 ( rapid move to begin. )
G01 F200.00000
( Mill infeed pass 1/1 )
G01 Z-0.20000
G04 P0 ( dwell for no time -- G64 should not smooth over this point )
G01 F400.00000
G01 X-123.38482 Y54.06505
G01 X-128.65309 Y54.06502
G01 X-128.67150 Y54.07162
G01 X-128.76541 Y54.10017
G01 X-128.92223 Y54.13947
G01 X-128.98380 Y54.15250
G01 X-129.01987 Y54.16540
G01 X-129.09591 Y54.18854
G01 X-129.29195 Y54.23766
G01 X-129.35489 Y54.25021
G01 X-129.55093 Y54.27927
G01 X-129.60638 Y54.28476
G01 X-129.80241 Y54.29438
G01 X-129.85553 Y54.29438
G01 X-130.05154 Y54.28476
G01 X-130.10699 Y54.27927
G01 X-130.30302 Y54.25021
G01 X-130.36596 Y54.23766
G01 X-130.56200 Y54.18854
G01 X-130.63805 Y54.16543
G01 X-130.67409 Y54.15252
G01 X-130.73569 Y54.13947
G01 X-130.89251 Y54.10020
G01 X-130.98651 Y54.07160
G01 X-131.00482 Y54.06505
G01 X-131.11186 Y53.97721
G01 X-131.18118 Y53.90790
G01 X-131.28067 Y53.78666
G01 X-131.33513 Y53.70518
G01 X-131.40904 Y53.56685
G01 X-131.44656 Y53.47630
G01 X-131.49210 Y53.32624
G01 X-131.51100 Y53.23109
G01 X-131.51120 Y53.23010
G01 X-131.51232 Y53.21882
G01 X-132.15682 Y53.21877
G01 X-132.15936 Y53.21770
G01 X-132.15938 Y53.21770
G01 X-132.16296 Y53.21623
G01 X-132.21092 Y53.19771
G01 X-132.40698 Y53.12756
G01 X-132.48498 Y53.10383
G01 X-132.68100 Y53.05471
G01 X-132.74582 Y53.04181
G01 X-132.94185 Y53.01272
G01 X-132.99911 Y53.00706
G01 X-133.19514 Y52.99743
G01 X-133.22260 Y52.99677
G01 X-138.70448 Y52.99677
G01 X-138.75627 Y52.98654
G01 X-138.95231 Y52.95745
G01 X-138.99881 Y52.95286
G01 X-139.19488 Y52.94323
G01 X-139.23912 Y52.94323
G01 X-139.43514 Y52.95286
G01 X-139.48164 Y52.95745
G01 X-139.67768 Y52.98654
G01 X-139.73145 Y52.99726
G01 X-139.91283 Y53.04270
G01 X-140.01700 Y53.04270
G01 X-140.34199 Y53.12393
G01 X-140.46749 Y53.21803
G01 X-141.34445 Y53.21801
G01 X-141.34544 Y53.21793
G01 X-145.10729 Y53.21816
G01 X-145.17259 Y53.22245
G01 X-145.21115 Y53.22753
G01 X-145.27193 Y53.23965
G01 X-145.35397 Y53.25044
G01 X-145.46860 Y53.26551
G01 X-148.96735 Y53.26551
G01 X-149.16222 Y53.23988
G01 X-149.35234 Y53.18895
G01 X-149.53405 Y53.11369
G01 X-149.70438 Y53.01532
G01 X-149.86044 Y52.89558
G01 X-149.99953 Y52.75649
G01 X-150.11926 Y52.60043
G01 X-150.21764 Y52.43010
G01 X-150.29290 Y52.24839
G01 X-150.34380 Y52.05840
G01 X-150.36945 Y51.86340
G01 X-150.36945 Y51.66665
G01 X-150.34380 Y51.47166
G01 X-150.29290 Y51.28166
G01 X-150.21764 Y51.09995
G01 X-150.11926 Y50.92962
G01 X-149.99955 Y50.77359
G01 X-149.86044 Y50.63447
G01 X-149.70438 Y50.51474
G01 X-149.53405 Y50.41636
G01 X-149.35234 Y50.34110
G01 X-149.16234 Y50.29020
G01 X-148.96735 Y50.26455
G01 X-145.97934 Y50.26455
G01 X-145.91407 Y50.26025
G01 X-145.87548 Y50.25517
G01 X-145.81468 Y50.24306
G01 X-145.71551 Y50.23000
G01 X-145.61803 Y50.21720
G01 X-141.12469 Y50.21720
G01 X-141.06833 Y50.21400
G01 X-141.03518 Y50.21024
G01 X-140.94405 Y50.19119
G01 X-140.85804 Y50.15555
G01 X-140.78984 Y50.11954
G01 X-140.71654 Y50.07222
G01 X-140.65256 Y50.01286
G01 X-140.59990 Y49.94329
G01 X-140.55888 Y49.87796
G01 X-140.54605 Y49.85299
G01 X-140.48934 Y49.95911
G01 X-140.43485 Y50.04059
G01 X-140.31047 Y50.19211
G01 X-140.28731 Y50.21768
G04 P0 ( dwell for no time -- G64 should not smooth over this point )
G00 Z3.50000 ( retract )

G00 X-132.15936 Y53.21770 ( rapid move to begin. )
G01 F200.00000
( Mill infeed pass 1/1 )
G01 Z-0.20000
G04 P0 ( dwell for no time -- G64 should not smooth over this point )
G01 F400.00000
G01 X-132.15936 Y53.21770
G01 X-131.31206 Y54.06502
G01 X-131.00482 Y54.06505
G04 P0 ( dwell for no time -- G64 should not smooth over this point )
G00 Z3.50000 ( retract )

G00 X-128.65309 Y54.06502 ( rapid move to begin. )
G01 F200.00000
( Mill infeed pass 1/1 )
G01 Z-0.20000
G04 P0 ( dwell for no time -- G64 should not smooth over this point )
G01 F400.00000
G01 X-128.65309 Y54.06502
G01 X-128.54610 Y53.97721
G01 X-128.47679 Y53.90790
G01 X-128.37730 Y53.78666
G01 X-128.32284 Y53.70518
G01 X-128.24892 Y53.56685
G01 X-128.21141 Y53.47630
G01 X-128.16589 Y53.32624
G01 X-128.14677 Y53.23010
G01 X-128.13140 Y53.07401
G01 X-128.13140 Y52.97600
G01 X-128.14677 Y52.81994
G01 X-128.16589 Y52.72380
G01 X-128.21141 Y52.57374
G01 X-128.24892 Y52.48316
G01 X-128.32284 Y52.34486
G01 X-128.32896 Y52.33571
G01 X-128.32896 Y51.17432
G01 X-128.32284 Y51.16518
G01 X-128.24892 Y51.02685
G01 X-128.21141 Y50.93630
G01 X-128.16589 Y50.78624
G01 X-128.14677 Y50.69010
G01 X-128.13140 Y50.53401
G01 X-128.13140 Y50.43600
G01 X-128.14677 Y50.27994
G01 X-128.16589 Y50.18380
G01 X-128.21141 Y50.03374
G01 X-128.24892 Y49.94316
G01 X-128.32284 Y49.80486
G01 X-128.37730 Y49.72335
G01 X-128.47679 Y49.60214
G01 X-128.54610 Y49.53282
G01 X-128.65304 Y49.44507
G01 X-128.67153 Y49.43846
G04 P0 ( dwell for no time -- G64 should not smooth over this point )
G00 Z3.50000 ( retract )

G00 X-131.00495 Y49.44507 ( rapid move to begin. )
G01 F200.00000
( Mill infeed pass 1/1 )
G01 Z-0.20000
G04 P0 ( dwell for no time -- G64 should not smooth over this point )
G01 F400.00000
G01 X-131.00495 Y49.44507
G01 X-131.11186 Y49.53282
G01 X-131.18118 Y49.60214
G01 X-131.28067 Y49.72335
G01 X-131.33513 Y49.80486
G01 X-131.40904 Y49.94316
G01 X-131.44656 Y50.03374
G01 X-131.49210 Y50.18380
G01 X-131.49883 Y50.21766
G01 X-132.04307 Y50.21766
G04 P0 ( dwell for no time -- G64 should not smooth over this point )
G00 Z3.50000 ( retract )

G00 X-143.46965 Y41.58105 ( rapid move to begin. )
G01 F200.00000
( Mill infeed pass 1/1 )
G01 Z-0.20000
G04 P0 ( dwell for no time -- G64 should not smooth over this point )
G01 F400.00000
G01 X-143.46965 Y41.58105
G01 X-143.00770 Y42.04297
G01 X-142.91367 Y42.13700
G01 X-138.70900 Y42.13700
G01 X-138.65998 Y42.13942
G01 X-138.46488 Y42.15864
G01 X-138.36877 Y42.17774
G01 X-138.18116 Y42.23467
G01 X-138.09061 Y42.27218
G01 X-137.91771 Y42.36459
G01 X-137.83623 Y42.41904
G01 X-137.68469 Y42.54340
G01 X-137.61538 Y42.61272
G01 X-137.49102 Y42.76426
G01 X-137.43656 Y42.84574
G01 X-137.34416 Y43.01864
G01 X-137.30664 Y43.10919
G01 X-137.24972 Y43.29679
G01 X-137.23062 Y43.39291
G01 X-137.21139 Y43.58800
G01 X-137.21139 Y43.68602
G01 X-137.23062 Y43.88112
G01 X-137.24972 Y43.97723
G01 X-137.30664 Y44.16484
G01 X-137.34416 Y44.25539
G01 X-137.43656 Y44.42829
G01 X-137.49102 Y44.50977
G01 X-137.61538 Y44.66131
G01 X-137.68469 Y44.73062
G01 X-137.83623 Y44.85498
G01 X-137.91771 Y44.90944
G01 X-138.09061 Y45.00184
G01 X-138.18116 Y45.03936
G01 X-138.36877 Y45.09628
G01 X-138.46488 Y45.11538
G01 X-138.65998 Y45.13461
G01 X-138.70900 Y45.13702
G01 X-143.53500 Y45.13702
G01 X-143.58400 Y45.13461
G01 X-143.77909 Y45.11538
G01 X-143.87521 Y45.09628
G01 X-144.06281 Y45.03936
G01 X-144.15336 Y45.00184
G01 X-144.32626 Y44.90944
G01 X-144.40774 Y44.85498
G01 X-144.55928 Y44.73062
G01 X-144.59565 Y44.69768
G01 X-146.18831 Y43.10502
G01 X-152.45698 Y43.10502
G01 X-152.46661 Y43.20256
G01 X-152.49505 Y43.29636
G01 X-152.53806 Y43.37683
G01 X-152.56757 Y43.41485
G01 X-152.60343 Y43.45857
G01 X-152.67920 Y43.52074
G01 X-152.76564 Y43.56695
G01 X-152.85944 Y43.59539
G01 X-152.95698 Y43.60502
G01 X-155.95700 Y43.60502
G01 X-156.05453 Y43.59539
G01 X-156.14834 Y43.56695
G01 X-156.23477 Y43.52074
G01 X-156.25898 Y43.50098
G04 P0 ( dwell for no time -- G64 should not smooth over this point )
G00 Z3.50000 ( retract )

G00 X-156.25898 Y39.70907 ( rapid move to begin. )
G01 F200.00000
( Mill infeed pass 1/1 )
G01 Z-0.20000
G04 P0 ( dwell for no time -- G64 should not smooth over this point )
G01 F400.00000
G01 X-156.25898 Y39.70907
G01 X-156.25898 Y33.96102
G01 X-155.77046 Y33.96102
G01 X-155.60754 Y34.09473
G01 X-155.52604 Y34.14919
G01 X-155.26670 Y34.28779
G01 X-155.17615 Y34.32531
G01 X-154.89477 Y34.41065
G01 X-154.79863 Y34.42978
G01 X-154.58888 Y34.45043
G01 X-149.39625 Y39.64305
G01 X-149.16765 Y39.87168
G01 X-149.13128 Y39.90462
G01 X-148.97974 Y40.02898
G01 X-148.89826 Y40.08344
G01 X-148.85787 Y40.10503
G04 P0 ( dwell for no time -- G64 should not smooth over this point )
G00 Z3.50000 ( retract )

G00 X-152.45302 Y46.68503 ( rapid move to begin. )
G01 F200.00000
( Mill infeed pass 1/1 )
G01 Z-0.20000
G04 P0 ( dwell for no time -- G64 should not smooth over this point )
G01 F400.00000
G01 X-152.45302 Y46.68503
G01 X-152.46882 Y46.43384
G01 X-152.51598 Y46.18668
G01 X-152.59231 Y45.95173
G01 X-152.59673 Y45.95615
G01 X-152.59269 Y45.96585
G01 X-152.50735 Y46.24723
G01 X-152.48822 Y46.34337
G01 X-152.45939 Y46.63600
G01 X-152.45939 Y46.73402
G01 X-152.48822 Y47.02666
G01 X-152.50735 Y47.12279
G01 X-152.59269 Y47.40418
G01 X-152.59673 Y47.41390
G01 X-152.59231 Y47.41832
G01 X-152.51598 Y47.18337
G01 X-152.46882 Y46.93621
G01 X-152.45302 Y46.68503
G04 P0 ( dwell for no time -- G64 should not smooth over this point )
G00 Z3.50000 ( retract )

G00 X-155.24900 Y63.21702 ( rapid move to begin. )
G01 F200.00000
( Mill infeed pass 1/1 )
G01 Z-0.20000
G04 P0 ( dwell for no time -- G64 should not smooth over this point )
G01 F400.00000
G01 X-155.24900 Y63.21702
G01 X-155.34653 Y63.20740
G01 X-155.44034 Y63.17895
G01 X-155.52677 Y63.13274
G01 X-155.60254 Y63.07057
G01 X-155.66472 Y62.99480
G01 X-155.71092 Y62.90836
G01 X-155.73937 Y62.81456
G01 X-155.74900 Y62.71702
G01 X-155.74900 Y60.11700
G01 X-155.73937 Y60.01947
G01 X-155.71092 Y59.92566
G01 X-155.66472 Y59.83923
G01 X-155.60254 Y59.76346
G01 X-155.52677 Y59.70128
G01 X-155.44034 Y59.65508
G01 X-155.34653 Y59.62663
G01 X-155.24902 Y59.61703
G01 X-155.28476 Y59.61703
G01 X-155.33454 Y59.62145
G01 X-155.43094 Y59.64903
G01 X-155.56010 Y59.66826
G01 X-155.63721 Y59.66956
G01 X-155.72416 Y59.66341
G01 X-155.80871 Y59.64228
G01 X-155.88829 Y59.60677
G01 X-155.95573 Y59.56933
G01 X-156.02794 Y59.52056
G01 X-156.09060 Y59.45998
G01 X-156.14178 Y59.38945
G01 X-156.18146 Y59.32333
G01 X-156.22408 Y59.23285
G01 X-156.24785 Y59.13570
G01 X-156.25362 Y59.09470
G01 X-156.25849 Y59.02506
G01 X-156.25849 Y49.07433
G01 X-156.24145 Y48.94491
G01 X-156.22149 Y48.87042
G01 X-156.19167 Y48.78855
G01 X-156.14808 Y48.71304
G01 X-156.09207 Y48.64629
G01 X-156.03754 Y48.59175
G01 X-155.97079 Y48.53575
G01 X-155.89530 Y48.49216
G01 X-155.83249 Y48.46932
G01 X-155.81341 Y48.46234
G01 X-155.73891 Y48.44238
G01 X-155.65479 Y48.42739
G01 X-155.56934 Y48.42696
G01 X-155.48506 Y48.44108
G01 X-155.41328 Y48.45955
G01 X-155.34013 Y48.48843
G01 X-155.33945 Y48.48667
G01 X-155.07623 Y48.59091
G01 X-154.83249 Y48.65350
G01 X-154.58281 Y48.68502
G01 X-154.33117 Y48.68502
G01 X-154.08149 Y48.65347
G01 X-153.83770 Y48.59089
G01 X-153.72652 Y48.54687
G01 X-153.72810 Y48.54527
G01 X-153.73782 Y48.54931
G01 X-154.01921 Y48.63465
G01 X-154.11534 Y48.65378
G01 X-154.40798 Y48.68261
G01 X-154.50600 Y48.68261
G01 X-154.79863 Y48.65378
G01 X-154.89477 Y48.63465
G01 X-155.17615 Y48.54931
G01 X-155.26670 Y48.51179
G01 X-155.52604 Y48.37321
G01 X-155.60754 Y48.31873
G01 X-155.83485 Y48.13219
G01 X-155.90416 Y48.06287
G01 X-156.09070 Y47.83559
G01 X-156.14516 Y47.75409
G01 X-156.25895 Y47.54116
G01 X-156.27213 Y47.48853
G01 X-156.29080 Y47.39498
G01 X-156.33442 Y47.10093
G01 X-156.34257 Y47.01853
G01 X-156.35700 Y46.72442
G01 X-156.35700 Y46.64560
G01 X-156.34257 Y46.35155
G01 X-156.33442 Y46.26913
G01 X-156.29080 Y45.97507
G01 X-156.27213 Y45.88152
G01 X-156.25895 Y45.82884
G01 X-156.14516 Y45.61596
G01 X-156.09070 Y45.53446
G01 X-155.90416 Y45.30715
G01 X-155.83485 Y45.23784
G01 X-155.60754 Y45.05130
G01 X-155.52604 Y44.99684
G01 X-155.26670 Y44.85823
G01 X-155.17615 Y44.82072
G01 X-154.89477 Y44.73537
G01 X-154.79863 Y44.71625
G01 X-154.50600 Y44.68742
G01 X-154.40798 Y44.68742
G01 X-154.11534 Y44.71625
G01 X-154.01921 Y44.73537
G01 X-153.73782 Y44.82072
G01 X-153.72807 Y44.82475
G01 X-153.71743 Y44.81411
G01 X-153.75278 Y44.79445
G01 X-153.81471 Y44.74845
G01 X-153.87986 Y44.69059
G01 X-153.93399 Y44.62229
G01 X-153.97544 Y44.54563
G01 X-154.00607 Y44.47484
G01 X-154.03358 Y44.39214
G01 X-154.04631 Y44.30593
G01 X-154.04387 Y44.21881
G01 X-154.03500 Y44.14221
G01 X-154.01748 Y44.05686
G01 X-153.98542 Y43.97584
G01 X-153.93978 Y43.90162
G01 X-153.89381 Y43.83969
G01 X-153.83592 Y43.77449
G01 X-153.76759 Y43.72034
G01 X-153.69091 Y43.67886
G01 X-153.62012 Y43.64823
G01 X-153.54085 Y43.62156
G01 X-153.45822 Y43.60845
G01 X-153.43645 Y43.60685
G01 X-153.39980 Y43.60550
G01 X-152.92114 Y43.60550
G01 X-152.87125 Y43.60108
G01 X-152.77034 Y43.57220
G01 X-152.68014 Y43.52509
G01 X-152.60125 Y43.46075
G01 X-152.50633 Y43.34437
G01 X-152.41136 Y43.25486
G01 X-152.34883 Y43.20975
G01 X-152.25256 Y43.15537
G01 X-152.14669 Y43.12349
G01 X-152.09376 Y43.11376
G01 X-152.00339 Y43.10551
G01 X-146.45735 Y43.10551
G01 X-146.32791 Y43.12255
G01 X-146.25341 Y43.14251
G01 X-146.16172 Y43.17703
G01 X-146.07851 Y43.22875
G01 X-146.04764 Y43.25242
G01 X-145.99842 Y43.29560
G01 X-144.52644 Y44.76758
G01 X-144.40376 Y44.86171
G01 X-144.37041 Y44.88732
G01 X-144.29337 Y44.93179
G01 X-144.20005 Y44.98569
G01 X-144.17754 Y44.99499
G01 X-144.01831 Y45.06095
G01 X-143.89850 Y45.09305
G01 X-143.82832 Y45.11185
G01 X-143.73086 Y45.12470
G01 X-143.63337 Y45.13750
G01 X-138.61060 Y45.13750
G01 X-138.41560 Y45.11185
G01 X-138.22561 Y45.06095
G01 X-138.04390 Y44.98569
G01 X-137.87357 Y44.88732
G01 X-137.71751 Y44.76758
G01 X-137.57842 Y44.62849
G01 X-137.45869 Y44.47243
G01 X-137.36031 Y44.30210
G01 X-137.28505 Y44.12039
G01 X-137.23415 Y43.93040
G01 X-137.20849 Y43.73540
G01 X-137.20849 Y43.53865
G01 X-137.23415 Y43.34366
G01 X-137.28505 Y43.15366
G01 X-137.34888 Y42.99959
G01 X-137.36031 Y42.97198
G01 X-137.36864 Y42.95758
G01 X-137.45866 Y42.80164
G01 X-137.59371 Y42.62562
G01 X-137.65901 Y42.51254
G01 X-137.68853 Y42.44127
G01 X-137.71474 Y42.35811
G01 X-137.72610 Y42.27167
G01 X-137.72229 Y42.18458
G01 X-137.71220 Y42.10812
G01 X-137.69404 Y42.02628
G01 X-137.69333 Y42.02311
G01 X-137.65998 Y41.94264
G01 X-137.61319 Y41.86919
G01 X-137.56625 Y41.80800
G01 X-137.50738 Y41.74371
G01 X-137.43821 Y41.69065
G01 X-137.36089 Y41.65039
G01 X-137.28965 Y41.62088
G01 X-137.21210 Y41.59593
G01 X-137.13151 Y41.58392
G01 X-137.11205 Y41.58262
G01 X-137.07885 Y41.58151
G01 X-134.54657 Y41.58151
G01 X-134.44909 Y41.56870
G01 X-134.35166 Y41.55585
G01 X-134.16159 Y41.50492
G01 X-133.97990 Y41.42969
G01 X-133.80954 Y41.33132
G01 X-133.73494 Y41.27406
G01 X-133.65351 Y41.21158
G01 X-128.05340 Y35.61146
G01 X-128.03556 Y35.58825
G01 X-128.02137 Y35.56973
G01 X-127.93368 Y35.45546
G01 X-127.89447 Y35.38751
G01 X-127.83531 Y35.28507
G01 X-127.76005 Y35.10339
G01 X-127.70067 Y34.88175
G01 X-127.69965 Y34.88203
G01 X-127.67643 Y34.79526
G01 X-127.64692 Y34.72399
G01 X-127.60666 Y34.64664
G01 X-127.55357 Y34.57748
G01 X-127.48929 Y34.51858
G01 X-127.42810 Y34.47164
G01 X-127.35459 Y34.42480
G01 X-127.27405 Y34.39148
G01 X-127.18896 Y34.37263
G01 X-127.11248 Y34.36257
G01 X-127.02543 Y34.35876
G01 X-126.93905 Y34.37014
G01 X-126.85594 Y34.39635
G01 X-126.78469 Y34.42587
G01 X-126.71200 Y34.46321
G01 X-126.64636 Y34.51187
G01 X-126.63171 Y34.52472
G01 X-126.60783 Y34.54710
G01 X-125.47474 Y35.68020
G01 X-124.36674 Y36.78817
G01 X-124.23936 Y36.88073
G01 X-124.09905 Y36.95223
G01 X-123.94926 Y37.00089
G01 X-123.79374 Y37.02551
G01 X-116.15624 Y37.02551
G01 X-116.02680 Y37.04255
G01 X-115.95230 Y37.06251
G01 X-115.87041 Y37.09233
G01 X-115.79492 Y37.13592
G01 X-115.72817 Y37.19193
G01 X-115.67364 Y37.24646
G01 X-115.61763 Y37.31321
G01 X-115.57404 Y37.38870
G01 X-115.54423 Y37.47059
G01 X-115.52426 Y37.54509
G01 X-115.50912 Y37.63094
G01 X-115.50912 Y37.71809
G01 X-115.52426 Y37.80394
G01 X-115.54423 Y37.87844
G01 X-115.57874 Y37.97013
G01 X-115.63046 Y38.05334
G01 X-115.65413 Y38.08420
G01 X-115.69731 Y38.13343
G01 X-118.88255 Y41.31869
G01 X-118.98615 Y41.39817
G01 X-119.05296 Y41.43673
G01 X-119.13192 Y41.47356
G01 X-119.21610 Y41.49611
G01 X-119.30292 Y41.50370
G01 X-119.38006 Y41.50370
G01 X-119.46687 Y41.49608
G01 X-119.55105 Y41.47353
G01 X-119.63004 Y41.43670
G01 X-119.66441 Y41.41686
G01 X-119.68285 Y41.40881
G01 X-119.73639 Y41.37160
G01 X-119.73738 Y41.37300
G01 X-119.89659 Y41.25732
G01 X-120.03693 Y41.18582
G01 X-120.18668 Y41.13716
G01 X-120.34221 Y41.11254
G01 X-122.78574 Y41.11254
G01 X-122.94129 Y41.13716
G01 X-122.99943 Y41.15606
G01 X-123.05394 Y41.17043
G01 X-123.08678 Y41.17714
G01 X-123.14253 Y41.18527
G01 X-123.21767 Y41.19195
G01 X-123.31858 Y41.22083
G01 X-123.40880 Y41.26794
G01 X-123.48769 Y41.33231
G01 X-123.55206 Y41.41120
G01 X-123.59917 Y41.50142
G01 X-123.62805 Y41.60236
G01 X-123.63440 Y41.67373
G01 X-123.63463 Y41.67637
G01 X-123.64286 Y41.73324
G01 X-123.64957 Y41.76609
G01 X-123.66394 Y41.82062
G01 X-123.68284 Y41.87874
G01 X-123.70746 Y42.03426
G01 X-123.70746 Y42.19179
G01 X-123.68284 Y42.34732
G01 X-123.66394 Y42.40543
G01 X-123.64957 Y42.46001
G01 X-123.64286 Y42.49288
G01 X-123.63473 Y42.54858
G01 X-123.62805 Y42.62372
G01 X-123.59917 Y42.72466
G01 X-123.55206 Y42.81485
G01 X-123.48772 Y42.89375
G01 X-123.40880 Y42.95808
G01 X-123.36778 Y42.97952
G01 X-123.31856 Y43.00523
G01 X-123.21767 Y43.03411
G01 X-123.14251 Y43.04079
G01 X-123.08676 Y43.04891
G01 X-123.05391 Y43.05562
G01 X-122.99938 Y43.07000
G01 X-122.94131 Y43.08887
G01 X-122.93176 Y43.09039
G01 X-122.78571 Y43.11351
G01 X-121.10423 Y43.11351
G01 X-120.97480 Y43.13055
G01 X-120.90030 Y43.15051
G01 X-120.80860 Y43.18503
G01 X-120.72539 Y43.23675
G01 X-120.69453 Y43.26042
G01 X-120.64531 Y43.30360
G01 X-119.96543 Y43.98348
G01 X-117.29119 Y46.65775
G01 X-117.21181 Y46.76117
G01 X-117.17323 Y46.82793
G01 X-117.12042 Y46.95952
G01 X-117.11910 Y46.96493
G01 X-117.11737 Y46.97220
G01 X-117.09517 Y47.06943
G01 X-117.02398 Y47.25086
G01 X-116.93642 Y47.40250
G01 X-116.88646 Y47.52307
G01 X-116.86650 Y47.59757
G01 X-116.84946 Y47.72698
G01 X-116.84946 Y48.08007
G01 X-116.86650 Y48.20951
G01 X-116.88646 Y48.28403
G01 X-116.92098 Y48.37570
G01 X-116.97270 Y48.45891
G01 X-116.99637 Y48.48977
G01 X-117.03955 Y48.53900
G01 X-117.31092 Y48.81035
G01 X-117.43569 Y48.93511
G01 X-117.41862 Y49.02091
G01 X-117.39939 Y49.21601
G01 X-117.39939 Y49.31403
G01 X-117.41862 Y49.50912
G01 X-117.43569 Y49.59493
G01 X-117.03955 Y49.99106
G01 X-116.96007 Y50.09467
G01 X-116.92151 Y50.16147
G01 X-116.88108 Y50.25070
G01 X-116.85883 Y50.34611
G01 X-116.85375 Y50.38466
G01 X-116.84946 Y50.44997
G01 X-116.84946 Y50.91552
G01 X-116.86650 Y51.04496
G01 X-116.88646 Y51.11946
G01 X-116.91628 Y51.20135
G01 X-116.95987 Y51.27684
G01 X-117.01588 Y51.34359
G01 X-117.07041 Y51.39812
G01 X-117.13716 Y51.45413
G01 X-117.21265 Y51.49772
G01 X-117.29454 Y51.52754
G01 X-117.36904 Y51.54750
G01 X-117.49848 Y51.56454
G01 X-117.85799 Y51.56454
G01 X-117.98740 Y51.54750
G01 X-118.06190 Y51.52754
G01 X-118.14379 Y51.49772
G01 X-118.21928 Y51.45413
G01 X-118.28603 Y51.39812
G01 X-118.34056 Y51.34359
G01 X-118.39657 Y51.27684
G01 X-118.44016 Y51.20135
G01 X-118.46998 Y51.11946
G01 X-118.48994 Y51.04496
G01 X-118.50508 Y50.95911
G01 X-118.50508 Y50.87196
G01 X-118.49253 Y50.80084
G01 X-118.56705 Y50.72632
G01 X-118.65288 Y50.74339
G01 X-118.84798 Y50.76261
G01 X-118.94600 Y50.76261
G01 X-119.14109 Y50.74339
G01 X-119.23721 Y50.72429
G01 X-119.42481 Y50.66736
G01 X-119.51536 Y50.62985
G01 X-119.68826 Y50.53744
G01 X-119.76974 Y50.48299
G01 X-119.92128 Y50.35863
G01 X-119.95765 Y50.32568
G01 X-120.83830 Y49.44504
G01 X-121.03304 Y49.44507
G01 X-121.05153 Y49.43846
G01 X-121.14536 Y49.40991
G01 X-121.30218 Y49.37062
G01 X-121.38407 Y49.35429
G01 X-121.54089 Y49.33105
G01 X-121.61582 Y49.32363
G01 X-121.77264 Y49.31593
G01 X-121.80898 Y49.31504
G01 X-122.60898 Y49.31504
G01 X-122.64530 Y49.31593
G01 X-122.80215 Y49.32363
G01 X-122.87708 Y49.33105
G01 X-123.03390 Y49.35429
G01 X-123.11571 Y49.37062
G01 X-123.27258 Y49.40991
G01 X-123.36649 Y49.43846
G01 X-123.38482 Y49.44504
G01 X-123.48607 Y49.44504
G01 X-123.52079 Y49.52165
G01 X-123.54022 Y49.55530
G01 X-123.57654 Y49.60968
G01 X-123.69262 Y49.76094
G01 X-123.77786 Y49.90862
G01 X-123.84309 Y50.06610
G01 X-123.88721 Y50.23076
G01 X-123.90946 Y50.39980
G01 X-123.90946 Y50.57026
G01 X-123.88721 Y50.73930
G01 X-123.84309 Y50.90394
G01 X-123.77784 Y51.06147
G01 X-123.69262 Y51.20912
G01 X-123.57685 Y51.36000
G01 X-123.51162 Y51.47298
G01 X-123.48211 Y51.54422
G01 X-123.45589 Y51.62733
G01 X-123.44451 Y51.71372
G01 X-123.44832 Y51.80076
G01 X-123.45838 Y51.87724
G01 X-123.48063 Y51.97280
G01 X-123.52115 Y52.06215
G01 X-123.54060 Y52.09584
G01 X-123.57687 Y52.15011
G01 X-123.69262 Y52.30094
G01 X-123.77786 Y52.44862
G01 X-123.84309 Y52.60610
G01 X-123.88721 Y52.77076
G01 X-123.90946 Y52.93980
G01 X-123.90946 Y53.11026
G01 X-123.88294 Y53.31178
G01 X-123.88470 Y53.31201
G01 X-123.87776 Y53.38849
G01 X-123.87873 Y53.46078
G01 X-123.88708 Y53.54536
G01 X-123.90964 Y53.62730
G01 X-123.94576 Y53.70426
G01 X-123.98434 Y53.77104
G01 X-124.03430 Y53.84236
G01 X-124.09590 Y53.90393
G01 X-124.16725 Y53.95390
G01 X-124.23402 Y53.99245
G01 X-124.32330 Y54.03289
G01 X-124.41873 Y54.05517
G01 X-124.45729 Y54.06025
G01 X-124.52262 Y54.06454
G01 X-127.51535 Y54.06454
G01 X-127.64476 Y54.04749
G01 X-127.71926 Y54.02753
G01 X-127.80115 Y53.99771
G01 X-127.87664 Y53.95412
G01 X-127.94339 Y53.89812
G01 X-127.99792 Y53.84358
G01 X-128.05393 Y53.77683
G01 X-128.09751 Y53.70134
G01 X-128.12733 Y53.61945
G01 X-128.14730 Y53.54496
G01 X-128.16325 Y53.44831
G01 X-128.16008 Y53.35042
G01 X-128.15599 Y53.31938
G01 X-128.15588 Y53.31587
G01 X-128.12848 Y53.10990
G01 X-128.12848 Y52.93978
G01 X-128.15073 Y52.77076
G01 X-128.16231 Y52.72751
G01 X-128.19485 Y52.60610
G01 X-128.27262 Y52.41834
G01 X-128.27074 Y52.41758
G01 X-128.29952 Y52.33726
G01 X-128.31514 Y52.27097
G01 X-128.32848 Y52.15629
G01 X-128.32848 Y51.35380
G01 X-128.31148 Y51.22462
G01 X-128.30188 Y51.18875
G01 X-128.30016 Y51.17552
G01 X-128.27016 Y51.08530
G01 X-128.26693 Y51.07798
G01 X-128.19485 Y50.90397
G01 X-128.15073 Y50.73927
G01 X-128.12848 Y50.57026
G01 X-128.12848 Y50.39978
G01 X-128.15073 Y50.23079
G01 X-128.18672 Y50.09640
G01 X-128.19487 Y50.06604
G01 X-128.26008 Y49.90859
G01 X-128.34532 Y49.76097
G01 X-128.46134 Y49.60976
G01 X-128.52667 Y49.49663
G01 X-128.54730 Y49.44682
G01 X-128.64831 Y49.44674
G01 X-128.67153 Y49.43846
G01 X-128.76536 Y49.40991
G01 X-128.92218 Y49.37062
G01 X-128.98392 Y49.35754
G01 X-129.01989 Y49.34466
G01 X-129.09591 Y49.32155
G01 X-129.29195 Y49.27242
G01 X-129.35489 Y49.25987
G01 X-129.55093 Y49.23082
G01 X-129.60638 Y49.22533
G01 X-129.80241 Y49.21570
G01 X-129.85553 Y49.21570
G01 X-130.05154 Y49.22533
G01 X-130.10699 Y49.23082
G01 X-130.30302 Y49.25987
G01 X-130.36596 Y49.27242
G01 X-130.56200 Y49.32155
G01 X-130.63802 Y49.34466
G01 X-130.67396 Y49.35751
G01 X-130.73571 Y49.37062
G01 X-130.89258 Y49.40991
G01 X-130.98649 Y49.43846
G01 X-131.00495 Y49.44507
G01 X-131.00564 Y49.44532
G01 X-131.27058 Y49.44517
G01 X-132.04307 Y50.21766
G01 X-132.21115 Y50.28728
G01 X-132.25260 Y50.30328
G01 X-132.44864 Y50.37341
G01 X-132.51412 Y50.39335
G01 X-132.71013 Y50.44245
G01 X-132.76306 Y50.45299
G01 X-132.95913 Y50.48207
G01 X-133.00482 Y50.48659
G01 X-133.20086 Y50.49622
G01 X-133.22260 Y50.49675
G01 X-139.10882 Y50.49675
G01 X-139.13056 Y50.49622
G01 X-139.32655 Y50.48659
G01 X-139.37224 Y50.48207
G01 X-139.56826 Y50.45301
G01 X-139.62122 Y50.44245
G01 X-139.81720 Y50.39335
G01 X-139.88261 Y50.37346
G01 X-140.07862 Y50.30336
G01 X-140.12010 Y50.28736
G01 X-140.27303 Y50.22401
G01 X-140.28731 Y50.21768
G01 X-145.51963 Y50.21766
G01 X-145.56860 Y50.22007
G01 X-145.76362 Y50.23927
G01 X-145.85974 Y50.25837
G01 X-145.88160 Y50.26500
G01 X-148.86900 Y50.26500
G01 X-148.91800 Y50.26742
G01 X-149.11309 Y50.28664
G01 X-149.20921 Y50.30574
G01 X-149.39681 Y50.36267
G01 X-149.48736 Y50.40018
G01 X-149.66026 Y50.49259
G01 X-149.74174 Y50.54704
G01 X-149.89328 Y50.67140
G01 X-149.96260 Y50.74072
G01 X-150.08696 Y50.89226
G01 X-150.14141 Y50.97374
G01 X-150.23382 Y51.14664
G01 X-150.27133 Y51.23719
G01 X-150.32826 Y51.42479
G01 X-150.34736 Y51.52091
G01 X-150.36658 Y51.71600
G01 X-150.36658 Y51.81402
G01 X-150.34736 Y52.00912
G01 X-150.32826 Y52.10523
G01 X-150.27133 Y52.29284
G01 X-150.23382 Y52.38339
G01 X-150.14141 Y52.55629
G01 X-150.08696 Y52.63777
G01 X-149.96260 Y52.78931
G01 X-149.89328 Y52.85862
G01 X-149.74174 Y52.98298
G01 X-149.66026 Y53.03744
G01 X-149.48736 Y53.12984
G01 X-149.39681 Y53.16736
G01 X-149.20921 Y53.22428
G01 X-149.11309 Y53.24338
G01 X-148.91800 Y53.26261
G01 X-148.86900 Y53.26502
G01 X-145.56700 Y53.26502
G01 X-145.51800 Y53.26261
G01 X-145.32298 Y53.24341
G01 X-145.22687 Y53.22431
G01 X-145.20502 Y53.21768
G01 X-142.13129 Y53.21793
G01 X-141.34544 Y53.21793
G01 X-141.21603 Y53.23520
G01 X-141.14153 Y53.25517
G01 X-141.05964 Y53.28499
G01 X-140.98415 Y53.32857
G01 X-140.91740 Y53.38458
G01 X-140.86287 Y53.43911
G01 X-140.80686 Y53.50587
G01 X-140.76328 Y53.58135
G01 X-140.73346 Y53.66324
G01 X-140.71349 Y53.73774
G01 X-140.69889 Y53.81808
G01 X-140.69752 Y53.89974
G01 X-140.69879 Y53.91920
G01 X-140.70201 Y53.95186
G01 X-140.71745 Y54.06931
G01 X-140.71745 Y54.26609
G01 X-140.69180 Y54.46103
