( pcb2gcode 2.5.0 )
( Software-independent Gcode )

( This file uses 3 drill bit sizes. )
( Bit sizes: [0.8mm] [1mm] [1.5mm] )

G94       (Millimeters per minute feed rate.)
G21       (Units == Millimeters.)
G90       (Absolute coordinates.)
G00 S20000     (RPM spindle speed.)

G00 Z30.00000 (Retract)
T1
M5      (Spindle stop.)
G04 P1.00000
(MSG, Change tool bit to drill size 0.8mm)
M6      (Tool change.)
M0      (Temporary machine stop.)
M3      (Spindle on clockwise.)
G0 Z3.50000
G04 P1.00000

G81 R3.50000 Z-1.75000 F200.00000 X-5.23200 Y21.53900
X-8.40700 Y21.53900
X-15.39200 Y23.73800
X-15.39200 Y28.73800
X-8.40700 Y31.69900
X-5.23200 Y31.69900
X-11.96300 Y41.85900
X-10.18500 Y47.19300
X-6.12100 Y47.19300
X-10.18500 Y57.35300
X-6.12100 Y57.35300
X-4.04200 Y66.87800
X-9.04200 Y66.87800
X-13.58900 Y66.90300
X-9.10400 Y72.33900
X-6.60400 Y72.33900
X-9.29600 Y76.65700
X-17.04300 Y78.85600
X-9.29600 Y86.81700
X-13.28400 Y86.81700
X-17.04300 Y83.85600
X-24.66300 Y87.07100
X-36.60100 Y94.43700
X-45.74500 Y86.81700
X-42.69700 Y86.81700
X-41.43700 Y88.08700
X-40.15700 Y86.81700
X-36.60100 Y84.27700
X-32.53700 Y76.35200
X-24.66300 Y76.91100
X-24.53600 Y72.97400
X-26.18700 Y63.85500
X-31.87700 Y63.85500
X-32.53700 Y66.19200
X-38.63300 Y64.97300
X-45.59300 Y72.54200
X-49.55500 Y64.97300
X-46.25300 Y64.97300
X-46.25300 Y62.43300
X-38.63300 Y62.43300
X-38.63300 Y59.89300
X-38.63300 Y57.35300
X-38.63300 Y54.81300
X-38.63300 Y52.27300
X-38.63300 Y49.73300
X-38.63300 Y47.19300
X-38.63300 Y44.65300
X-38.63300 Y42.11300
X-38.63300 Y39.57300
X-38.63300 Y37.03300
X-38.63300 Y34.49300
X-38.63300 Y31.95300
X-34.44200 Y31.95300
X-27.58400 Y42.11300
X-30.88600 Y44.65300
X-34.82300 Y45.56700
X-34.82300 Y47.23300
X-34.82300 Y52.23300
X-30.88600 Y54.81300
X-27.58400 Y52.27300
X-24.28200 Y49.86000
X-21.86900 Y54.55900
X-18.82100 Y54.64600
X-18.82100 Y49.64600
X-24.28200 Y39.70000
X-24.28200 Y37.03300
X-29.61600 Y34.49300
X-24.28200 Y26.87300
X-29.61600 Y24.33300
X-34.44200 Y21.79300
X-36.70300 Y11.37900
X-46.25300 Y24.58700
X-46.25300 Y27.78700
X-46.25300 Y31.95300
X-46.25300 Y34.49300
X-46.25300 Y37.03300
X-46.25300 Y39.57300
X-46.25300 Y42.11300
X-46.25300 Y44.65300
X-46.25300 Y47.19300
X-46.25300 Y49.73300
X-46.25300 Y52.27300
X-46.25300 Y54.81300
X-46.25300 Y57.35300
X-46.25300 Y59.89300
X-49.55500 Y54.81300
X-49.49300 Y52.50900
X-49.49300 Y47.50900
X-59.52600 Y49.94700
X-59.52600 Y47.44700
X-63.39800 Y49.98700
X-65.68400 Y53.03500
X-65.70900 Y57.09900
X-78.00300 Y63.19500
X-57.83500 Y79.34900
X-70.63700 Y89.76300
X-76.32700 Y85.85200
X-70.63700 Y79.60300
X-69.51900 Y73.76100
X-73.75000 Y79.57800
X-76.25000 Y79.57800
X-80.54300 Y77.16500
X-91.46500 Y86.30900
X-97.56100 Y86.30900
X-105.43500 Y73.06100
X-105.43500 Y68.06100
X-101.62500 Y68.02100
X-93.26800 Y61.16300
X-90.76800 Y61.16300
X-86.13100 Y55.95600
X-88.93000 Y53.04000
X-88.93000 Y50.50000
X-88.93000 Y45.92800
X-88.93000 Y43.38800
X-78.76000 Y31.69400
X-78.76000 Y29.15400
X-73.68500 Y24.58700
X-73.68500 Y28.54900
X-78.77000 Y36.27600
X-78.77000 Y38.81600
X-78.77000 Y43.38800
X-78.77000 Y45.92800
X-78.77000 Y50.50000
X-78.77000 Y53.04000
X-80.67000 Y55.82900
X-75.84400 Y53.03500
X-73.55800 Y44.90700
X-73.55800 Y38.81100
X-63.39800 Y44.90700
X-63.39800 Y38.81100
X-52.34900 Y29.54000
X-56.41300 Y24.58700
X-63.52500 Y28.54900
X-63.52500 Y24.58700
X-72.32000 Y17.32100
X-72.32000 Y14.78100
X-72.32000 Y12.24100
X-72.32000 Y9.70100
X-72.20800 Y5.90100
X-79.94000 Y12.24100
X-79.94000 Y9.70100
X-82.36800 Y5.90100
X-84.22600 Y3.12400
X-86.25800 Y5.91800
X-90.06800 Y3.12400
X-79.94000 Y14.78100
X-79.94000 Y17.32100
X-83.21000 Y14.80800
X-86.25800 Y16.07800
X-83.21000 Y24.96800
X-88.02500 Y25.02500
X-88.92000 Y29.15400
X-88.92000 Y31.69400
X-88.93000 Y36.27600
X-88.93000 Y38.81600
X-99.08500 Y41.09700
X-112.67400 Y32.20700
X-112.67400 Y39.44600
X-114.83300 Y42.11300
X-122.70700 Y42.11300
X-138.20100 Y27.38100
X-143.28100 Y27.38100
X-138.20100 Y37.54100
X-143.28100 Y37.54100
X-145.56700 Y41.60500
X-148.86900 Y41.60500
X-148.86900 Y51.76500
X-145.56700 Y51.76500
X-147.19300 Y56.99700
X-139.21700 Y54.16800
X-139.21700 Y49.16800
X-138.70900 Y43.63700
X-133.22300 Y49.27600
X-133.22300 Y54.27600
X-129.82900 Y55.56500
X-129.82900 Y53.02500
X-129.82900 Y50.48500
X-129.82900 Y47.94500
X-126.26300 Y44.39900
X-122.20900 Y47.94500
X-122.20900 Y50.48500
X-122.20900 Y53.02500
X-118.89700 Y49.26500
X-115.84900 Y46.68500
X-112.29300 Y46.68500
X-108.69700 Y48.71700
X-103.69700 Y48.71700
X-113.02500 Y52.02500
X-112.29300 Y56.84500
X-115.84900 Y56.84500
X-118.89700 Y54.26500
X-122.20900 Y55.56500
X-125.73000 Y60.40100
X-128.23000 Y60.40100
X-128.54900 Y88.59500
G80

G00 Z30.00000 (Retract)
T5
M5      (Spindle stop.)
G04 P1.00000
(MSG, Change tool bit to drill size 1mm)
M6      (Tool change.)
M0      (Temporary machine stop.)
M3      (Spindle on clockwise.)
G0 Z3.50000
G04 P1.00000

G81 R3.50000 Z-1.75000 F200.00000 X-11.83600 Y21.66600
X-63.02500 Y85.02500
X-155.02500 Y95.02500
X-155.02500 Y5.02500
X-11.83600 Y31.82600
X-14.24900 Y47.19300
X-14.24900 Y57.35300
X-5.10500 Y76.65700
X-5.10500 Y86.81700
X-20.85300 Y87.07100
X-20.85300 Y76.91100
X-40.51300 Y79.34900
X-40.51300 Y76.80900
X-43.05300 Y76.80900
X-43.05300 Y79.34900
X-45.59300 Y79.34900
X-48.13300 Y79.34900
X-45.59300 Y76.80900
X-48.13300 Y76.80900
X-50.67300 Y79.34900
X-50.67300 Y76.80900
X-53.81100 Y52.50900
X-53.81100 Y47.50900
X-29.58600 Y11.37900
X-32.12600 Y11.37900
X-46.55800 Y11.20500
X-46.55800 Y16.20500
X-52.34900 Y31.95300
X-52.34900 Y34.49300
X-52.34900 Y37.03300
X-75.47300 Y67.89100
X-78.01300 Y67.89100
X-80.55300 Y67.89100
X-83.09300 Y67.89100
X-88.17300 Y67.89100
X-90.71300 Y67.89100
X-93.25300 Y67.89100
X-101.66500 Y58.87700
X-106.66500 Y58.87700
X-102.64100 Y52.34400
X-105.18100 Y52.34400
X-107.72100 Y52.34400
X-103.56500 Y41.09700
X-108.56500 Y41.09700
X-116.48400 Y31.69900
X-116.91100 Y26.56500
X-128.91100 Y26.56500
X-129.18400 Y31.69900
X-138.20100 Y22.37200
X-140.74100 Y22.37200
X-143.28100 Y22.37200
X-148.36100 Y21.03100
X-148.36100 Y33.73100
X-148.36100 Y63.19500
X-136.67700 Y73.53100
X-136.67700 Y66.03100
X-148.36100 Y75.89500
X-155.47300 Y84.27700
X-143.28100 Y89.86500
X-130.07300 Y84.27700
X-127.02500 Y84.27700
X-117.62700 Y73.53100
X-117.62700 Y66.03100
X-101.62500 Y84.27700
G80

G00 Z30.00000 (Retract)
T10
M5      (Spindle stop.)
G04 P1.00000
(MSG, Change tool bit to drill size 1.5mm)
M6      (Tool change.)
M0      (Temporary machine stop.)
M3      (Spindle on clockwise.)
G0 Z3.50000
G04 P1.00000

G81 R3.50000 Z-1.75000 F200.00000 X-5.61300 Y36.52500
X-5.61300 Y41.60500
X-4.08900 Y94.94500
X-9.16900 Y94.94500
X-14.24900 Y94.94500
X-20.85300 Y94.94500
X-25.93300 Y94.94500
X-31.01300 Y94.94500
X-42.18900 Y94.81800
X-47.26900 Y94.81800
X-59.46100 Y94.94500
X-64.54100 Y94.94500
X-70.63700 Y94.94500
X-75.71700 Y94.94500
X-86.38500 Y94.94500
X-91.46500 Y94.94500
X-102.00900 Y94.43700
X-124.60900 Y94.43700
X-129.31100 Y95.19900
X-134.39100 Y95.19900
X-140.74100 Y95.19900
X-145.82100 Y95.19900
X-153.94900 Y76.65700
X-153.94900 Y61.41700
X-154.45700 Y46.68500
X-154.45700 Y41.60500
X-154.45700 Y32.46100
X-154.45700 Y27.38100
X-154.45700 Y22.30100
X-155.80000 Y14.32500
X-133.20000 Y14.32500
X-128.96100 Y14.31500
X-128.54900 Y5.53700
X-123.46900 Y5.53700
X-118.38900 Y5.53700
X-116.91100 Y14.36500
X-108.99100 Y5.66700
X-99.51300 Y13.77500
X-99.51300 Y8.77500
X-89.51300 Y11.27500
X-108.99100 Y28.26700
X-122.96100 Y28.51500
G80

G00 Z30.000 ( All done -- retract )

M5      (Spindle off.)
G04 P1.000000
M9      (Coolant off.)
M2      (Program end.)

