( pcb2gcode 2.5.0 )
( Software-independent Gcode )

G94 ( Millimeters per minute feed rate. )
G21 ( Units == Millimeters. )

G90 ( Absolute coordinates. )
G00 S20000 ( RPM spindle speed. )
G64 P0.05000 ( set maximum deviation from commanded toolpath )
G01 F400.00000 ( Feedrate. )


G00 Z30.00000 (Retract to tool change height)
T1
M5      (Spindle stop.)
G04 P1.00000 (Wait for spindle to stop)
(MSG, Change tool bit to mill diameter 1.00000mm)
M6      (Tool change.)
M0      (Temporary machine stop.)
M3 ( Spindle on clockwise. )
G04 P1.00000 (Wait for spindle to get up to speed)
G04 P0 ( dwell for no time -- G64 should not smooth over this point )
G00 Z3.50000 ( retract )

G00 X2.13681 Y94.94503 ( rapid move to begin. )
G01 F200.00000
( Mill infeed pass 1/1 )
G01 Z-0.20000
G04 P0 ( dwell for no time -- G64 should not smooth over this point )
G01 F400.00000
G01 X2.13681 Y94.94503
G01 X2.13927 Y94.90070
G01 X2.14204 Y94.86641
G01 X2.15540 Y94.70075
G01 X2.16879 Y94.60815
G01 X2.18570 Y94.52128
G01 X2.20074 Y94.46024
G01 X2.27006 Y94.23959
G01 X2.27425 Y94.22654
G01 X2.30508 Y94.15824
G01 X2.38138 Y94.00629
G01 X2.44394 Y93.89903
G01 X2.49228 Y93.82483
G01 X2.51118 Y93.79870
G01 X2.66703 Y93.60954
G01 X2.67851 Y93.59733
G01 X2.74211 Y93.53563
G01 X2.84691 Y93.44366
G01 X2.95649 Y93.35897
G01 X2.96937 Y93.34902
G01 X3.04209 Y93.29834
G01 X3.04343 Y93.29751
G01 X3.16764 Y93.23017
G01 X3.25880 Y93.18074
G01 X3.30196 Y93.16075
G01 X3.38397 Y93.12753
G01 X3.48674 Y93.09166
G01 X3.66523 Y93.04170
G01 X3.72316 Y93.02753
G01 X3.75199 Y93.02382
G01 X3.96660 Y92.99969
G01 X4.04475 Y92.99585
G01 X4.13325 Y92.99585
G01 X4.21135 Y92.99969
G01 X4.42596 Y93.02382
G01 X4.45479 Y93.02753
G01 X4.51272 Y93.04170
G01 X4.69118 Y93.09166
G01 X4.79398 Y93.12753
G01 X4.87597 Y93.16075
G01 X4.91917 Y93.18077
G01 X5.13451 Y93.29751
G01 X5.13586 Y93.29834
G01 X5.20858 Y93.34902
G01 X5.33103 Y93.44366
G01 X5.43581 Y93.53563
G01 X5.49944 Y93.59733
G01 X5.51102 Y93.60967
G01 X5.66677 Y93.79870
G01 X5.68569 Y93.82483
G01 X5.73401 Y93.89903
G01 X5.79657 Y94.00627
G01 X5.87287 Y94.15824
G01 X5.90368 Y94.22654
G01 X5.90789 Y94.23959
G01 X5.97721 Y94.46024
G01 X5.99225 Y94.52128
G01 X6.00916 Y94.60815
G01 X6.02255 Y94.70073
G01 X6.02666 Y94.75176
G01 X6.04401 Y94.86984
G01 X6.05039 Y94.89956
G01 X6.05813 Y94.94005
G01 X6.03842 Y95.04843
G01 X6.02666 Y95.13829
G01 X6.02255 Y95.18932
G01 X6.00916 Y95.28191
G01 X5.99225 Y95.36877
G01 X5.97721 Y95.42981
G01 X5.90789 Y95.65046
G01 X5.90368 Y95.66354
G01 X5.87785 Y95.72173
G01 X5.87287 Y95.73182
G01 X5.79657 Y95.88378
G01 X5.73401 Y95.99102
G01 X5.68569 Y96.06522
G01 X5.66675 Y96.09138
G01 X5.51099 Y96.28041
G01 X5.49944 Y96.29275
G01 X5.43583 Y96.35442
G01 X5.33103 Y96.44642
G01 X5.20858 Y96.54103
G01 X5.13586 Y96.59171
G01 X5.13451 Y96.59255
G01 X4.91915 Y96.70931
G01 X4.87597 Y96.72930
G01 X4.79398 Y96.76252
G01 X4.69118 Y96.79839
G01 X4.51272 Y96.84835
G01 X4.45476 Y96.86252
G01 X4.42596 Y96.86623
G01 X4.21135 Y96.89036
G01 X4.13325 Y96.89420
G01 X4.04475 Y96.89420
G01 X3.96660 Y96.89036
G01 X3.75199 Y96.86623
G01 X3.72319 Y96.86252
G01 X3.66523 Y96.84835
G01 X3.48674 Y96.79839
G01 X3.38397 Y96.76252
G01 X3.30196 Y96.72930
G01 X3.25878 Y96.70931
G01 X3.04343 Y96.59255
G01 X3.04209 Y96.59171
G01 X2.96937 Y96.54103
G01 X2.84691 Y96.44642
G01 X2.74211 Y96.35442
G01 X2.67851 Y96.29275
G01 X2.66696 Y96.28041
G01 X2.61207 Y96.21378
G01 X2.51123 Y96.09140
G01 X2.49228 Y96.06522
G01 X2.44394 Y95.99102
G01 X2.38138 Y95.88376
G01 X2.30508 Y95.73182
G01 X2.27425 Y95.66352
G01 X2.27006 Y95.65046
G01 X2.20074 Y95.42984
G01 X2.18570 Y95.36877
G01 X2.16879 Y95.28191
G01 X2.15540 Y95.18930
G01 X2.13927 Y94.98932
G01 X2.13681 Y94.94503
G04 P0 ( dwell for no time -- G64 should not smooth over this point )
G00 Z3.50000 ( retract )

G00 X11.14014 Y94.62758 ( rapid move to begin. )
G01 F200.00000
( Mill infeed pass 1/1 )
G01 Z-0.20000
G04 P0 ( dwell for no time -- G64 should not smooth over this point )
G01 F400.00000
G01 X11.14014 Y94.62758
G01 X11.16658 Y94.89600
G01 X11.16658 Y94.99402
G01 X11.14012 Y95.26273
G01 X11.17184 Y95.23100
G01 X11.23862 Y95.17495
G01 X11.31411 Y95.13136
G01 X11.39605 Y95.10151
G01 X11.47054 Y95.08155
G01 X11.55640 Y95.06641
G01 X11.64354 Y95.06641
G01 X11.72940 Y95.08155
G01 X11.80389 Y95.10151
G01 X11.88583 Y95.13136
G01 X11.96132 Y95.17495
G01 X12.02810 Y95.23100
G01 X12.08263 Y95.28556
G01 X12.13862 Y95.35231
G01 X12.18218 Y95.42775
G01 X12.21197 Y95.50962
G01 X12.23194 Y95.58411
G01 X12.24898 Y95.71353
G01 X12.24898 Y96.48081
G01 X12.25340 Y96.53060
G01 X12.28225 Y96.63146
G01 X12.32934 Y96.72160
G01 X12.39361 Y96.80039
G01 X12.47240 Y96.86466
G01 X12.56254 Y96.91175
G01 X12.66340 Y96.94060
G01 X12.71319 Y96.94502
G01 X13.44895 Y96.94502
G04 P0 ( dwell for no time -- G64 should not smooth over this point )
G00 Z3.50000 ( retract )

G00 X12.74895 Y96.94502 ( rapid move to begin. )
G01 F200.00000
( Mill infeed pass 1/1 )
G01 Z-0.20000
G04 P0 ( dwell for no time -- G64 should not smooth over this point )
G01 F400.00000
G01 X12.74895 Y96.94502
G01 X12.65144 Y96.93539
G01 X12.55764 Y96.90695
G01 X12.47120 Y96.86074
G01 X12.39543 Y96.79856
G01 X12.33326 Y96.72280
G01 X12.28705 Y96.63636
G01 X12.25861 Y96.54256
G01 X12.24898 Y96.44502
G04 P0 ( dwell for no time -- G64 should not smooth over this point )
G00 Z3.50000 ( retract )

G00 X12.24898 Y95.71353 ( rapid move to begin. )
G01 F200.00000
( Mill infeed pass 1/1 )
G01 Z-0.20000
G04 P0 ( dwell for no time -- G64 should not smooth over this point )
G01 F400.00000
G01 X12.24898 Y95.71353
G01 X12.24898 Y94.17650
G04 P0 ( dwell for no time -- G64 should not smooth over this point )
G00 Z3.50000 ( retract )

G00 X11.14012 Y95.26273 ( rapid move to begin. )
G01 F200.00000
( Mill infeed pass 1/1 )
G01 Z-0.20000
G04 P0 ( dwell for no time -- G64 should not smooth over this point )
G01 F400.00000
G01 X11.14012 Y95.26273
G01 X11.12919 Y95.28584
G01 X11.12543 Y95.29369
G01 X11.08700 Y95.37324
G01 X11.05299 Y95.45285
G01 X11.04210 Y95.48208
G01 X11.02640 Y95.52793
G01 X11.02389 Y95.53591
G01 X10.98789 Y95.65046
G01 X10.98368 Y95.66352
G01 X10.95785 Y95.72173
G01 X10.95287 Y95.73182
G01 X10.87657 Y95.88378
G01 X10.81401 Y95.99102
G01 X10.76569 Y96.06522
G01 X10.74675 Y96.09138
G01 X10.59099 Y96.28041
G01 X10.57944 Y96.29275
G01 X10.51583 Y96.35442
G01 X10.41103 Y96.44642
G01 X10.28858 Y96.54103
G01 X10.21586 Y96.59171
G01 X10.21451 Y96.59255
G01 X9.99915 Y96.70931
G01 X9.95597 Y96.72930
G01 X9.87398 Y96.76252
G01 X9.77118 Y96.79839
G01 X9.59272 Y96.84835
G01 X9.53476 Y96.86252
G01 X9.50596 Y96.86623
G01 X9.29135 Y96.89036
G01 X9.21325 Y96.89420
G01 X9.12475 Y96.89420
G01 X9.04660 Y96.89036
G01 X8.83199 Y96.86623
G01 X8.80321 Y96.86252
G01 X8.74523 Y96.84835
G01 X8.56677 Y96.79839
G01 X8.46397 Y96.76252
G01 X8.38198 Y96.72930
G01 X8.33878 Y96.70931
G01 X8.12343 Y96.59255
G01 X8.12209 Y96.59171
G01 X8.04937 Y96.54103
G01 X7.92691 Y96.44642
G01 X7.82211 Y96.35442
G01 X7.75851 Y96.29275
G01 X7.74696 Y96.28041
G01 X7.69207 Y96.21378
G01 X7.59123 Y96.09140
G01 X7.57228 Y96.06522
G01 X7.52394 Y95.99102
G01 X7.46138 Y95.88376
G01 X7.38508 Y95.73182
G01 X7.35425 Y95.66352
G01 X7.35006 Y95.65046
G01 X7.28074 Y95.42984
G01 X7.26570 Y95.36877
G01 X7.24879 Y95.28191
G01 X7.23540 Y95.18932
G01 X7.23128 Y95.13829
G01 X7.21389 Y95.02006
G01 X7.20756 Y94.99047
G01 X7.19979 Y94.95003
G01 X7.20893 Y94.89976
G01 X7.21952 Y94.84162
G01 X7.23128 Y94.75176
G01 X7.23540 Y94.70073
G01 X7.24879 Y94.60815
G01 X7.26570 Y94.52128
G01 X7.28074 Y94.46024
G01 X7.35006 Y94.23959
G01 X7.35425 Y94.22654
G01 X7.38508 Y94.15824
G01 X7.46138 Y94.00629
G01 X7.52394 Y93.89903
G01 X7.57228 Y93.82483
G01 X7.59118 Y93.79870
G01 X7.74703 Y93.60954
G01 X7.75851 Y93.59733
G01 X7.82211 Y93.53563
G01 X7.92691 Y93.44366
G01 X8.03649 Y93.35897
G01 X8.04937 Y93.34902
G01 X8.12209 Y93.29834
G01 X8.12343 Y93.29751
G01 X8.33878 Y93.18077
G01 X8.38198 Y93.16075
G01 X8.46397 Y93.12753
G01 X8.56677 Y93.09166
G01 X8.74523 Y93.04170
G01 X8.80316 Y93.02753
G01 X8.83199 Y93.02382
G01 X9.04660 Y92.99969
G01 X9.12475 Y92.99585
G01 X9.21325 Y92.99585
G01 X9.29135 Y92.99969
G01 X9.50596 Y93.02382
G01 X9.53479 Y93.02753
G01 X9.59272 Y93.04170
G01 X9.77118 Y93.09166
G01 X9.87398 Y93.12753
G01 X9.95597 Y93.16075
G01 X9.99917 Y93.18077
G01 X10.21451 Y93.29751
G01 X10.21586 Y93.29834
G01 X10.28858 Y93.34902
G01 X10.41103 Y93.44366
G01 X10.51581 Y93.53563
G01 X10.57944 Y93.59733
G01 X10.59102 Y93.60967
G01 X10.74677 Y93.79870
G01 X10.76569 Y93.82483
G01 X10.81401 Y93.89903
G01 X10.87657 Y94.00627
G01 X10.95287 Y94.15824
G01 X10.98368 Y94.22654
G01 X10.98789 Y94.23959
G01 X11.02660 Y94.36283
G01 X11.07001 Y94.47469
G01 X11.08929 Y94.51612
G01 X11.10240 Y94.54564
G01 X11.12734 Y94.60439
G01 X11.14636 Y94.63885
G01 X11.19943 Y94.68661
G01 X11.27339 Y94.73281
G01 X11.34212 Y94.76781
G01 X11.42289 Y94.80042
G01 X11.50811 Y94.81853
G01 X11.54961 Y94.81998
G01 X11.59518 Y94.82158
G01 X11.67220 Y94.81754
G01 X11.75845 Y94.80540
G01 X11.84131 Y94.77850
G01 X11.91822 Y94.73763
G01 X11.98291 Y94.69565
G01 X12.05167 Y94.64195
G01 X12.11004 Y94.57711
G01 X12.15627 Y94.50312
G01 X12.19127 Y94.43438
G01 X12.22515 Y94.34940
G01 X12.24298 Y94.25968
G01 X12.24624 Y94.22869
G01 X12.24898 Y94.17650
G01 X12.24898 Y93.40924
G01 X12.25340 Y93.35946
G01 X12.28225 Y93.25859
G01 X12.32934 Y93.16845
G01 X12.39361 Y93.08966
G01 X12.47240 Y93.02540
G01 X12.56254 Y92.97830
G01 X12.66340 Y92.94945
G01 X12.71319 Y92.94503
G01 X12.74893 Y92.94503
G01 X12.65144 Y92.95463
G01 X12.55764 Y92.98308
G01 X12.47120 Y93.02928
G01 X12.39543 Y93.09146
G01 X12.33326 Y93.16723
G01 X12.28705 Y93.25366
G01 X12.25861 Y93.34747
G01 X12.24898 Y93.44503
G04 P0 ( dwell for no time -- G64 should not smooth over this point )
G00 Z3.50000 ( retract )

G00 X15.04900 Y96.94502 ( rapid move to begin. )
G01 F200.00000
( Mill infeed pass 1/1 )
G01 Z-0.20000
G04 P0 ( dwell for no time -- G64 should not smooth over this point )
G01 F400.00000
G01 X15.04900 Y96.94502
G01 X15.78476 Y96.94502
G01 X15.83454 Y96.94060
G01 X15.93541 Y96.91175
G01 X16.02555 Y96.86466
G01 X16.10434 Y96.80039
G01 X16.16860 Y96.72160
G01 X16.21570 Y96.63146
G01 X16.24455 Y96.53060
G01 X16.24897 Y96.48081
G01 X16.24897 Y96.44507
G01 X16.23937 Y96.54256
G01 X16.21092 Y96.63636
G01 X16.16472 Y96.72280
G01 X16.10254 Y96.79856
G01 X16.02677 Y96.86074
G01 X15.94034 Y96.90695
G01 X15.84653 Y96.93539
G01 X15.74900 Y96.94502
G04 P0 ( dwell for no time -- G64 should not smooth over this point )
G00 Z3.50000 ( retract )

G00 X18.90081 Y94.94503 ( rapid move to begin. )
G01 F200.00000
( Mill infeed pass 1/1 )
G01 Z-0.20000
G04 P0 ( dwell for no time -- G64 should not smooth over this point )
G01 F400.00000
G01 X18.90081 Y94.94503
G01 X18.90327 Y94.98932
G01 X18.91940 Y95.18930
G01 X18.93279 Y95.28191
G01 X18.94970 Y95.36877
G01 X18.96474 Y95.42984
G01 X19.03406 Y95.65046
G01 X19.03825 Y95.66352
G01 X19.06908 Y95.73182
G01 X19.14538 Y95.88376
G01 X19.20794 Y95.99102
G01 X19.25628 Y96.06522
G01 X19.27523 Y96.09140
G01 X19.37607 Y96.21378
G01 X19.43096 Y96.28041
G01 X19.44251 Y96.29275
G01 X19.50611 Y96.35442
G01 X19.61091 Y96.44642
G01 X19.73337 Y96.54103
G01 X19.80609 Y96.59171
G01 X19.80743 Y96.59255
G01 X20.02278 Y96.70931
G01 X20.06598 Y96.72930
G01 X20.14797 Y96.76252
G01 X20.25077 Y96.79839
G01 X20.42923 Y96.84835
G01 X20.48721 Y96.86252
G01 X20.51599 Y96.86623
G01 X20.73060 Y96.89036
G01 X20.80875 Y96.89420
G01 X20.89725 Y96.89420
G01 X20.97535 Y96.89036
G01 X21.18996 Y96.86623
G01 X21.21876 Y96.86252
G01 X21.27672 Y96.84835
G01 X21.45518 Y96.79839
G01 X21.55798 Y96.76252
G01 X21.63997 Y96.72930
G01 X21.68315 Y96.70931
G01 X21.89851 Y96.59255
G01 X21.89986 Y96.59171
G01 X21.97258 Y96.54103
G01 X22.09503 Y96.44642
G01 X22.19984 Y96.35442
G01 X22.26344 Y96.29275
G01 X22.27499 Y96.28041
G01 X22.43075 Y96.09138
G01 X22.44969 Y96.06522
G01 X22.49801 Y95.99102
G01 X22.56057 Y95.88378
G01 X22.63687 Y95.73182
G01 X22.64185 Y95.72173
G01 X22.66768 Y95.66354
G01 X22.67189 Y95.65046
G01 X22.74121 Y95.42981
G01 X22.75625 Y95.36877
G01 X22.77316 Y95.28191
G01 X22.78655 Y95.18932
G01 X22.79066 Y95.13829
G01 X22.80242 Y95.04843
G01 X22.81299 Y94.99034
G01 X22.82216 Y94.94002
G01 X22.81439 Y94.89956
G01 X22.80806 Y94.86999
G01 X22.79066 Y94.75176
G01 X22.78655 Y94.70073
G01 X22.77316 Y94.60815
G01 X22.75625 Y94.52128
G01 X22.74121 Y94.46024
G01 X22.67189 Y94.23959
G01 X22.66768 Y94.22654
G01 X22.63687 Y94.15824
G01 X22.56057 Y94.00627
G01 X22.49801 Y93.89903
G01 X22.44969 Y93.82483
G01 X22.43077 Y93.79870
G01 X22.27502 Y93.60967
G01 X22.26344 Y93.59733
G01 X22.19981 Y93.53563
G01 X22.09503 Y93.44366
G01 X21.97258 Y93.34902
G01 X21.89986 Y93.29834
G01 X21.89851 Y93.29751
G01 X21.68317 Y93.18077
G01 X21.63997 Y93.16075
G01 X21.55798 Y93.12753
G01 X21.45518 Y93.09166
G01 X21.27672 Y93.04170
G01 X21.21879 Y93.02753
G01 X21.18996 Y93.02382
G01 X20.97535 Y92.99969
G01 X20.89725 Y92.99585
G01 X20.80875 Y92.99585
G01 X20.73060 Y92.99969
G01 X20.51599 Y93.02382
G01 X20.48716 Y93.02753
G01 X20.42923 Y93.04170
G01 X20.25077 Y93.09166
G01 X20.14797 Y93.12753
G01 X20.06598 Y93.16075
G01 X20.02278 Y93.18077
G01 X19.80743 Y93.29751
G01 X19.80609 Y93.29834
G01 X19.73337 Y93.34902
G01 X19.72049 Y93.35897
G01 X19.61091 Y93.44366
G01 X19.50611 Y93.53563
G01 X19.44251 Y93.59733
G01 X19.43103 Y93.60954
G01 X19.27518 Y93.79870
G01 X19.25628 Y93.82483
G01 X19.20794 Y93.89903
G01 X19.14538 Y94.00629
G01 X19.06908 Y94.15824
G01 X19.03825 Y94.22654
G01 X19.03406 Y94.23959
G01 X18.96474 Y94.46024
G01 X18.94970 Y94.52128
G01 X18.93279 Y94.60815
G01 X18.91940 Y94.70075
G01 X18.90604 Y94.86641
G01 X18.90327 Y94.90070
G01 X18.90081 Y94.94503
G04 P0 ( dwell for no time -- G64 should not smooth over this point )
G00 Z3.50000 ( retract )

G00 X15.74905 Y92.94503 ( rapid move to begin. )
G01 F200.00000
( Mill infeed pass 1/1 )
G01 Z-0.20000
G04 P0 ( dwell for no time -- G64 should not smooth over this point )
G01 F400.00000
G01 X15.74905 Y92.94503
G01 X15.84653 Y92.95463
G01 X15.94034 Y92.98308
G01 X16.02677 Y93.02928
G01 X16.10254 Y93.09146
G01 X16.16472 Y93.16723
G01 X16.21092 Y93.25366
G01 X16.23937 Y93.34747
G01 X16.24897 Y93.44498
G01 X16.24897 Y93.40924
G01 X16.24455 Y93.35946
G01 X16.21570 Y93.25859
G01 X16.16860 Y93.16845
G01 X16.10434 Y93.08966
G01 X16.02555 Y93.02540
G01 X15.93541 Y92.97830
G01 X15.83454 Y92.94945
G01 X15.78476 Y92.94503
G01 X15.74905 Y92.94503
G04 P0 ( dwell for no time -- G64 should not smooth over this point )
G00 Z3.50000 ( retract )

G00 X19.70304 Y87.87105 ( rapid move to begin. )
G01 F200.00000
( Mill infeed pass 1/1 )
G01 Z-0.20000
G04 P0 ( dwell for no time -- G64 should not smooth over this point )
G01 F400.00000
G01 X19.70304 Y87.87105
G01 X19.70667 Y87.87105
G01 X19.71815 Y87.88822
G01 X19.83009 Y88.02462
G01 X19.89938 Y88.09391
G01 X20.03578 Y88.20585
G01 X20.05295 Y88.21733
G01 X20.05295 Y88.22096
G01 X19.93385 Y88.13178
G01 X19.79222 Y87.99015
G01 X19.70304 Y87.87105
G04 P0 ( dwell for no time -- G64 should not smooth over this point )
G00 Z3.50000 ( retract )

G00 X21.65300 Y85.92109 ( rapid move to begin. )
G01 F200.00000
( Mill infeed pass 1/1 )
G01 Z-0.20000
G04 P0 ( dwell for no time -- G64 should not smooth over this point )
G01 F400.00000
G01 X21.65300 Y85.92109
G01 X21.65300 Y85.92467
G01 X21.67019 Y85.93618
G01 X21.80659 Y86.04812
G01 X21.87588 Y86.11741
G01 X21.98782 Y86.25381
G01 X22.04228 Y86.33529
G01 X22.12544 Y86.49089
G01 X22.16295 Y86.58147
G01 X22.21416 Y86.75030
G01 X22.23329 Y86.84641
G01 X22.25058 Y87.02203
G01 X22.25058 Y87.12002
G01 X22.23329 Y87.29564
G01 X22.21416 Y87.39173
G01 X22.16295 Y87.56056
G01 X22.12544 Y87.65114
G01 X22.04228 Y87.80674
G01 X21.98782 Y87.88822
G01 X21.87588 Y88.02462
G01 X21.80659 Y88.09391
G01 X21.67019 Y88.20585
G01 X21.65300 Y88.21735
G01 X21.65300 Y88.22096
G01 X21.77210 Y88.13178
G01 X21.91373 Y87.99015
G01 X22.03374 Y87.82982
G01 X22.12973 Y87.65408
G01 X22.19971 Y87.46645
G01 X22.22597 Y87.34578
G01 X22.23072 Y87.32589
G01 X22.23392 Y87.31362
G01 X22.25881 Y87.24136
G01 X22.29440 Y87.17374
G01 X22.33545 Y87.10844
G01 X22.36245 Y87.07283
G01 X22.35193 Y87.06127
G01 X22.30542 Y86.98756
G01 X22.27009 Y86.91901
G01 X22.22597 Y86.79630
G01 X22.19971 Y86.67560
G01 X22.12973 Y86.48797
G01 X22.03374 Y86.31223
G01 X21.91373 Y86.15190
G01 X21.77210 Y86.01027
G01 X21.65300 Y85.92109
G04 P0 ( dwell for no time -- G64 should not smooth over this point )
G00 Z3.50000 ( retract )

G00 X23.36539 Y87.05784 ( rapid move to begin. )
G01 F200.00000
( Mill infeed pass 1/1 )
G01 Z-0.20000
G04 P0 ( dwell for no time -- G64 should not smooth over this point )
G01 F400.00000
G01 X23.36539 Y87.05784
G01 X23.36470 Y87.05990
G01 X23.35785 Y87.06882
G01 X23.36310 Y87.07445
G01 X23.36539 Y87.08103
G01 X23.37855 Y87.11878
G01 X23.39165 Y87.15919
G01 X23.41431 Y87.23447
G01 X23.42472 Y87.27184
G01 X23.44479 Y87.35027
G01 X23.44680 Y87.35797
G01 X23.46844 Y87.43948
G01 X23.49226 Y87.50808
G01 X23.52536 Y87.59015
G01 X23.53621 Y87.61367
G01 X23.59983 Y87.72817
G01 X23.62856 Y87.77628
G01 X23.64863 Y87.80204
G01 X23.74576 Y87.92210
G01 X23.74741 Y87.92386
G01 X23.81121 Y87.98530
G01 X23.88352 Y88.04844
G01 X23.93232 Y88.08497
G01 X24.00567 Y88.13447
G01 X24.03775 Y88.15393
G01 X24.14420 Y88.20795
G01 X24.20562 Y88.23630
G01 X24.22564 Y88.24268
G01 X24.37562 Y88.28855
G01 X24.38446 Y88.29122
G01 X24.46264 Y88.30445
G01 X24.56953 Y88.31776
G01 X24.61870 Y88.32020
G01 X24.70730 Y88.32020
G01 X24.75642 Y88.31776
G01 X24.86330 Y88.30445
G01 X24.94149 Y88.29122
G01 X24.95032 Y88.28855
G01 X25.10031 Y88.24268
G01 X25.12030 Y88.23630
G01 X25.18174 Y88.20795
G01 X25.28817 Y88.15393
G01 X25.32028 Y88.13447
G01 X25.39363 Y88.08497
G01 X25.44235 Y88.04844
G01 X25.51474 Y87.98530
G01 X25.57753 Y87.92490
G01 X25.57849 Y87.92383
G01 X25.58027 Y87.92198
G01 X25.65830 Y87.82556
G01 X25.67732 Y87.80201
G01 X25.69736 Y87.77631
G01 X25.72612 Y87.72817
G01 X25.76617 Y87.65604
G01 X25.78972 Y87.61370
G01 X25.80059 Y87.59015
G01 X25.82020 Y87.54438
G01 X25.83366 Y87.50808
G01 X25.85751 Y87.43945
G01 X25.86020 Y87.42934
G01 X25.87913 Y87.35797
G01 X25.89762 Y87.27151
G01 X25.89990 Y87.25744
G01 X25.91222 Y87.11532
G01 X25.91499 Y87.07103
G01 X25.91222 Y87.02670
G01 X25.89990 Y86.88459
G01 X25.89762 Y86.87057
G01 X25.87913 Y86.78408
G01 X25.85751 Y86.70260
G01 X25.83366 Y86.63397
G01 X25.80059 Y86.55190
G01 X25.78972 Y86.52838
G01 X25.72612 Y86.41388
G01 X25.69736 Y86.36574
G01 X25.67732 Y86.34001
G01 X25.58019 Y86.21997
G01 X25.57854 Y86.21822
G01 X25.51474 Y86.15675
G01 X25.44240 Y86.09363
G01 X25.39363 Y86.05711
G01 X25.32028 Y86.00758
G01 X25.28817 Y85.98815
G01 X25.18174 Y85.93410
G01 X25.12030 Y85.90575
G01 X25.10031 Y85.89937
G01 X24.95032 Y85.85350
G01 X24.94149 Y85.85083
G01 X24.86330 Y85.83760
G01 X24.75642 Y85.82429
G01 X24.70730 Y85.82185
G01 X24.61870 Y85.82185
G01 X24.56953 Y85.82429
G01 X24.46264 Y85.83760
G01 X24.38446 Y85.85083
G01 X24.37562 Y85.85350
G01 X24.22564 Y85.89937
G01 X24.20565 Y85.90575
G01 X24.14420 Y85.93410
G01 X24.03775 Y85.98815
G01 X24.00567 Y86.00758
G01 X23.93232 Y86.05708
G01 X23.88352 Y86.09363
G01 X23.81121 Y86.15675
G01 X23.74741 Y86.21822
G01 X23.74576 Y86.21997
G01 X23.64863 Y86.34001
G01 X23.62856 Y86.36577
G01 X23.59983 Y86.41388
G01 X23.56498 Y86.47656
G01 X23.53621 Y86.52838
G01 X23.52536 Y86.55190
G01 X23.49226 Y86.63397
G01 X23.46844 Y86.70257
G01 X23.44680 Y86.78408
G01 X23.44479 Y86.79178
G01 X23.43994 Y86.81073
G01 X23.43689 Y86.82302
G01 X23.42549 Y86.87029
G01 X23.39940 Y86.95899
G01 X23.37710 Y87.02312
G01 X23.37339 Y87.03394
G01 X23.36539 Y87.05784
G01 X23.36539 Y87.08103
G04 P0 ( dwell for no time -- G64 should not smooth over this point )
G00 Z3.50000 ( retract )

G00 X29.01298 Y93.44503 ( rapid move to begin. )
G01 F200.00000
( Mill infeed pass 1/1 )
G01 Z-0.20000
G04 P0 ( dwell for no time -- G64 should not smooth over this point )
G01 F400.00000
G01 X29.01298 Y93.44503
G01 X29.02261 Y93.34747
G01 X29.05105 Y93.25366
G01 X29.09726 Y93.16723
G01 X29.15943 Y93.09146
G01 X29.23520 Y93.02928
G01 X29.32164 Y92.98308
G01 X29.41544 Y92.95463
G01 X29.51293 Y92.94503
G01 X29.47719 Y92.94503
G01 X29.42741 Y92.94945
G01 X29.32654 Y92.97830
G01 X29.23640 Y93.02540
G01 X29.15761 Y93.08966
G01 X29.09334 Y93.16845
G01 X29.04625 Y93.25859
G01 X29.01740 Y93.35946
G01 X29.01298 Y93.40924
G01 X29.01298 Y94.17650
G01 X29.01024 Y94.22869
G01 X29.00698 Y94.25968
G01 X28.98915 Y94.34940
G01 X28.95527 Y94.43438
G01 X28.92027 Y94.50312
G01 X28.87404 Y94.57711
G01 X28.81567 Y94.64195
G01 X28.74691 Y94.69565
G01 X28.68222 Y94.73763
G01 X28.60531 Y94.77850
G01 X28.52245 Y94.80540
G01 X28.43620 Y94.81754
G01 X28.35918 Y94.82158
G01 X28.27211 Y94.81853
G01 X28.18689 Y94.80042
G01 X28.10612 Y94.76781
G01 X28.03739 Y94.73281
G01 X27.96343 Y94.68661
G01 X27.91036 Y94.63885
G01 X27.89134 Y94.60439
G01 X27.86640 Y94.54564
G01 X27.85329 Y94.51612
G01 X27.83401 Y94.47469
G01 X27.79060 Y94.36283
G01 X27.75189 Y94.23959
G01 X27.74768 Y94.22654
G01 X27.71687 Y94.15824
G01 X27.64057 Y94.00627
G01 X27.57801 Y93.89903
G01 X27.52969 Y93.82483
G01 X27.51077 Y93.79870
G01 X27.35502 Y93.60967
G01 X27.34344 Y93.59733
G01 X27.27981 Y93.53563
G01 X27.17503 Y93.44366
G01 X27.05258 Y93.34902
G01 X26.97986 Y93.29834
G01 X26.97851 Y93.29751
G01 X26.76317 Y93.18077
G01 X26.71997 Y93.16075
G01 X26.63798 Y93.12753
G01 X26.53518 Y93.09166
G01 X26.35672 Y93.04170
G01 X26.29876 Y93.02753
G01 X26.26996 Y93.02382
G01 X26.05535 Y92.99969
G01 X25.97722 Y92.99585
G01 X25.88875 Y92.99585
G01 X25.81057 Y92.99969
G01 X25.59599 Y93.02382
G01 X25.56711 Y93.02753
G01 X25.50923 Y93.04170
G01 X25.33077 Y93.09164
G01 X25.22797 Y93.12753
G01 X25.14598 Y93.16075
G01 X25.10278 Y93.18077
G01 X24.88743 Y93.29751
G01 X24.88609 Y93.29834
G01 X24.81337 Y93.34902
G01 X24.80049 Y93.35897
G01 X24.69091 Y93.44366
G01 X24.58611 Y93.53563
G01 X24.52251 Y93.59733
G01 X24.51103 Y93.60954
G01 X24.35518 Y93.79870
G01 X24.33628 Y93.82483
G01 X24.28794 Y93.89903
G01 X24.22538 Y94.00629
G01 X24.14908 Y94.15824
G01 X24.11825 Y94.22654
G01 X24.11406 Y94.23959
G01 X24.04474 Y94.46024
G01 X24.02970 Y94.52128
G01 X24.01279 Y94.60815
G01 X23.99940 Y94.70073
G01 X23.99528 Y94.75176
G01 X23.98352 Y94.84162
G01 X23.97293 Y94.89976
G01 X23.96379 Y94.95003
G01 X23.97156 Y94.99047
G01 X23.97789 Y95.02006
G01 X23.99528 Y95.13829
G01 X23.99940 Y95.18932
G01 X24.01279 Y95.28191
G01 X24.02970 Y95.36877
G01 X24.04474 Y95.42984
G01 X24.11406 Y95.65046
G01 X24.11825 Y95.66352
G01 X24.14908 Y95.73182
G01 X24.22538 Y95.88376
G01 X24.28794 Y95.99102
G01 X24.33628 Y96.06522
G01 X24.35523 Y96.09140
G01 X24.45607 Y96.21378
G01 X24.51096 Y96.28041
G01 X24.52251 Y96.29275
G01 X24.58611 Y96.35442
G01 X24.69091 Y96.44642
G01 X24.81337 Y96.54103
G01 X24.88609 Y96.59171
G01 X24.88743 Y96.59255
G01 X25.10278 Y96.70931
G01 X25.14598 Y96.72930
G01 X25.22797 Y96.76252
G01 X25.33077 Y96.79839
G01 X25.50923 Y96.84835
G01 X25.56719 Y96.86252
G01 X25.59599 Y96.86623
G01 X25.81057 Y96.89036
G01 X25.88875 Y96.89420
G01 X25.97722 Y96.89420
G01 X26.05535 Y96.89036
G01 X26.26996 Y96.86623
G01 X26.29876 Y96.86252
G01 X26.35672 Y96.84835
G01 X26.53518 Y96.79839
G01 X26.63798 Y96.76252
G01 X26.71997 Y96.72930
G01 X26.76315 Y96.70931
G01 X26.97851 Y96.59255
G01 X26.97986 Y96.59171
G01 X27.05258 Y96.54103
G01 X27.17503 Y96.44642
G01 X27.27983 Y96.35442
G01 X27.34344 Y96.29275
G01 X27.35499 Y96.28041
G01 X27.51075 Y96.09138
G01 X27.52969 Y96.06522
G01 X27.57801 Y95.99102
G01 X27.64057 Y95.88378
G01 X27.71687 Y95.73182
G01 X27.72185 Y95.72173
G01 X27.74768 Y95.66352
G01 X27.75189 Y95.65046
G01 X27.78789 Y95.53591
G01 X27.79040 Y95.52793
G01 X27.80610 Y95.48208
G01 X27.81699 Y95.45285
G01 X27.85100 Y95.37324
G01 X27.88943 Y95.29369
G01 X27.89319 Y95.28584
G01 X27.90412 Y95.26273
G04 P0 ( dwell for no time -- G64 should not smooth over this point )
G00 Z3.50000 ( retract )

G00 X29.51298 Y96.94502 ( rapid move to begin. )
G01 F200.00000
( Mill infeed pass 1/1 )
G01 Z-0.20000
G04 P0 ( dwell for no time -- G64 should not smooth over this point )
G01 F400.00000
G01 X29.51298 Y96.94502
G01 X29.41544 Y96.93539
G01 X29.32164 Y96.90695
G01 X29.23520 Y96.86074
G01 X29.15943 Y96.79856
G01 X29.09726 Y96.72280
G01 X29.05105 Y96.63636
G01 X29.02261 Y96.54256
G01 X29.01298 Y96.44502
G04 P0 ( dwell for no time -- G64 should not smooth over this point )
G00 Z3.50000 ( retract )

G00 X29.01298 Y95.71353 ( rapid move to begin. )
G01 F200.00000
( Mill infeed pass 1/1 )
G01 Z-0.20000
G04 P0 ( dwell for no time -- G64 should not smooth over this point )
G01 F400.00000
G01 X29.01298 Y95.71353
G01 X29.01298 Y94.17650
G04 P0 ( dwell for no time -- G64 should not smooth over this point )
G00 Z3.50000 ( retract )

G00 X27.90414 Y94.62758 ( rapid move to begin. )
G01 F200.00000
( Mill infeed pass 1/1 )
G01 Z-0.20000
G04 P0 ( dwell for no time -- G64 should not smooth over this point )
G01 F400.00000
G01 X27.90414 Y94.62758
G01 X27.93058 Y94.89600
G01 X27.93058 Y94.99402
G01 X27.90412 Y95.26273
G01 X27.93584 Y95.23100
G01 X28.00262 Y95.17495
G01 X28.07811 Y95.13136
G01 X28.16005 Y95.10151
G01 X28.23454 Y95.08155
G01 X28.32040 Y95.06641
G01 X28.40754 Y95.06641
G01 X28.49340 Y95.08155
G01 X28.56789 Y95.10151
G01 X28.64983 Y95.13136
G01 X28.72532 Y95.17495
G01 X28.79210 Y95.23100
G01 X28.84663 Y95.28556
G01 X28.90262 Y95.35231
G01 X28.94618 Y95.42775
G01 X28.97597 Y95.50962
G01 X28.99594 Y95.58411
G01 X29.01298 Y95.71353
G01 X29.01298 Y96.48081
G01 X29.01740 Y96.53060
G01 X29.04625 Y96.63146
G01 X29.09334 Y96.72160
G01 X29.15761 Y96.80039
G01 X29.23640 Y96.86466
G01 X29.32654 Y96.91175
G01 X29.42741 Y96.94060
G01 X29.47719 Y96.94502
G01 X30.21295 Y96.94502
G04 P0 ( dwell for no time -- G64 should not smooth over this point )
G00 Z3.50000 ( retract )

G00 X31.81300 Y96.94502 ( rapid move to begin. )
G01 F200.00000
( Mill infeed pass 1/1 )
G01 Z-0.20000
G04 P0 ( dwell for no time -- G64 should not smooth over this point )
G01 F400.00000
G01 X31.81300 Y96.94502
G01 X32.54876 Y96.94502
G01 X32.59854 Y96.94060
G01 X32.69941 Y96.91175
G01 X32.78955 Y96.86466
G01 X32.86834 Y96.80039
G01 X32.93260 Y96.72160
G01 X32.97970 Y96.63146
G01 X33.00855 Y96.53060
G01 X33.01297 Y96.48081
G01 X33.01297 Y96.44507
G01 X33.00337 Y96.54256
G01 X32.97492 Y96.63636
G01 X32.92872 Y96.72280
G01 X32.86654 Y96.79856
G01 X32.79077 Y96.86074
G01 X32.70434 Y96.90695
G01 X32.61053 Y96.93539
G01 X32.51300 Y96.94502
G04 P0 ( dwell for no time -- G64 should not smooth over this point )
G00 Z3.50000 ( retract )

G00 X32.51305 Y92.94503 ( rapid move to begin. )
G01 F200.00000
( Mill infeed pass 1/1 )
G01 Z-0.20000
G04 P0 ( dwell for no time -- G64 should not smooth over this point )
G01 F400.00000
G01 X32.51305 Y92.94503
G01 X32.61053 Y92.95463
G01 X32.70434 Y92.98308
G01 X32.79077 Y93.02928
G01 X32.86654 Y93.09146
G01 X32.92872 Y93.16723
G01 X32.97492 Y93.25366
G01 X33.00337 Y93.34747
G01 X33.01297 Y93.44498
G01 X33.01297 Y93.40924
G01 X33.00855 Y93.35946
G01 X32.97970 Y93.25859
G01 X32.93260 Y93.16845
G01 X32.86834 Y93.08966
G01 X32.78955 Y93.02540
G01 X32.69941 Y92.97830
G01 X32.59854 Y92.94945
G01 X32.54876 Y92.94503
G01 X32.51305 Y92.94503
G04 P0 ( dwell for no time -- G64 should not smooth over this point )
G00 Z3.50000 ( retract )

G00 X35.34896 Y94.43703 ( rapid move to begin. )
G01 F200.00000
( Mill infeed pass 1/1 )
G01 Z-0.20000
G04 P0 ( dwell for no time -- G64 should not smooth over this point )
G01 F400.00000
G01 X35.34896 Y94.43703
G01 X35.35173 Y94.48132
G01 X35.36405 Y94.62344
G01 X35.36633 Y94.63748
G01 X35.38480 Y94.72397
G01 X35.40644 Y94.80548
G01 X35.43026 Y94.87408
G01 X35.46336 Y94.95615
G01 X35.47421 Y94.97967
G01 X35.53783 Y95.09417
G01 X35.56656 Y95.14228
G01 X35.58663 Y95.16804
G01 X35.68376 Y95.28810
G01 X35.68541 Y95.28986
G01 X35.74921 Y95.35130
G01 X35.82152 Y95.41444
G01 X35.87032 Y95.45097
G01 X35.94367 Y95.50047
G01 X35.97575 Y95.51993
G01 X36.08221 Y95.57395
G01 X36.14362 Y95.60230
G01 X36.16364 Y95.60868
G01 X36.31362 Y95.65455
G01 X36.32246 Y95.65722
G01 X36.40064 Y95.67045
G01 X36.50753 Y95.68376
G01 X36.55670 Y95.68620
G01 X36.64530 Y95.68620
G01 X36.69442 Y95.68376
G01 X36.80130 Y95.67045
G01 X36.87949 Y95.65722
G01 X36.88832 Y95.65455
G01 X37.03831 Y95.60868
G01 X37.05830 Y95.60230
G01 X37.11974 Y95.57395
G01 X37.22617 Y95.51993
G01 X37.25828 Y95.50047
G01 X37.33163 Y95.45097
G01 X37.38040 Y95.41444
G01 X37.45274 Y95.35130
G01 X37.51654 Y95.28983
G01 X37.51827 Y95.28800
G01 X37.61522 Y95.16816
G01 X37.63536 Y95.14231
G01 X37.66412 Y95.09417
G01 X37.72774 Y94.97967
G01 X37.73859 Y94.95615
G01 X37.77169 Y94.87408
G01 X37.79551 Y94.80548
G01 X37.81715 Y94.72397
G01 X37.81878 Y94.71772
G01 X37.83562 Y94.63748
G01 X37.83790 Y94.62344
G01 X37.85022 Y94.48132
G01 X37.85299 Y94.43703
G01 X37.85022 Y94.39270
G01 X37.83816 Y94.25366
G01 X37.83790 Y94.25056
G01 X37.83562 Y94.23657
G01 X37.81715 Y94.15008
G01 X37.79551 Y94.06857
G01 X37.77169 Y93.99997
G01 X37.73859 Y93.91790
G01 X37.72774 Y93.89438
G01 X37.66412 Y93.77988
G01 X37.63539 Y93.73177
G01 X37.61532 Y93.70601
G01 X37.51819 Y93.58600
G01 X37.51654 Y93.58422
G01 X37.45274 Y93.52275
G01 X37.38042 Y93.45963
G01 X37.33163 Y93.42311
G01 X37.25828 Y93.37358
G01 X37.22620 Y93.35415
G01 X37.11974 Y93.30010
G01 X37.05830 Y93.27175
G01 X37.03831 Y93.26537
G01 X36.88832 Y93.21950
G01 X36.87949 Y93.21683
G01 X36.80130 Y93.20360
G01 X36.69442 Y93.19029
G01 X36.64530 Y93.18785
G01 X36.55670 Y93.18785
G01 X36.50753 Y93.19029
G01 X36.40064 Y93.20360
G01 X36.32249 Y93.21683
G01 X36.31362 Y93.21950
G01 X36.16364 Y93.26537
G01 X36.14365 Y93.27175
G01 X36.08221 Y93.30010
G01 X35.97575 Y93.35415
G01 X35.94367 Y93.37358
G01 X35.87032 Y93.42311
G01 X35.82152 Y93.45963
G01 X35.74921 Y93.52275
G01 X35.68541 Y93.58422
G01 X35.68376 Y93.58600
G01 X35.58663 Y93.70601
G01 X35.56656 Y93.73177
G01 X35.53783 Y93.77988
G01 X35.51959 Y93.81272
G01 X35.47421 Y93.89441
G01 X35.46336 Y93.91790
G01 X35.43026 Y93.99997
G01 X35.40644 Y94.06857
G01 X35.38480 Y94.15008
G01 X35.36633 Y94.23657
G01 X35.36405 Y94.25061
G01 X35.35173 Y94.39270
G01 X35.34896 Y94.43703
G04 P0 ( dwell for no time -- G64 should not smooth over this point )
G00 Z3.50000 ( retract )

G00 X40.23681 Y94.81803 ( rapid move to begin. )
G01 F200.00000
( Mill infeed pass 1/1 )
G01 Z-0.20000
G04 P0 ( dwell for no time -- G64 should not smooth over this point )
G01 F400.00000
G01 X40.23681 Y94.81803
G01 X40.23927 Y94.86232
G01 X40.25540 Y95.06230
G01 X40.26879 Y95.15491
G01 X40.28570 Y95.24177
G01 X40.29617 Y95.28422
G01 X40.30076 Y95.30291
G01 X40.37006 Y95.52346
G01 X40.37425 Y95.53652
G01 X40.40508 Y95.60482
G01 X40.48138 Y95.75676
G01 X40.54394 Y95.86402
G01 X40.59228 Y95.93822
G01 X40.61118 Y95.96435
G01 X40.76696 Y96.15341
G01 X40.77851 Y96.16575
G01 X40.84211 Y96.22742
G01 X40.94691 Y96.31942
G01 X41.06937 Y96.41403
G01 X41.14209 Y96.46471
G01 X41.14346 Y96.46557
G01 X41.35875 Y96.58228
G01 X41.40198 Y96.60230
G01 X41.48397 Y96.63552
G01 X41.58677 Y96.67139
G01 X41.76523 Y96.72137
G01 X41.82321 Y96.73552
G01 X41.85199 Y96.73923
G01 X42.06660 Y96.76336
G01 X42.14475 Y96.76720
G01 X42.23325 Y96.76720
G01 X42.31135 Y96.76336
G01 X42.52596 Y96.73923
G01 X42.55476 Y96.73552
G01 X42.61272 Y96.72137
G01 X42.79118 Y96.67139
G01 X42.89398 Y96.63552
G01 X42.97597 Y96.60230
G01 X43.01917 Y96.58228
G01 X43.23451 Y96.46557
G01 X43.23586 Y96.46471
G01 X43.30858 Y96.41403
G01 X43.43103 Y96.31942
G01 X43.53583 Y96.22742
G01 X43.59944 Y96.16575
G01 X43.61099 Y96.15341
G01 X43.76675 Y95.96438
G01 X43.78569 Y95.93822
G01 X43.83401 Y95.86402
G01 X43.89657 Y95.75678
G01 X43.97287 Y95.60482
G01 X44.00363 Y95.53667
G01 X44.00789 Y95.52346
G01 X44.07721 Y95.30284
G01 X44.09225 Y95.24177
G01 X44.10916 Y95.15491
G01 X44.12499 Y95.04520
G01 X44.13924 Y94.96926
G01 X44.15054 Y94.92046
G01 X44.16515 Y94.86491
G01 X44.17955 Y94.81610
G01 X44.17142 Y94.78534
G01 X44.16746 Y94.77088
G01 X44.15029 Y94.70990
G01 X44.12499 Y94.59085
G01 X44.10916 Y94.48115
G01 X44.09225 Y94.39428
G01 X44.07721 Y94.33322
G01 X44.00789 Y94.11259
G01 X44.00368 Y94.09951
G01 X43.97287 Y94.03124
G01 X43.90251 Y93.89108
G01 X43.89659 Y93.87932
G01 X43.83401 Y93.77203
G01 X43.78569 Y93.69783
G01 X43.76675 Y93.67167
G01 X43.61102 Y93.48267
G01 X43.59944 Y93.47033
G01 X43.53581 Y93.40863
G01 X43.43103 Y93.31663
G01 X43.30858 Y93.22202
G01 X43.23586 Y93.17134
G01 X43.23451 Y93.17051
G01 X43.01917 Y93.05377
G01 X42.97597 Y93.03375
G01 X42.89398 Y93.00053
G01 X42.79118 Y92.96466
G01 X42.61272 Y92.91470
G01 X42.55479 Y92.90053
G01 X42.52596 Y92.89682
G01 X42.31135 Y92.87269
G01 X42.23325 Y92.86885
G01 X42.14475 Y92.86885
G01 X42.06660 Y92.87269
G01 X41.85199 Y92.89682
G01 X41.82316 Y92.90053
G01 X41.76523 Y92.91470
G01 X41.58677 Y92.96466
G01 X41.48397 Y93.00053
G01 X41.40198 Y93.03375
G01 X41.35878 Y93.05377
G01 X41.14343 Y93.17051
G01 X41.14209 Y93.17134
G01 X41.06937 Y93.22202
G01 X40.94691 Y93.31663
G01 X40.84211 Y93.40863
G01 X40.77851 Y93.47033
G01 X40.76703 Y93.48254
G01 X40.61118 Y93.67172
G01 X40.59228 Y93.69786
G01 X40.54394 Y93.77203
G01 X40.48136 Y93.87932
G01 X40.40508 Y94.03124
G01 X40.37425 Y94.09954
G01 X40.37006 Y94.11259
G01 X40.30074 Y94.33322
G01 X40.28570 Y94.39428
G01 X40.28364 Y94.40279
G01 X40.26879 Y94.48115
G01 X40.25540 Y94.57373
G01 X40.25220 Y94.61356
G01 X40.23927 Y94.77370
G01 X40.23681 Y94.81803
G04 P0 ( dwell for no time -- G64 should not smooth over this point )
G00 Z3.50000 ( retract )

G00 X45.26989 Y94.81780 ( rapid move to begin. )
G01 F200.00000
( Mill infeed pass 1/1 )
G01 Z-0.20000
G04 P0 ( dwell for no time -- G64 should not smooth over this point )
G01 F400.00000
G01 X45.26989 Y94.81780
G01 X45.26911 Y94.81401
G01 X45.27162 Y94.80583
G01 X45.31135 Y94.60291
G01 X45.31554 Y94.55320
G01 X45.31874 Y94.47741
G01 X45.31874 Y93.31800
G01 X45.31985 Y93.27271
G01 X45.32184 Y93.25318
G01 X45.34746 Y93.15620
G01 X45.39031 Y93.07213
G01 X45.43116 Y93.02004
G01 X45.44973 Y92.99875
G01 X45.52305 Y92.93939
G01 X45.60718 Y92.89652
G01 X45.70413 Y92.87089
G01 X45.72364 Y92.86891
G01 X45.76895 Y92.86776
G01 X48.76900 Y92.86776
G01 X48.81431 Y92.86891
G01 X48.83382 Y92.87089
G01 X48.93079 Y92.89652
G01 X49.01489 Y92.93937
G01 X49.08822 Y92.99878
G01 X49.14763 Y93.07211
G01 X49.19048 Y93.15620
G01 X49.21611 Y93.25318
G01 X49.21809 Y93.27269
G01 X49.21921 Y93.31800
G01 X49.21921 Y96.31802
G01 X49.21809 Y96.36336
G01 X49.21611 Y96.38287
G01 X49.19048 Y96.47982
G01 X49.14761 Y96.56395
G01 X49.08822 Y96.63728
G01 X49.01487 Y96.69669
G01 X48.93079 Y96.73956
G01 X48.83382 Y96.76516
G01 X48.81429 Y96.76717
G01 X48.76900 Y96.76826
G01 X45.76895 Y96.76826
G01 X45.72356 Y96.76715
G01 X45.70416 Y96.76516
G01 X45.60718 Y96.73956
G01 X45.52308 Y96.69669
G01 X45.44970 Y96.63725
G01 X45.39031 Y96.56392
G01 X45.34746 Y96.47985
G01 X45.32184 Y96.38287
G01 X45.31985 Y96.36336
G01 X45.31874 Y96.31802
G01 X45.31874 Y95.15864
G01 X45.31091 Y95.04007
G01 X45.30075 Y94.96293
G01 X45.26992 Y94.81782
G01 X45.26989 Y94.81780
G01 X45.26845 Y94.81526
G01 X45.26911 Y94.81401
G04 P0 ( dwell for no time -- G64 should not smooth over this point )
G00 Z3.50000 ( retract )

G00 X40.28938 Y88.10328 ( rapid move to begin. )
G01 F200.00000
( Mill infeed pass 1/1 )
G01 Z-0.20000
G04 P0 ( dwell for no time -- G64 should not smooth over this point )
G01 F400.00000
G01 X40.28938 Y88.10328
G01 X40.28938 Y88.03800
G01 X40.29640 Y87.96701
G04 P0 ( dwell for no time -- G64 should not smooth over this point )
G00 Z3.50000 ( retract )

G00 X41.30698 Y86.94740 ( rapid move to begin. )
G01 F200.00000
( Mill infeed pass 1/1 )
G01 Z-0.20000
G04 P0 ( dwell for no time -- G64 should not smooth over this point )
G01 F400.00000
G01 X41.30698 Y86.94740
G01 X41.38799 Y86.93943
G01 X41.48600 Y86.93943
G01 X41.55728 Y86.94644
G04 P0 ( dwell for no time -- G64 should not smooth over this point )
G00 Z3.50000 ( retract )

G00 X42.57663 Y87.95759 ( rapid move to begin. )
G01 F200.00000
( Mill infeed pass 1/1 )
G01 Z-0.20000
G04 P0 ( dwell for no time -- G64 should not smooth over this point )
G01 F400.00000
G01 X42.57663 Y87.95759
G01 X42.64798 Y87.96460
G01 X42.71318 Y87.96460
G01 X42.76053 Y88.01194
G01 X42.72563 Y88.03089
G01 X42.65298 Y88.07897
G01 X42.58979 Y88.13894
G01 X42.58344 Y88.14758
G04 P0 ( dwell for no time -- G64 should not smooth over this point )
G00 Z3.50000 ( retract )

G00 X43.84457 Y86.80079 ( rapid move to begin. )
G01 F200.00000
( Mill infeed pass 1/1 )
G01 Z-0.20000
G04 P0 ( dwell for no time -- G64 should not smooth over this point )
G01 F400.00000
G01 X43.84457 Y86.80079
G01 X43.84457 Y86.83326
G01 X43.84892 Y86.83760
G01 X43.85054 Y86.81703
G01 X43.84892 Y86.79648
G01 X43.84457 Y86.80079
G04 P0 ( dwell for no time -- G64 should not smooth over this point )
G00 Z3.50000 ( retract )

G00 X41.27798 Y86.00555 ( rapid move to begin. )
G01 F200.00000
( Mill infeed pass 1/1 )
G01 Z-0.20000
G04 P0 ( dwell for no time -- G64 should not smooth over this point )
G01 F400.00000
G01 X41.27798 Y86.00555
G01 X41.29738 Y86.06948
G01 X41.30698 Y86.16701
G01 X41.30698 Y86.94740
G01 X41.26523 Y86.99350
G01 X41.19698 Y87.07631
G01 X41.10246 Y87.20377
G01 X41.06607 Y87.25799
G01 X40.98971 Y87.38543
G01 X40.97150 Y87.41939
G01 X40.94897 Y87.46701
G01 X40.90252 Y87.53620
G01 X40.88672 Y87.55299
G01 X40.80696 Y87.60986
G01 X40.77407 Y87.62541
G01 X40.74133 Y87.64298
G01 X40.61392 Y87.71936
G01 X40.56116 Y87.75472
G01 X40.43373 Y87.84923
G01 X40.35240 Y87.91624
G01 X40.29640 Y87.96701
G01 X40.12794 Y87.96701
G01 X40.16167 Y87.98769
G01 X40.23170 Y88.03950
G01 X40.28758 Y88.09840
G01 X40.28938 Y88.10328
G01 X40.30102 Y88.13480
G01 X40.31859 Y88.18682
G01 X40.34072 Y88.25896
G01 X40.34168 Y88.26203
G01 X40.36744 Y88.34494
G01 X40.37653 Y88.37623
G01 X40.39035 Y88.42708
G01 X40.40457 Y88.46686
G01 X40.43841 Y88.54849
G01 X40.45644 Y88.58664
G01 X40.49883 Y88.66066
G01 X40.54595 Y88.73437
G01 X40.54671 Y88.73526
G01 X40.62853 Y88.83297
G01 X40.65776 Y88.86622
G01 X40.69109 Y88.89553
G01 X40.78880 Y88.97732
G01 X40.78964 Y88.97803
G01 X40.86327 Y89.02512
G01 X40.93736 Y89.06757
G01 X40.97544 Y89.08558
G01 X41.05723 Y89.11946
G01 X41.09690 Y89.13366
G01 X41.17932 Y89.15601
G01 X41.26467 Y89.17481
G01 X41.39271 Y89.18616
G01 X41.43698 Y89.18898
G01 X41.48123 Y89.18616
G01 X41.60818 Y89.17491
G01 X41.60927 Y89.17481
G01 X41.69467 Y89.15601
G01 X41.77704 Y89.13366
G01 X41.81671 Y89.11946
G01 X41.89845 Y89.08560
G01 X41.93657 Y89.06757
G01 X42.01064 Y89.02512
G01 X42.08430 Y88.97803
G01 X42.18290 Y88.89551
G01 X42.21618 Y88.86620
G01 X42.24541 Y88.83297
G01 X42.32723 Y88.73526
G01 X42.32796 Y88.73437
G01 X42.37508 Y88.66071
G01 X42.39479 Y88.62632
G01 X42.41750 Y88.58667
G01 X42.43553 Y88.54857
G01 X42.46942 Y88.46676
G01 X42.48397 Y88.42604
G01 X42.48582 Y88.41951
G01 X42.51018 Y88.34598
G01 X42.52977 Y88.29442
G01 X42.54209 Y88.25992
G01 X42.55557 Y88.21977
G01 X42.58344 Y88.14758
G01 X42.58458 Y88.13602
G01 X42.58458 Y88.03800
G01 X42.57663 Y87.95759
G01 X42.53398 Y87.91494
G01 X42.52563 Y87.90663
G01 X42.46075 Y87.84306
G01 X42.45428 Y87.83666
G01 X42.35854 Y87.74090
G01 X42.35209 Y87.73452
G01 X42.30945 Y87.69289
G01 X42.30393 Y87.68746
G01 X42.21524 Y87.59876
G01 X42.20975 Y87.59335
G01 X42.17734 Y87.56183
G01 X42.17229 Y87.55683
G01 X42.08674 Y87.47130
G01 X42.08171 Y87.46635
G01 X42.05225 Y87.43773
G01 X42.04717 Y87.43270
G01 X41.96170 Y87.34725
G01 X41.95659 Y87.34220
G01 X41.92418 Y87.31067
G01 X41.91872 Y87.30529
G01 X41.83000 Y87.21659
G01 X41.82451 Y87.21116
G01 X41.78186 Y87.16953
G01 X41.77541 Y87.16315
G01 X41.67970 Y87.06744
G01 X41.67320 Y87.06099
G01 X41.60833 Y86.99742
G01 X41.59995 Y86.98911
G01 X41.55728 Y86.94644
G01 X41.54940 Y86.86602
G01 X41.54940 Y86.76800
G01 X41.56187 Y86.64121
G01 X41.58100 Y86.54507
G01 X41.61801 Y86.42312
G01 X41.65550 Y86.33257
G01 X41.71557 Y86.22020
G01 X41.77003 Y86.13869
G01 X41.85088 Y86.04019
G01 X41.92017 Y85.97090
G01 X42.01867 Y85.89005
G01 X42.10018 Y85.83559
G01 X42.21255 Y85.77552
G01 X42.30310 Y85.73803
G01 X42.42504 Y85.70103
G01 X42.52118 Y85.68190
G01 X42.64798 Y85.66943
G01 X42.71321 Y85.66943
G01 X42.71755 Y85.66508
G01 X42.69697 Y85.66346
G01 X42.51651 Y85.67766
G01 X42.34051 Y85.71992
G01 X42.17328 Y85.78919
G01 X42.01892 Y85.88380
G01 X41.97790 Y85.91883
G01 X41.88613 Y85.98101
G01 X41.82794 Y86.01164
G01 X41.71499 Y86.05462
G01 X41.59505 Y86.06922
G01 X41.51791 Y86.06922
G01 X41.43104 Y86.06160
G01 X41.34684 Y86.03905
G01 X41.27991 Y86.00783
G01 X41.27798 Y86.00555
G01 X41.27082 Y85.99701
G01 X41.21631 Y85.93714
G01 X41.14834 Y85.86836
G01 X41.05288 Y85.78838
G01 X40.96876 Y85.74553
G01 X40.87176 Y85.71987
G01 X40.85222 Y85.71792
G01 X40.80696 Y85.71677
G01 X39.50699 Y85.71677
G01 X39.46173 Y85.71792
G01 X39.44219 Y85.71987
G01 X39.34517 Y85.74553
G01 X39.26107 Y85.78838
G01 X39.18774 Y85.84779
G01 X39.14910 Y85.89366
G01 X39.12835 Y85.92112
G01 X39.08548 Y86.00524
G01 X39.05982 Y86.10224
G01 X39.05787 Y86.12178
G01 X39.05672 Y86.16701
G01 X39.05672 Y87.46701
G01 X39.05787 Y87.51227
G01 X39.05982 Y87.53181
G01 X39.08548 Y87.62881
G01 X39.12833 Y87.71293
G01 X39.18774 Y87.78629
G01 X39.26107 Y87.84567
G01 X39.34517 Y87.88852
G01 X39.44214 Y87.91415
G01 X39.46190 Y87.91616
G01 X39.50699 Y87.91728
G01 X39.79231 Y87.91728
G01 X39.85710 Y87.91961
G01 X39.89985 Y87.92269
G01 X40.09038 Y87.95642
G01 X40.12794 Y87.96701
G04 P0 ( dwell for no time -- G64 should not smooth over this point )
G00 Z3.50000 ( retract )

G00 X35.34896 Y84.27703 ( rapid move to begin. )
G01 F200.00000
( Mill infeed pass 1/1 )
G01 Z-0.20000
G04 P0 ( dwell for no time -- G64 should not smooth over this point )
G01 F400.00000
G01 X35.34896 Y84.27703
G01 X35.35173 Y84.32132
G01 X35.36405 Y84.46344
G01 X35.36633 Y84.47748
G01 X35.38480 Y84.56397
G01 X35.40644 Y84.64548
G01 X35.43026 Y84.71408
G01 X35.46336 Y84.79615
G01 X35.47421 Y84.81967
G01 X35.53783 Y84.93417
G01 X35.56656 Y84.98228
G01 X35.58663 Y85.00804
G01 X35.68376 Y85.12810
G01 X35.68541 Y85.12986
G01 X35.74921 Y85.19130
G01 X35.82152 Y85.25444
G01 X35.87032 Y85.29097
G01 X35.94367 Y85.34047
G01 X35.97575 Y85.35993
G01 X36.08221 Y85.41395
G01 X36.14362 Y85.44230
G01 X36.16364 Y85.44868
G01 X36.31362 Y85.49455
G01 X36.32246 Y85.49722
G01 X36.40064 Y85.51045
G01 X36.50753 Y85.52376
G01 X36.55670 Y85.52620
G01 X36.64530 Y85.52620
G01 X36.69442 Y85.52376
G01 X36.80130 Y85.51045
G01 X36.87949 Y85.49722
G01 X36.88832 Y85.49455
G01 X37.03831 Y85.44868
G01 X37.05830 Y85.44230
G01 X37.11974 Y85.41395
G01 X37.22617 Y85.35993
G01 X37.25828 Y85.34047
G01 X37.33163 Y85.29097
G01 X37.38040 Y85.25444
G01 X37.45274 Y85.19130
G01 X37.51654 Y85.12986
G01 X37.51817 Y85.12810
G01 X37.57296 Y85.06041
G01 X37.61532 Y85.00804
G01 X37.63536 Y84.98231
G01 X37.66412 Y84.93417
G01 X37.72774 Y84.81967
G01 X37.73859 Y84.79615
G01 X37.77169 Y84.71408
G01 X37.79551 Y84.64548
G01 X37.81715 Y84.56397
G01 X37.83562 Y84.47748
G01 X37.83790 Y84.46344
G01 X37.85022 Y84.32132
G01 X37.85299 Y84.27700
G01 X37.85022 Y84.23270
G01 X37.83790 Y84.09061
G01 X37.83562 Y84.07657
G01 X37.81715 Y83.99008
G01 X37.79551 Y83.90857
G01 X37.77169 Y83.83997
G01 X37.73859 Y83.75790
G01 X37.72774 Y83.73438
G01 X37.66412 Y83.61988
G01 X37.63539 Y83.57177
G01 X37.61532 Y83.54601
G01 X37.51819 Y83.42597
G01 X37.51654 Y83.42422
G01 X37.45274 Y83.36275
G01 X37.38042 Y83.29963
G01 X37.33163 Y83.26308
G01 X37.25828 Y83.21358
G01 X37.22620 Y83.19415
G01 X37.11974 Y83.14010
G01 X37.05830 Y83.11175
G01 X37.03831 Y83.10537
G01 X36.88832 Y83.05950
G01 X36.87949 Y83.05683
G01 X36.80130 Y83.04360
G01 X36.69442 Y83.03029
G01 X36.64530 Y83.02785
G01 X36.55670 Y83.02785
G01 X36.50753 Y83.03029
G01 X36.40064 Y83.04360
G01 X36.32246 Y83.05683
G01 X36.31362 Y83.05950
G01 X36.16364 Y83.10537
G01 X36.14365 Y83.11175
G01 X36.08221 Y83.14010
G01 X35.97575 Y83.19415
G01 X35.94367 Y83.21358
G01 X35.87032 Y83.26308
G01 X35.82152 Y83.29963
G01 X35.74921 Y83.36275
G01 X35.68541 Y83.42422
G01 X35.68376 Y83.42597
G01 X35.58663 Y83.54601
G01 X35.56656 Y83.57177
G01 X35.53783 Y83.61988
G01 X35.51680 Y83.65770
G01 X35.47421 Y83.73438
G01 X35.46336 Y83.75790
G01 X35.43026 Y83.83997
G01 X35.40644 Y83.90857
G01 X35.38480 Y83.99008
G01 X35.36633 Y84.07657
G01 X35.36405 Y84.09061
G01 X35.35173 Y84.23270
G01 X35.34896 Y84.27703
G04 P0 ( dwell for no time -- G64 should not smooth over this point )
G00 Z3.50000 ( retract )

G00 X31.28496 Y76.35223 ( rapid move to begin. )
G01 F200.00000
( Mill infeed pass 1/1 )
G01 Z-0.20000
G04 P0 ( dwell for no time -- G64 should not smooth over this point )
G01 F400.00000
G01 X31.28496 Y76.35223
G01 X31.28773 Y76.30790
G01 X31.30005 Y76.16581
G01 X31.30233 Y76.15177
G01 X31.32080 Y76.06528
G01 X31.34244 Y75.98377
G01 X31.36626 Y75.91517
G01 X31.39936 Y75.83310
G01 X31.41021 Y75.80958
G01 X31.47383 Y75.69508
G01 X31.50256 Y75.64697
G01 X31.52263 Y75.62121
G01 X31.61976 Y75.50117
G01 X31.62141 Y75.49942
G01 X31.68521 Y75.43795
G01 X31.75752 Y75.37483
G01 X31.80632 Y75.33828
G01 X31.87967 Y75.28878
G01 X31.91175 Y75.26935
G01 X32.01820 Y75.21530
G01 X32.07965 Y75.18695
G01 X32.09964 Y75.18057
G01 X32.24962 Y75.13470
G01 X32.25846 Y75.13203
G01 X32.33664 Y75.11880
G01 X32.44353 Y75.10549
G01 X32.49270 Y75.10305
G01 X32.58130 Y75.10305
G01 X32.63042 Y75.10549
G01 X32.73730 Y75.11880
G01 X32.81549 Y75.13203
G01 X32.82432 Y75.13470
G01 X32.97431 Y75.18057
G01 X32.99430 Y75.18695
G01 X33.05574 Y75.21530
G01 X33.16220 Y75.26935
G01 X33.19428 Y75.28878
G01 X33.26763 Y75.33828
G01 X33.31642 Y75.37483
G01 X33.38874 Y75.43795
G01 X33.45254 Y75.49942
G01 X33.45419 Y75.50117
G01 X33.55132 Y75.62121
G01 X33.57139 Y75.64697
G01 X33.60012 Y75.69508
G01 X33.66374 Y75.80958
G01 X33.67459 Y75.83310
G01 X33.70769 Y75.91517
G01 X33.73151 Y75.98377
G01 X33.75315 Y76.06528
G01 X33.77162 Y76.15177
G01 X33.77390 Y76.16576
G01 X33.77583 Y76.18819
G01 X33.78622 Y76.30790
G01 X33.78899 Y76.35223
G01 X33.78622 Y76.39652
G01 X33.77390 Y76.53864
G01 X33.77162 Y76.55268
G01 X33.75315 Y76.63917
G01 X33.73151 Y76.72068
G01 X33.70769 Y76.78928
G01 X33.67459 Y76.87135
G01 X33.66374 Y76.89487
G01 X33.60012 Y77.00937
G01 X33.57136 Y77.05751
G01 X33.55132 Y77.08324
G01 X33.52552 Y77.11511
G01 X33.45422 Y77.20325
G01 X33.45254 Y77.20503
G01 X33.38874 Y77.26650
G01 X33.31640 Y77.32964
G01 X33.26763 Y77.36617
G01 X33.19428 Y77.41567
G01 X33.16217 Y77.43513
G01 X33.05574 Y77.48915
G01 X32.99430 Y77.51750
G01 X32.97431 Y77.52388
G01 X32.82432 Y77.56975
G01 X32.81549 Y77.57242
G01 X32.73730 Y77.58565
G01 X32.63042 Y77.59896
G01 X32.58130 Y77.60140
G01 X32.49270 Y77.60140
G01 X32.44353 Y77.59896
G01 X32.33664 Y77.58565
G01 X32.25846 Y77.57242
G01 X32.24962 Y77.56975
G01 X32.09964 Y77.52388
G01 X32.07962 Y77.51750
G01 X32.01820 Y77.48915
G01 X31.91175 Y77.43513
G01 X31.87967 Y77.41567
G01 X31.80632 Y77.36617
G01 X31.75752 Y77.32964
G01 X31.68521 Y77.26650
G01 X31.62141 Y77.20506
G01 X31.61976 Y77.20330
G01 X31.52263 Y77.08324
G01 X31.50256 Y77.05748
G01 X31.47383 Y77.00937
G01 X31.41021 Y76.89487
G01 X31.39936 Y76.87135
G01 X31.36626 Y76.78928
G01 X31.34244 Y76.72068
G01 X31.32080 Y76.63917
G01 X31.30233 Y76.55268
G01 X31.30005 Y76.53864
G01 X31.28773 Y76.39652
G01 X31.28496 Y76.35223
G04 P0 ( dwell for no time -- G64 should not smooth over this point )
G00 Z3.50000 ( retract )

G00 X39.57867 Y78.37752 ( rapid move to begin. )
G01 F200.00000
( Mill infeed pass 1/1 )
G01 Z-0.20000
G04 P0 ( dwell for no time -- G64 should not smooth over this point )
G01 F400.00000
G01 X39.57867 Y78.37752
G01 X39.59434 Y78.36187
G01 X39.72317 Y78.25616
G01 X39.80465 Y78.20170
G01 X39.88616 Y78.15814
G04 P0 ( dwell for no time -- G64 should not smooth over this point )
G00 Z3.50000 ( retract )

G00 X39.54880 Y78.06126 ( rapid move to begin. )
G01 F200.00000
( Mill infeed pass 1/1 )
G01 Z-0.20000
G04 P0 ( dwell for no time -- G64 should not smooth over this point )
G01 F400.00000
G01 X39.54880 Y78.06126
G01 X39.54128 Y78.05194
G01 X39.47806 Y77.97739
G01 X39.44895 Y77.94465
G01 X39.44501 Y77.94041
G01 X39.41550 Y77.90719
G01 X39.38654 Y77.87292
G01 X39.37364 Y77.85799
G01 X39.35604 Y77.83454
G01 X39.30646 Y77.76127
G01 X39.29998 Y77.75060
G01 X39.28395 Y77.71770
G01 X39.24913 Y77.63630
G01 X39.24763 Y77.63228
G01 X39.23600 Y77.58905
G01 X39.21723 Y77.50252
G01 X39.21700 Y77.50117
G01 X39.21395 Y77.46477
G01 X39.21342 Y77.45365
G01 X39.21232 Y77.40942
G01 X39.21232 Y76.20940
G01 X39.21342 Y76.16521
G01 X39.21395 Y76.15408
G01 X39.21700 Y76.11768
G01 X39.21723 Y76.11634
G01 X39.23600 Y76.02980
G01 X39.24765 Y75.98654
G01 X39.24913 Y75.98255
G01 X39.28395 Y75.90115
G01 X39.29591 Y75.87659
G01 X39.29998 Y75.86825
G01 X39.30646 Y75.85759
G01 X39.35604 Y75.78431
G01 X39.37316 Y75.76150
G01 X39.38695 Y75.74628
G01 X39.44943 Y75.68380
G01 X39.46465 Y75.67001
G01 X39.48746 Y75.65289
G01 X39.56073 Y75.60331
G01 X39.57140 Y75.59683
G01 X39.60430 Y75.58080
G01 X39.68570 Y75.54598
G01 X39.68972 Y75.54448
G01 X39.73295 Y75.53285
G01 X39.81948 Y75.51408
G01 X39.82078 Y75.51387
G01 X39.85725 Y75.51080
G01 X39.86835 Y75.51027
G01 X39.91258 Y75.50917
G01 X41.11260 Y75.50917
G01 X41.15679 Y75.51027
G01 X41.16787 Y75.51080
G01 X41.20439 Y75.51387
G01 X41.20566 Y75.51408
G01 X41.29220 Y75.53285
G01 X41.33543 Y75.54448
G01 X41.33945 Y75.54598
G01 X41.42085 Y75.58080
G01 X41.45377 Y75.59683
G01 X41.46441 Y75.60331
G01 X41.53769 Y75.65289
G01 X41.56065 Y75.67013
G01 X41.57597 Y75.68352
G01 X41.64392 Y75.74158
G01 X41.64658 Y75.74387
G01 X41.68189 Y75.77379
G01 X41.70610 Y75.79505
G01 X41.75413 Y75.83864
G01 X41.77257 Y75.85459
G01 X41.85621 Y75.87699
G01 X41.94303 Y75.88459
G01 X42.02014 Y75.88459
G01 X42.07986 Y75.87813
G01 X42.07991 Y75.87813
G01 X42.15034 Y75.84125
G01 X42.21305 Y75.80531
G01 X42.25573 Y75.77864
G01 X42.29388 Y75.75347
G01 X42.31917 Y75.73584
G01 X42.36744 Y75.70445
G01 X42.40239 Y75.68327
G01 X42.51458 Y75.62629
G01 X42.57696 Y75.59754
G01 X42.59609 Y75.59147
G01 X42.70175 Y75.55916
G01 X42.75542 Y75.54273
G01 X42.76291 Y75.54049
G01 X42.84254 Y75.52693
G01 X42.95542 Y75.51286
G01 X43.00835 Y75.51027
G01 X43.09682 Y75.51027
G01 X43.14973 Y75.51286
G01 X43.26261 Y75.52693
G01 X43.34221 Y75.54047
G01 X43.34973 Y75.54273
G01 X43.50906 Y75.59147
G01 X43.52819 Y75.59757
G01 X43.59057 Y75.62629
G01 X43.70276 Y75.68327
G01 X43.73771 Y75.70445
G01 X43.81094 Y75.75388
G01 X43.86319 Y75.79299
G01 X43.90424 Y75.82883
G01 X43.91402 Y75.83734
G01 X43.94008 Y75.85921
G01 X44.00617 Y75.91263
G01 X44.01018 Y75.91588
G01 X44.06708 Y75.96239
G01 X44.14559 Y76.02032
G01 X44.14645 Y76.02091
G01 X44.20030 Y76.10148
G01 X44.27884 Y76.24844
G01 X44.31635 Y76.33899
G01 X44.32257 Y76.35949
G01 X44.32257 Y77.25926
G01 X44.31635 Y77.27983
G01 X44.27884 Y77.37038
G01 X44.20030 Y77.51735
G01 X44.14658 Y77.59774
G01 X44.14549 Y77.59845
G01 X44.04404 Y77.67389
G01 X44.00995 Y77.70282
G01 X43.99253 Y77.71725
G01 X43.94008 Y77.75964
G01 X43.91389 Y77.78164
G01 X43.86319 Y77.82583
G01 X43.81094 Y77.86497
G01 X43.73771 Y77.91440
G01 X43.70276 Y77.93559
G01 X43.59057 Y77.99256
G01 X43.52819 Y78.02128
G01 X43.50906 Y78.02738
G01 X43.36502 Y78.07142
G01 X43.34975 Y78.07625
G01 X43.33998 Y78.07943
G01 X42.60266 Y78.07943
G01 X42.58217 Y78.08565
G01 X42.49162 Y78.12316
G01 X42.34465 Y78.20170
G01 X42.26317 Y78.25616
G01 X42.13434 Y78.36187
G01 X42.06505 Y78.43116
G01 X41.95933 Y78.55999
G01 X41.90488 Y78.64148
G01 X41.82634 Y78.78844
G01 X41.78882 Y78.87899
G01 X41.78257 Y78.89949
G01 X41.78257 Y79.63736
G01 X41.77948 Y79.64666
G01 X41.76558 Y79.69245
G01 X41.76413 Y79.69779
G01 X41.76208 Y79.70541
G01 X41.75484 Y79.73266
G01 X41.72949 Y79.80561
G01 X41.69637 Y79.88775
G01 X41.68435 Y79.91376
G01 X41.61730 Y80.03444
G01 X41.58834 Y80.08288
G01 X41.56860 Y80.10820
G01 X41.46645 Y80.23449
G01 X41.46355 Y80.23756
G01 X41.39964 Y80.29913
G01 X41.32316 Y80.36586
G01 X41.27094 Y80.40497
G01 X41.19771 Y80.45440
G01 X41.16276 Y80.47559
G01 X41.05057 Y80.53256
G01 X40.98819 Y80.56128
G01 X40.96906 Y80.56738
G01 X40.80973 Y80.61612
G01 X40.80221 Y80.61838
G01 X40.72261 Y80.63192
G01 X40.60973 Y80.64599
G01 X40.55682 Y80.64858
G01 X40.46835 Y80.64858
G01 X40.41542 Y80.64599
G01 X40.30254 Y80.63192
G01 X40.22294 Y80.61838
G01 X40.21542 Y80.61612
G01 X40.05609 Y80.56738
G01 X40.03693 Y80.56128
G01 X39.97458 Y80.53256
G01 X39.86241 Y80.47559
G01 X39.82743 Y80.45440
G01 X39.75421 Y80.40497
G01 X39.70198 Y80.36586
G01 X39.62550 Y80.29913
G01 X39.56160 Y80.23756
G01 X39.55870 Y80.23449
G01 X39.45654 Y80.10820
G01 X39.43681 Y80.08288
G01 X39.40785 Y80.03444
G01 X39.34077 Y79.91371
G01 X39.32878 Y79.88775
G01 X39.29566 Y79.80561
G01 X39.27031 Y79.73261
G01 X39.24735 Y79.64612
G01 X39.22888 Y79.55956
G01 X39.22622 Y79.54330
G01 X39.21326 Y79.39367
G01 X39.21049 Y79.34943
G01 X39.21326 Y79.30515
G01 X39.22622 Y79.15555
G01 X39.22888 Y79.13927
G01 X39.24735 Y79.05273
G01 X39.27031 Y78.96624
G01 X39.29566 Y78.89324
G01 X39.32878 Y78.81110
G01 X39.34077 Y78.78514
G01 X39.40785 Y78.66441
G01 X39.45007 Y78.59586
G01 X39.45474 Y78.58918
G01 X39.47069 Y78.56556
G01 X39.51519 Y78.49052
G01 X39.54108 Y78.44445
G01 X39.57867 Y78.37755
G01 X39.57867 Y78.37752
G01 X39.57999 Y78.37521
G01 X39.58263 Y78.36452
G01 X39.58878 Y78.27871
G01 X39.58014 Y78.19312
G01 X39.56581 Y78.11735
G01 X39.54880 Y78.06126
G01 X39.55271 Y78.06612
G01 X39.58121 Y78.08136
G01 X39.67178 Y78.11885
G01 X39.71867 Y78.13307
G01 X39.81481 Y78.15220
G01 X39.86358 Y78.15700
G01 X39.88616 Y78.15814
G01 X39.91258 Y78.15220
G01 X39.96061 Y78.14016
G01 X40.05311 Y78.12172
G01 X40.21976 Y78.09700
G01 X40.30468 Y78.08862
G01 X40.47133 Y78.08044
G01 X40.55385 Y78.08044
G01 X40.72047 Y78.08862
G01 X40.80539 Y78.09700
G01 X40.97204 Y78.12172
G01 X41.06454 Y78.14016
G01 X41.11260 Y78.15220
G01 X41.13891 Y78.15811
G01 X41.22052 Y78.20170
G01 X41.30201 Y78.25616
G01 X41.43084 Y78.36187
G01 X41.50013 Y78.43116
G01 X41.60584 Y78.55999
G01 X41.66030 Y78.64148
G01 X41.73884 Y78.78844
G01 X41.77635 Y78.87899
G01 X41.78257 Y78.89949
G04 P0 ( dwell for no time -- G64 should not smooth over this point )
G00 Z3.50000 ( retract )

G00 X41.13891 Y78.15811 ( rapid move to begin. )
G01 F200.00000
( Mill infeed pass 1/1 )
G01 Z-0.20000
G04 P0 ( dwell for no time -- G64 should not smooth over this point )
G01 F400.00000
G01 X41.13891 Y78.15811
G01 X41.16160 Y78.15700
G01 X41.21036 Y78.15220
G01 X41.30650 Y78.13307
G01 X41.35339 Y78.11885
G01 X41.44397 Y78.08136
G01 X41.48717 Y78.05824
G01 X41.56868 Y78.00378
G01 X41.59583 Y77.98148
G01 X41.60655 Y77.97269
G01 X41.67587 Y77.90338
G01 X41.70696 Y77.86551
G01 X41.76142 Y77.78400
G01 X41.78453 Y77.74079
G01 X41.82202 Y77.65022
G01 X41.83624 Y77.60333
G01 X41.85537 Y77.50719
G01 X41.86017 Y77.45842
G01 X41.86126 Y77.43574
G01 X41.85535 Y77.40942
G01 X41.84331 Y77.36139
G01 X41.82487 Y77.26889
G01 X41.80015 Y77.10224
G01 X41.79177 Y77.01732
G01 X41.78359 Y76.85068
G01 X41.78359 Y76.76815
G01 X41.79177 Y76.60153
G01 X41.80015 Y76.51661
G01 X41.82487 Y76.34996
G01 X41.84331 Y76.25746
G01 X41.85535 Y76.20940
G01 X41.86126 Y76.18306
G01 X41.86017 Y76.16040
G01 X41.85537 Y76.11164
G01 X41.83624 Y76.01550
G01 X41.82202 Y75.96861
G01 X41.78453 Y75.87803
G01 X41.77145 Y75.85362
G04 P0 ( dwell for no time -- G64 should not smooth over this point )
G00 Z3.50000 ( retract )

G00 X42.15034 Y75.84125 ( rapid move to begin. )
G01 F200.00000
( Mill infeed pass 1/1 )
G01 Z-0.20000
G04 P0 ( dwell for no time -- G64 should not smooth over this point )
G01 F400.00000
G01 X42.15034 Y75.84125
G01 X42.07986 Y75.87813
G01 X42.07610 Y75.88012
G01 X42.06505 Y75.89116
G01 X41.95933 Y76.01999
G01 X41.90488 Y76.10148
G01 X41.86126 Y76.18306
G04 P0 ( dwell for no time -- G64 should not smooth over this point )
G00 Z3.50000 ( retract )

G00 X41.86126 Y77.43574 ( rapid move to begin. )
G01 F200.00000
( Mill infeed pass 1/1 )
G01 Z-0.20000
G04 P0 ( dwell for no time -- G64 should not smooth over this point )
G01 F400.00000
G01 X41.86126 Y77.43574
G01 X41.90488 Y77.51735
G01 X41.95933 Y77.59883
G01 X42.06505 Y77.72766
G01 X42.13434 Y77.79695
G01 X42.26317 Y77.90267
G01 X42.34465 Y77.95712
G01 X42.49162 Y78.03566
G01 X42.58217 Y78.07318
G01 X42.60266 Y78.07943
G04 P0 ( dwell for no time -- G64 should not smooth over this point )
G00 Z3.50000 ( retract )

G00 X44.32257 Y77.25926 ( rapid move to begin. )
G01 F200.00000
( Mill infeed pass 1/1 )
G01 Z-0.20000
G04 P0 ( dwell for no time -- G64 should not smooth over this point )
G01 F400.00000
G01 X44.32257 Y77.25926
G01 X44.32882 Y77.27983
G01 X44.36634 Y77.37038
G01 X44.44488 Y77.51735
G01 X44.49877 Y77.59799
G01 X44.49956 Y77.59853
G01 X44.50035 Y77.59911
G04 P0 ( dwell for no time -- G64 should not smooth over this point )
G00 Z3.50000 ( retract )

G00 X44.04404 Y77.67389 ( rapid move to begin. )
G01 F200.00000
( Mill infeed pass 1/1 )
G01 Z-0.20000
G04 P0 ( dwell for no time -- G64 should not smooth over this point )
G01 F400.00000
G01 X44.04404 Y77.67389
G01 X44.14528 Y77.59860
G01 X44.26004 Y77.58021
G01 X44.33713 Y77.57734
G01 X44.42417 Y77.58171
G01 X44.50035 Y77.59911
G01 X44.57807 Y77.65646
G01 X44.63497 Y77.70297
G01 X44.63898 Y77.70622
G01 X44.70507 Y77.75964
G01 X44.73126 Y77.78164
G01 X44.78196 Y77.82583
G01 X44.83421 Y77.86497
G01 X44.90743 Y77.91440
G01 X44.94241 Y77.93559
G01 X45.05458 Y77.99256
G01 X45.11693 Y78.02128
G01 X45.13609 Y78.02738
G01 X45.28010 Y78.07142
G01 X45.29539 Y78.07625
G01 X45.30517 Y78.07943
G01 X45.87998 Y78.07943
G01 X45.88975 Y78.07625
G01 X45.90502 Y78.07142
G01 X46.04906 Y78.02738
G01 X46.06819 Y78.02128
G01 X46.13057 Y77.99256
G01 X46.24276 Y77.93559
G01 X46.27771 Y77.91440
G01 X46.35094 Y77.86497
G01 X46.40319 Y77.82583
G01 X46.45389 Y77.78164
G01 X46.48008 Y77.75964
G01 X46.53253 Y77.71725
G01 X46.54995 Y77.70282
G01 X46.58404 Y77.67389
G01 X46.68549 Y77.59845
G01 X46.68658 Y77.59774
G01 X46.74030 Y77.51735
G01 X46.81884 Y77.37038
G01 X46.85635 Y77.27983
G01 X46.86257 Y77.25926
G01 X46.86257 Y76.35949
G01 X46.85635 Y76.33899
G01 X46.81884 Y76.24844
G01 X46.74030 Y76.10148
G01 X46.68645 Y76.02091
G01 X46.68559 Y76.02032
G01 X46.60708 Y75.96239
G01 X46.55018 Y75.91588
G01 X46.54617 Y75.91263
G01 X46.48008 Y75.85921
G01 X46.45402 Y75.83734
G01 X46.44424 Y75.82883
G01 X46.40319 Y75.79299
G01 X46.35094 Y75.75388
G01 X46.27771 Y75.70445
G01 X46.24276 Y75.68327
G01 X46.13057 Y75.62629
G01 X46.06819 Y75.59757
G01 X46.04906 Y75.59147
G01 X45.88973 Y75.54273
G01 X45.88221 Y75.54047
G01 X45.80261 Y75.52693
G01 X45.68973 Y75.51286
G01 X45.63682 Y75.51027
G01 X45.54835 Y75.51027
G01 X45.49542 Y75.51286
G01 X45.38254 Y75.52693
G01 X45.30291 Y75.54049
G01 X45.29542 Y75.54273
G01 X45.24175 Y75.55916
G01 X45.13609 Y75.59147
G01 X45.11696 Y75.59754
G01 X45.05458 Y75.62629
G01 X44.94239 Y75.68327
G01 X44.90743 Y75.70445
G01 X44.83421 Y75.75388
G01 X44.78198 Y75.79299
G01 X44.73136 Y75.83716
G01 X44.70507 Y75.85924
G01 X44.65257 Y75.90165
G01 X44.63520 Y75.91603
G01 X44.60103 Y75.94504
G01 X44.49966 Y76.02040
G01 X44.49860 Y76.02109
G01 X44.44488 Y76.10148
G01 X44.36634 Y76.24844
G01 X44.32882 Y76.33899
G01 X44.32257 Y76.35949
G04 P0 ( dwell for no time -- G64 should not smooth over this point )
G00 Z3.50000 ( retract )

G00 X44.14480 Y76.01974 ( rapid move to begin. )
G01 F200.00000
( Mill infeed pass 1/1 )
G01 Z-0.20000
G04 P0 ( dwell for no time -- G64 should not smooth over this point )
G01 F400.00000
G01 X44.14480 Y76.01974
G01 X44.22097 Y76.03714
G01 X44.30802 Y76.04151
G01 X44.38511 Y76.03864
G01 X44.49987 Y76.02025
G04 P0 ( dwell for no time -- G64 should not smooth over this point )
G00 Z3.50000 ( retract )

G00 X46.68480 Y76.01974 ( rapid move to begin. )
G01 F200.00000
( Mill infeed pass 1/1 )
G01 Z-0.20000
G04 P0 ( dwell for no time -- G64 should not smooth over this point )
G01 F400.00000
G01 X46.68480 Y76.01974
G01 X46.76097 Y76.03714
G01 X46.84802 Y76.04151
G01 X46.92511 Y76.03864
G01 X47.03987 Y76.02025
G04 P0 ( dwell for no time -- G64 should not smooth over this point )
G00 Z3.50000 ( retract )

G00 X46.86257 Y76.35949 ( rapid move to begin. )
G01 F200.00000
( Mill infeed pass 1/1 )
G01 Z-0.20000
G04 P0 ( dwell for no time -- G64 should not smooth over this point )
G01 F400.00000
G01 X46.86257 Y76.35949
G01 X46.86882 Y76.33899
G01 X46.90634 Y76.24844
G01 X46.98488 Y76.10148
G01 X47.03860 Y76.02109
G01 X47.03966 Y76.02040
G01 X47.14103 Y75.94504
G01 X47.17520 Y75.91603
G01 X47.19257 Y75.90165
G01 X47.24507 Y75.85924
G01 X47.27136 Y75.83716
G01 X47.32198 Y75.79299
G01 X47.37421 Y75.75388
G01 X47.44743 Y75.70445
G01 X47.48239 Y75.68327
G01 X47.59458 Y75.62629
G01 X47.65696 Y75.59754
G01 X47.67609 Y75.59147
G01 X47.78175 Y75.55916
G01 X47.83542 Y75.54273
G01 X47.84291 Y75.54049
G01 X47.92254 Y75.52693
G01 X48.03542 Y75.51286
G01 X48.08835 Y75.51027
G01 X48.17682 Y75.51027
G01 X48.22973 Y75.51286
G01 X48.34261 Y75.52693
G01 X48.42221 Y75.54047
G01 X48.42973 Y75.54273
G01 X48.58906 Y75.59147
G01 X48.60819 Y75.59757
G01 X48.67057 Y75.62629
G01 X48.78276 Y75.68327
G01 X48.81771 Y75.70445
G01 X48.89094 Y75.75388
G01 X48.94319 Y75.79299
G01 X48.98424 Y75.82883
G01 X48.99402 Y75.83734
G01 X49.02008 Y75.85921
G01 X49.08617 Y75.91263
G01 X49.09018 Y75.91588
G01 X49.14708 Y75.96239
G01 X49.22559 Y76.02032
G01 X49.22645 Y76.02091
G01 X49.28030 Y76.10148
G01 X49.35884 Y76.24844
G01 X49.39635 Y76.33899
G01 X49.40257 Y76.35949
G01 X49.40257 Y77.25926
G01 X49.39635 Y77.27983
G01 X49.35884 Y77.37038
G01 X49.28030 Y77.51735
G01 X49.22658 Y77.59774
G01 X49.22549 Y77.59845
G01 X49.12404 Y77.67389
G01 X49.08995 Y77.70282
G01 X49.07253 Y77.71725
G01 X49.02008 Y77.75964
G01 X48.99389 Y77.78164
G01 X48.94319 Y77.82583
G01 X48.89094 Y77.86497
G01 X48.81771 Y77.91440
G01 X48.78276 Y77.93559
G01 X48.67057 Y77.99256
G01 X48.60819 Y78.02128
G01 X48.58906 Y78.02738
G01 X48.44502 Y78.07142
G01 X48.42975 Y78.07625
G01 X48.41998 Y78.07943
G01 X47.84517 Y78.07943
G01 X47.83539 Y78.07625
G01 X47.82010 Y78.07142
G01 X47.67609 Y78.02738
G01 X47.65693 Y78.02128
G01 X47.59458 Y77.99256
G01 X47.48241 Y77.93559
G01 X47.44743 Y77.91440
G01 X47.37421 Y77.86497
G01 X47.32196 Y77.82583
G01 X47.27126 Y77.78164
G01 X47.24507 Y77.75964
G01 X47.17898 Y77.70622
G01 X47.17497 Y77.70297
G01 X47.11807 Y77.65646
G01 X47.04035 Y77.59911
G01 X46.96417 Y77.58171
G01 X46.87713 Y77.57734
G01 X46.80004 Y77.58021
G01 X46.68528 Y77.59860
G01 X46.58404 Y77.67389
G04 P0 ( dwell for no time -- G64 should not smooth over this point )
G00 Z3.50000 ( retract )

G00 X47.04035 Y77.59911 ( rapid move to begin. )
G01 F200.00000
( Mill infeed pass 1/1 )
G01 Z-0.20000
G04 P0 ( dwell for no time -- G64 should not smooth over this point )
G01 F400.00000
G01 X47.04035 Y77.59911
G01 X47.03956 Y77.59853
G01 X47.03877 Y77.59799
G01 X46.98488 Y77.51735
G01 X46.90634 Y77.37038
G01 X46.86882 Y77.27983
G01 X46.86257 Y77.25926
G04 P0 ( dwell for no time -- G64 should not smooth over this point )
G00 Z3.50000 ( retract )

G00 X42.84706 Y80.68630 ( rapid move to begin. )
G01 F200.00000
( Mill infeed pass 1/1 )
G01 Z-0.20000
G04 P0 ( dwell for no time -- G64 should not smooth over this point )
G01 F400.00000
G01 X42.84706 Y80.68630
G01 X42.85997 Y80.68910
G01 X43.05257 Y80.70286
G01 X43.24518 Y80.68910
G01 X43.25806 Y80.68630
G01 X43.25379 Y80.68201
G01 X43.10160 Y80.69700
G01 X43.00358 Y80.69700
G01 X42.85136 Y80.68201
G01 X42.84706 Y80.68630
G04 P0 ( dwell for no time -- G64 should not smooth over this point )
G00 Z3.50000 ( retract )

G00 X45.38706 Y80.68630 ( rapid move to begin. )
G01 F200.00000
( Mill infeed pass 1/1 )
G01 Z-0.20000
G04 P0 ( dwell for no time -- G64 should not smooth over this point )
G01 F400.00000
G01 X45.38706 Y80.68630
G01 X45.39997 Y80.68910
G01 X45.59257 Y80.70286
G01 X45.78518 Y80.68910
G01 X45.79806 Y80.68630
G01 X45.79379 Y80.68201
G01 X45.64160 Y80.69700
G01 X45.54358 Y80.69700
G01 X45.39136 Y80.68201
G01 X45.38706 Y80.68630
G04 P0 ( dwell for no time -- G64 should not smooth over this point )
G00 Z3.50000 ( retract )

G00 X47.92706 Y80.68630 ( rapid move to begin. )
G01 F200.00000
( Mill infeed pass 1/1 )
G01 Z-0.20000
G04 P0 ( dwell for no time -- G64 should not smooth over this point )
G01 F400.00000
G01 X47.92706 Y80.68630
G01 X47.93997 Y80.68910
G01 X48.13257 Y80.70286
G01 X48.32518 Y80.68910
G01 X48.33806 Y80.68630
G01 X48.33379 Y80.68201
G01 X48.18160 Y80.69700
G01 X48.08358 Y80.69700
G01 X47.93136 Y80.68201
G01 X47.92706 Y80.68630
G04 P0 ( dwell for no time -- G64 should not smooth over this point )
G00 Z3.50000 ( retract )

G00 X50.46706 Y80.68630 ( rapid move to begin. )
G01 F200.00000
( Mill infeed pass 1/1 )
G01 Z-0.20000
G04 P0 ( dwell for no time -- G64 should not smooth over this point )
G01 F400.00000
G01 X50.46706 Y80.68630
G01 X50.47997 Y80.68910
G01 X50.67257 Y80.70286
G01 X50.86518 Y80.68910
G01 X50.87804 Y80.68630
G01 X50.87377 Y80.68201
G01 X50.72160 Y80.69700
G01 X50.62358 Y80.69700
G01 X50.47136 Y80.68201
G01 X50.46706 Y80.68630
G04 P0 ( dwell for no time -- G64 should not smooth over this point )
G00 Z3.50000 ( retract )

G00 X52.00516 Y79.14818 ( rapid move to begin. )
G01 F200.00000
( Mill infeed pass 1/1 )
G01 Z-0.20000
G04 P0 ( dwell for no time -- G64 should not smooth over this point )
G01 F400.00000
G01 X52.00516 Y79.14818
G01 X52.02017 Y79.30040
G01 X52.02017 Y79.39842
G01 X52.00516 Y79.55067
G01 X52.00943 Y79.55494
G01 X52.01225 Y79.54203
G01 X52.02599 Y79.34943
G01 X52.01225 Y79.15682
G01 X52.00943 Y79.14394
G01 X52.00516 Y79.14818
G04 P0 ( dwell for no time -- G64 should not smooth over this point )
G00 Z3.50000 ( retract )

G00 X49.58035 Y77.59911 ( rapid move to begin. )
G01 F200.00000
( Mill infeed pass 1/1 )
G01 Z-0.20000
G04 P0 ( dwell for no time -- G64 should not smooth over this point )
G01 F400.00000
G01 X49.58035 Y77.59911
G01 X49.57956 Y77.59853
G01 X49.57877 Y77.59799
G01 X49.52488 Y77.51735
G01 X49.44634 Y77.37038
G01 X49.40882 Y77.27983
G01 X49.40257 Y77.25926
G04 P0 ( dwell for no time -- G64 should not smooth over this point )
G00 Z3.50000 ( retract )

G00 X49.12404 Y77.67389 ( rapid move to begin. )
G01 F200.00000
( Mill infeed pass 1/1 )
G01 Z-0.20000
G04 P0 ( dwell for no time -- G64 should not smooth over this point )
G01 F400.00000
G01 X49.12404 Y77.67389
G01 X49.22528 Y77.59860
G01 X49.34004 Y77.58021
G01 X49.41713 Y77.57734
G01 X49.50417 Y77.58171
G01 X49.58035 Y77.59911
G01 X49.65807 Y77.65646
G01 X49.71497 Y77.70297
G01 X49.71898 Y77.70622
G01 X49.78507 Y77.75964
G01 X49.81126 Y77.78164
G01 X49.86196 Y77.82583
G01 X49.91421 Y77.86497
G01 X49.98743 Y77.91440
G01 X50.02241 Y77.93559
G01 X50.13458 Y77.99256
G01 X50.19693 Y78.02128
G01 X50.21609 Y78.02738
G01 X50.36010 Y78.07142
G01 X50.37539 Y78.07625
G01 X50.38517 Y78.07943
G01 X50.95995 Y78.07943
G01 X50.96975 Y78.07625
G01 X50.98502 Y78.07142
G01 X51.12906 Y78.02738
G01 X51.14819 Y78.02128
G01 X51.21057 Y77.99256
G01 X51.32276 Y77.93559
G01 X51.35771 Y77.91440
G01 X51.43092 Y77.86497
G01 X51.48316 Y77.82586
G01 X51.55962 Y77.75913
G01 X51.62355 Y77.69756
G01 X51.62640 Y77.69454
G01 X51.65629 Y77.65756
G01 X51.72861 Y77.56820
G01 X51.74837 Y77.54285
G01 X51.77727 Y77.49444
G01 X51.81486 Y77.42677
G01 X51.84433 Y77.37376
G01 X51.85634 Y77.34775
G01 X51.88949 Y77.26561
G01 X51.91484 Y77.19261
G01 X51.93777 Y77.10612
G01 X51.95627 Y77.01956
G01 X51.95893 Y77.00328
G01 X51.97189 Y76.85367
G01 X51.97465 Y76.80943
G01 X51.97189 Y76.76515
G01 X51.96035 Y76.63218
G01 X51.95893 Y76.61552
G01 X51.95627 Y76.59927
G01 X51.93777 Y76.51273
G01 X51.91484 Y76.42624
G01 X51.88949 Y76.35324
G01 X51.85634 Y76.27110
G01 X51.84438 Y76.24511
G01 X51.77727 Y76.12441
G01 X51.74834 Y76.07597
G01 X51.72861 Y76.05065
G01 X51.62652 Y75.92449
G01 X51.62355 Y75.92129
G01 X51.55962 Y75.85974
G01 X51.48311 Y75.79297
G01 X51.43092 Y75.75388
G01 X51.35771 Y75.70445
G01 X51.32276 Y75.68327
G01 X51.21057 Y75.62629
G01 X51.14819 Y75.59757
G01 X51.12906 Y75.59147
G01 X50.96973 Y75.54273
G01 X50.96221 Y75.54047
G01 X50.88261 Y75.52693
G01 X50.76973 Y75.51286
G01 X50.71682 Y75.51027
G01 X50.62835 Y75.51027
G01 X50.57542 Y75.51286
G01 X50.46254 Y75.52693
G01 X50.38291 Y75.54049
G01 X50.37542 Y75.54273
G01 X50.32175 Y75.55916
G01 X50.21609 Y75.59147
G01 X50.19696 Y75.59754
G01 X50.13458 Y75.62629
G01 X50.02239 Y75.68327
G01 X49.98743 Y75.70445
G01 X49.91421 Y75.75388
G01 X49.86198 Y75.79299
G01 X49.81136 Y75.83716
G01 X49.78507 Y75.85924
G01 X49.73257 Y75.90165
G01 X49.71520 Y75.91603
G01 X49.68103 Y75.94504
G01 X49.57966 Y76.02040
G01 X49.57860 Y76.02109
G01 X49.52488 Y76.10148
G01 X49.44634 Y76.24844
G01 X49.40882 Y76.33899
G01 X49.40257 Y76.35949
G04 P0 ( dwell for no time -- G64 should not smooth over this point )
G00 Z3.50000 ( retract )

G00 X49.57987 Y76.02025 ( rapid move to begin. )
G01 F200.00000
( Mill infeed pass 1/1 )
G01 Z-0.20000
G04 P0 ( dwell for no time -- G64 should not smooth over this point )
G01 F400.00000
G01 X49.57987 Y76.02025
G01 X49.46511 Y76.03864
G01 X49.38802 Y76.04151
G01 X49.30097 Y76.03714
G01 X49.22480 Y76.01974
G04 P0 ( dwell for no time -- G64 should not smooth over this point )
G00 Z3.50000 ( retract )

G00 X44.14048 Y72.54223 ( rapid move to begin. )
G01 F200.00000
( Mill infeed pass 1/1 )
G01 Z-0.20000
G04 P0 ( dwell for no time -- G64 should not smooth over this point )
G01 F400.00000
G01 X44.14048 Y72.54223
G01 X44.14315 Y72.49790
G01 X44.15692 Y72.33580
G01 X44.16212 Y72.30283
G01 X44.18016 Y72.21624
G01 X44.20157 Y72.13379
G01 X44.23708 Y72.02864
G01 X44.26954 Y71.94619
G01 X44.27259 Y71.93941
G01 X44.36225 Y71.77347
G01 X44.37119 Y71.75731
G01 X44.41234 Y71.70039
G01 X44.49679 Y71.59272
G01 X44.53662 Y71.54878
G01 X44.59913 Y71.48627
G01 X44.64307 Y71.44644
G01 X44.75074 Y71.36199
G01 X44.80766 Y71.32084
G01 X44.82382 Y71.31190
G01 X44.98976 Y71.22224
G01 X44.99654 Y71.21919
G01 X45.07899 Y71.18673
G01 X45.18414 Y71.15122
G01 X45.26659 Y71.12981
G01 X45.35318 Y71.11177
G01 X45.38615 Y71.10657
G01 X45.54830 Y71.09280
G01 X45.59257 Y71.09013
G01 X45.63690 Y71.09280
G01 X45.79900 Y71.10657
G01 X45.83197 Y71.11177
G01 X45.91856 Y71.12981
G01 X46.00101 Y71.15122
G01 X46.10616 Y71.18675
G01 X46.18861 Y71.21919
G01 X46.19539 Y71.22224
G01 X46.20123 Y71.22541
G01 X46.36133 Y71.31190
G01 X46.37749 Y71.32084
G01 X46.43441 Y71.36199
G01 X46.54208 Y71.44644
G01 X46.58602 Y71.48627
G01 X46.64853 Y71.54878
G01 X46.68836 Y71.59272
G01 X46.77281 Y71.70039
G01 X46.81396 Y71.75731
G01 X46.82290 Y71.77347
G01 X46.91256 Y71.93943
G01 X46.91561 Y71.94619
G01 X46.94805 Y72.02864
G01 X46.98358 Y72.13379
G01 X47.00499 Y72.21624
G01 X47.02303 Y72.30283
G01 X47.02823 Y72.33580
G01 X47.03667 Y72.43524
G01 X47.04200 Y72.49790
G01 X47.04467 Y72.54223
G01 X47.04200 Y72.58650
G01 X47.02823 Y72.74865
G01 X47.02303 Y72.78162
G01 X47.00499 Y72.86821
G01 X46.98358 Y72.95066
G01 X46.94805 Y73.05581
G01 X46.92331 Y73.12071
G01 X46.91561 Y73.13826
G01 X46.91254 Y73.14507
G01 X46.82290 Y73.31098
G01 X46.81396 Y73.32714
G01 X46.77281 Y73.38406
G01 X46.68836 Y73.49175
G01 X46.64853 Y73.53570
G01 X46.58602 Y73.59818
G01 X46.54210 Y73.63801
G01 X46.43441 Y73.72246
G01 X46.37749 Y73.76361
G01 X46.36133 Y73.77255
G01 X46.19537 Y73.86224
G01 X46.18861 Y73.86526
G01 X46.10616 Y73.89770
G01 X46.00093 Y73.93326
G01 X45.91856 Y73.95464
G01 X45.83197 Y73.97268
G01 X45.79897 Y73.97788
G01 X45.63690 Y73.99168
G01 X45.59257 Y73.99434
G01 X45.54830 Y73.99168
G01 X45.38617 Y73.97788
G01 X45.35318 Y73.97268
G01 X45.26659 Y73.95464
G01 X45.18414 Y73.93326
G01 X45.07899 Y73.89775
G01 X44.99654 Y73.86526
G01 X44.98976 Y73.86224
G01 X44.82382 Y73.77255
G01 X44.80766 Y73.76361
G01 X44.75074 Y73.72246
G01 X44.64305 Y73.63801
G01 X44.59913 Y73.59818
G01 X44.53662 Y73.53570
G01 X44.49679 Y73.49175
G01 X44.41234 Y73.38406
G01 X44.37119 Y73.32714
G01 X44.36225 Y73.31098
G01 X44.27259 Y73.14504
G01 X44.26954 Y73.13826
G01 X44.23708 Y73.05581
G01 X44.20157 Y72.95066
G01 X44.18016 Y72.86821
G01 X44.16212 Y72.78162
G01 X44.15692 Y72.74865
G01 X44.14315 Y72.58650
G01 X44.14048 Y72.54223
G04 P0 ( dwell for no time -- G64 should not smooth over this point )
G00 Z3.50000 ( retract )

G00 X50.35500 Y65.99322 ( rapid move to begin. )
G01 F200.00000
( Mill infeed pass 1/1 )
G01 Z-0.20000
G04 P0 ( dwell for no time -- G64 should not smooth over this point )
G01 F400.00000
G01 X50.35500 Y65.99322
G01 X50.35500 Y66.00099
G01 X50.36780 Y65.99225
G01 X50.51062 Y65.85974
G01 X50.57976 Y65.77305
G01 X50.57517 Y65.77305
G01 X50.50717 Y65.85590
G01 X50.43788 Y65.92520
G01 X50.35500 Y65.99322
G04 P0 ( dwell for no time -- G64 should not smooth over this point )
G00 Z3.50000 ( retract )

G00 X50.35500 Y63.94506 ( rapid move to begin. )
G01 F200.00000
( Mill infeed pass 1/1 )
G01 Z-0.20000
G04 P0 ( dwell for no time -- G64 should not smooth over this point )
G01 F400.00000
G01 X50.35500 Y63.94506
G01 X50.35500 Y63.95281
G01 X50.43788 Y64.02083
G01 X50.50717 Y64.09012
G01 X50.57519 Y64.17300
G01 X50.57976 Y64.17300
G01 X50.51062 Y64.08631
G01 X50.36780 Y63.95380
G01 X50.35500 Y63.94506
G04 P0 ( dwell for no time -- G64 should not smooth over this point )
G00 Z3.50000 ( retract )

G00 X47.78155 Y65.61123 ( rapid move to begin. )
G01 F200.00000
( Mill infeed pass 1/1 )
G01 Z-0.20000
G04 P0 ( dwell for no time -- G64 should not smooth over this point )
G01 F400.00000
G01 X47.78155 Y65.61123
G01 X47.81891 Y65.59492
G01 X47.90151 Y65.56718
G01 X47.98767 Y65.55420
G01 X48.07479 Y65.55636
G01 X48.15145 Y65.56500
G01 X48.23689 Y65.58227
G01 X48.31802 Y65.61412
G01 X48.39239 Y65.65956
G01 X48.45444 Y65.70536
G01 X48.54847 Y65.79593
G01 X48.59935 Y65.85974
G01 X48.74215 Y65.99225
G01 X48.75495 Y66.00099
G01 X48.75495 Y65.99319
G01 X48.67210 Y65.92520
G01 X48.60280 Y65.85590
G01 X48.50331 Y65.73467
G01 X48.44886 Y65.65316
G01 X48.37492 Y65.51486
G01 X48.34060 Y65.43200
G01 X48.33743 Y65.42431
G01 X48.29188 Y65.27422
G01 X48.27276 Y65.17811
G01 X48.25739 Y65.02202
G01 X48.25739 Y64.92400
G01 X48.27276 Y64.76792
G01 X48.29188 Y64.67181
G01 X48.33743 Y64.52172
G01 X48.37492 Y64.43117
G01 X48.44886 Y64.29286
G01 X48.50331 Y64.21136
G01 X48.60280 Y64.09012
G01 X48.67210 Y64.02083
G01 X48.75495 Y63.95283
G01 X48.75495 Y63.94506
G01 X48.74215 Y63.95380
G01 X48.59935 Y64.08631
G01 X48.54847 Y64.15012
G01 X48.53026 Y64.17166
G01 X48.51911 Y64.18413
G01 X48.46173 Y64.23889
G01 X48.39640 Y64.28387
G01 X48.32963 Y64.32243
G01 X48.25063 Y64.35926
G01 X48.22036 Y64.36739
G01 X48.16643 Y64.38182
G01 X48.07962 Y64.38944
G01 X48.00248 Y64.38944
G01 X47.91561 Y64.38182
G01 X47.83141 Y64.35926
G01 X47.78508 Y64.33764
G01 X47.78119 Y64.33416
G04 P0 ( dwell for no time -- G64 should not smooth over this point )
G00 Z3.50000 ( retract )

G00 X46.91945 Y63.70303 ( rapid move to begin. )
G01 F200.00000
( Mill infeed pass 1/1 )
G01 Z-0.20000
G04 P0 ( dwell for no time -- G64 should not smooth over this point )
G01 F400.00000
G01 X46.91945 Y63.70303
G01 X46.95419 Y63.69612
G01 X47.10428 Y63.65057
G01 X47.19483 Y63.61308
G01 X47.33313 Y63.53914
G01 X47.38287 Y63.50592
G04 P0 ( dwell for no time -- G64 should not smooth over this point )
G00 Z3.50000 ( retract )

G00 X47.38282 Y63.90008 ( rapid move to begin. )
G01 F200.00000
( Mill infeed pass 1/1 )
G01 Z-0.20000
G04 P0 ( dwell for no time -- G64 should not smooth over this point )
G01 F400.00000
G01 X47.38282 Y63.90008
G01 X47.33313 Y63.86688
G01 X47.19483 Y63.79294
G01 X47.10428 Y63.75545
G01 X46.95419 Y63.70991
G01 X46.91945 Y63.70303
G01 X45.58640 Y63.70303
G01 X45.55178 Y63.70991
G01 X45.40169 Y63.75545
G01 X45.31114 Y63.79294
G01 X45.17284 Y63.86688
G01 X45.12311 Y63.90010
G01 X45.09964 Y63.93147
G04 P0 ( dwell for no time -- G64 should not smooth over this point )
G00 Z3.50000 ( retract )

G00 X45.58640 Y63.70303 ( rapid move to begin. )
G01 F200.00000
( Mill infeed pass 1/1 )
G01 Z-0.20000
G04 P0 ( dwell for no time -- G64 should not smooth over this point )
G01 F400.00000
G01 X45.58640 Y63.70303
G01 X45.55178 Y63.69612
G01 X45.40169 Y63.65057
G01 X45.31114 Y63.61308
G01 X45.17284 Y63.53914
G01 X45.12306 Y63.50590
G04 P0 ( dwell for no time -- G64 should not smooth over this point )
G00 Z3.50000 ( retract )

G00 X46.91945 Y61.16303 ( rapid move to begin. )
G01 F200.00000
( Mill infeed pass 1/1 )
G01 Z-0.20000
G04 P0 ( dwell for no time -- G64 should not smooth over this point )
G01 F400.00000
G01 X46.91945 Y61.16303
G01 X46.95419 Y61.15612
G01 X47.10428 Y61.11057
G01 X47.19483 Y61.07308
G01 X47.33313 Y60.99914
G01 X47.38287 Y60.96592
G04 P0 ( dwell for no time -- G64 should not smooth over this point )
G00 Z3.50000 ( retract )

G00 X47.38282 Y61.36008 ( rapid move to begin. )
G01 F200.00000
( Mill infeed pass 1/1 )
G01 Z-0.20000
G04 P0 ( dwell for no time -- G64 should not smooth over this point )
G01 F400.00000
G01 X47.38282 Y61.36008
G01 X47.33313 Y61.32688
G01 X47.19483 Y61.25294
G01 X47.10428 Y61.21545
G01 X46.95419 Y61.16991
G01 X46.91945 Y61.16303
G01 X45.58640 Y61.16303
G01 X45.55178 Y61.16991
G01 X45.40169 Y61.21545
G01 X45.31114 Y61.25294
G01 X45.17284 Y61.32688
G01 X45.12311 Y61.36010
G01 X45.09964 Y61.39147
G04 P0 ( dwell for no time -- G64 should not smooth over this point )
G00 Z3.50000 ( retract )

G00 X45.58640 Y61.16303 ( rapid move to begin. )
G01 F200.00000
( Mill infeed pass 1/1 )
G01 Z-0.20000
G04 P0 ( dwell for no time -- G64 should not smooth over this point )
G01 F400.00000
G01 X45.58640 Y61.16303
G01 X45.55178 Y61.15612
G01 X45.40169 Y61.11057
G01 X45.31114 Y61.07308
G01 X45.17284 Y60.99914
G01 X45.12306 Y60.96590
G04 P0 ( dwell for no time -- G64 should not smooth over this point )
G00 Z3.50000 ( retract )

G00 X46.91945 Y58.62303 ( rapid move to begin. )
G01 F200.00000
( Mill infeed pass 1/1 )
G01 Z-0.20000
G04 P0 ( dwell for no time -- G64 should not smooth over this point )
G01 F400.00000
G01 X46.91945 Y58.62303
G01 X46.95419 Y58.61612
G01 X47.10428 Y58.57057
G01 X47.19483 Y58.53308
G01 X47.33313 Y58.45914
G01 X47.38287 Y58.42592
G04 P0 ( dwell for no time -- G64 should not smooth over this point )
G00 Z3.50000 ( retract )

G00 X47.38282 Y58.82008 ( rapid move to begin. )
G01 F200.00000
( Mill infeed pass 1/1 )
G01 Z-0.20000
G04 P0 ( dwell for no time -- G64 should not smooth over this point )
G01 F400.00000
G01 X47.38282 Y58.82008
G01 X47.33313 Y58.78688
G01 X47.19483 Y58.71294
G01 X47.10428 Y58.67545
G01 X46.95419 Y58.62991
G01 X46.91945 Y58.62303
G01 X45.58640 Y58.62303
G01 X45.55178 Y58.62991
G01 X45.40169 Y58.67545
G01 X45.31114 Y58.71294
G01 X45.17284 Y58.78688
G01 X45.12311 Y58.82010
G01 X45.09964 Y58.85147
G04 P0 ( dwell for no time -- G64 should not smooth over this point )
G00 Z3.50000 ( retract )

G00 X45.58640 Y58.62303 ( rapid move to begin. )
G01 F200.00000
( Mill infeed pass 1/1 )
G01 Z-0.20000
G04 P0 ( dwell for no time -- G64 should not smooth over this point )
G01 F400.00000
G01 X45.58640 Y58.62303
G01 X45.55178 Y58.61612
G01 X45.40169 Y58.57057
G01 X45.31114 Y58.53308
G01 X45.17284 Y58.45914
G01 X45.12306 Y58.42590
G04 P0 ( dwell for no time -- G64 should not smooth over this point )
G00 Z3.50000 ( retract )

G00 X46.91945 Y56.08303 ( rapid move to begin. )
G01 F200.00000
( Mill infeed pass 1/1 )
G01 Z-0.20000
G04 P0 ( dwell for no time -- G64 should not smooth over this point )
G01 F400.00000
G01 X46.91945 Y56.08303
G01 X46.95419 Y56.07612
G01 X47.10428 Y56.03057
G01 X47.19483 Y55.99308
G01 X47.33313 Y55.91914
G01 X47.38287 Y55.88592
G04 P0 ( dwell for no time -- G64 should not smooth over this point )
G00 Z3.50000 ( retract )

G00 X47.81850 Y55.38209 ( rapid move to begin. )
G01 F200.00000
( Mill infeed pass 1/1 )
G01 Z-0.20000
G04 P0 ( dwell for no time -- G64 should not smooth over this point )
G01 F400.00000
G01 X47.81850 Y55.38209
G01 X47.88203 Y55.35438
G01 X47.96463 Y55.32664
G01 X48.05079 Y55.31368
G01 X48.13788 Y55.31584
G01 X48.21451 Y55.32448
G01 X48.29994 Y55.34175
G01 X48.38106 Y55.37360
G01 X48.38421 Y55.37553
G01 X48.44271 Y55.43629
G01 X48.47827 Y55.47741
G01 X48.49460 Y55.49583
G01 X48.53943 Y55.54503
G01 X48.57400 Y55.58526
G01 X48.63776 Y55.66410
G01 X48.63941 Y55.66586
G01 X48.67690 Y55.70340
G01 X48.70321 Y55.72730
G01 X48.77555 Y55.79044
G01 X48.82432 Y55.82697
G01 X48.89767 Y55.87647
G01 X48.92975 Y55.89593
G01 X49.03620 Y55.94995
G01 X49.09762 Y55.97830
G01 X49.11764 Y55.98468
G01 X49.26762 Y56.03055
G01 X49.27646 Y56.03322
G01 X49.35464 Y56.04645
G01 X49.46153 Y56.05976
G01 X49.51070 Y56.06220
G01 X49.59930 Y56.06220
G01 X49.64842 Y56.05976
G01 X49.75530 Y56.04645
G01 X49.83349 Y56.03322
G01 X49.84232 Y56.03055
G01 X49.99231 Y55.98468
G01 X50.01230 Y55.97830
G01 X50.07374 Y55.94995
G01 X50.18017 Y55.89593
G01 X50.21228 Y55.87647
G01 X50.28563 Y55.82697
G01 X50.33442 Y55.79044
G01 X50.40674 Y55.72730
G01 X50.47054 Y55.66586
G01 X50.47217 Y55.66413
G01 X50.53592 Y55.58531
G01 X50.56932 Y55.54401
G01 X50.58936 Y55.51831
G01 X50.61812 Y55.47017
G01 X50.66749 Y55.38127
G01 X50.68174 Y55.35565
G01 X50.69259 Y55.33218
G01 X50.69838 Y55.31932
G01 X50.72569 Y55.25008
G01 X50.74959 Y55.18127
G01 X50.77115 Y55.09997
G01 X50.78962 Y55.01348
G01 X50.79188 Y54.99949
G01 X50.80422 Y54.85732
G01 X50.80697 Y54.81297
G01 X50.80422 Y54.76870
G01 X50.79653 Y54.67985
G01 X50.79190 Y54.62664
G01 X50.78959 Y54.61257
G01 X50.77113 Y54.52608
G01 X50.74949 Y54.44455
G01 X50.72569 Y54.37597
G01 X50.69259 Y54.29390
G01 X50.68174 Y54.27038
G01 X50.61812 Y54.15588
G01 X50.58939 Y54.10777
G01 X50.56930 Y54.08204
G01 X50.56483 Y54.07648
G01 X50.52416 Y54.02217
G01 X50.49879 Y53.98554
G01 X50.47799 Y53.95410
G01 X50.42716 Y53.87386
G01 X50.40364 Y53.83378
G01 X50.40242 Y53.83172
G01 X50.31664 Y53.76134
G01 X50.23514 Y53.70688
G01 X50.11837 Y53.64447
G01 X50.09064 Y53.64447
G01 X50.01238 Y53.64737
G01 X49.98997 Y53.64905
G01 X49.92137 Y53.65166
G01 X49.82531 Y53.65166
G01 X49.75835 Y53.65446
G01 X49.74784 Y53.65534
G01 X49.68479 Y53.65801
G01 X49.59000 Y53.65801
G01 X49.52747 Y53.66075
G01 X49.52030 Y53.66139
G01 X49.45790 Y53.66413
G01 X49.36298 Y53.66413
G01 X49.30006 Y53.66682
G01 X49.28952 Y53.66771
G01 X49.22254 Y53.67051
G01 X49.12648 Y53.67051
G01 X49.05787 Y53.67310
G01 X49.03549 Y53.67480
G01 X48.95713 Y53.67767
G01 X48.92945 Y53.67767
G01 X48.81271 Y53.61526
G01 X48.73123 Y53.56081
G01 X48.60999 Y53.46131
G01 X48.54068 Y53.39200
G01 X48.44118 Y53.27079
G01 X48.38673 Y53.18928
G01 X48.31281 Y53.05098
G01 X48.27530 Y52.96043
G01 X48.22978 Y52.81034
G01 X48.21065 Y52.71420
G01 X48.19529 Y52.55814
G01 X48.19529 Y52.46012
G01 X48.20578 Y52.35344
G01 X47.93682 Y52.08446
G04 P0 ( dwell for no time -- G64 should not smooth over this point )
G00 Z3.50000 ( retract )

G00 X46.91945 Y51.00303 ( rapid move to begin. )
G01 F200.00000
( Mill infeed pass 1/1 )
G01 Z-0.20000
G04 P0 ( dwell for no time -- G64 should not smooth over this point )
G01 F400.00000
G01 X46.91945 Y51.00303
G01 X46.95419 Y50.99612
G01 X47.10428 Y50.95057
G01 X47.19483 Y50.91308
G01 X47.33313 Y50.83914
G01 X47.41464 Y50.78469
G01 X47.53588 Y50.68520
G01 X47.60517 Y50.61590
G01 X47.67316 Y50.53305
G01 X47.67771 Y50.53305
G01 X47.63247 Y50.59203
G01 X47.60705 Y50.61743
G01 X47.52760 Y50.72096
G01 X47.48904 Y50.78774
G01 X47.45221 Y50.86673
G01 X47.42965 Y50.95093
G01 X47.42204 Y51.03775
G01 X47.42204 Y51.11489
G01 X47.43509 Y51.22840
G01 X47.43882 Y51.23884
G01 X47.44253 Y51.24422
G04 P0 ( dwell for no time -- G64 should not smooth over this point )
G00 Z3.50000 ( retract )

G00 X49.33356 Y51.21847 ( rapid move to begin. )
G01 F200.00000
( Mill infeed pass 1/1 )
G01 Z-0.20000
G04 P0 ( dwell for no time -- G64 should not smooth over this point )
G01 F400.00000
G01 X49.33356 Y51.21847
G01 X49.39544 Y51.20915
G01 X49.59028 Y51.20915
G01 X49.65215 Y51.21847
G01 X49.64857 Y51.22205
G01 X49.54189 Y51.21153
G01 X49.44387 Y51.21153
G01 X49.33714 Y51.22205
G01 X49.33356 Y51.21847
G04 P0 ( dwell for no time -- G64 should not smooth over this point )
G00 Z3.50000 ( retract )

G00 X50.40364 Y53.83378 ( rapid move to begin. )
G01 F200.00000
( Mill infeed pass 1/1 )
G01 Z-0.20000
G04 P0 ( dwell for no time -- G64 should not smooth over this point )
G01 F400.00000
G01 X50.40364 Y53.83378
G01 X50.39894 Y53.81234
G01 X50.39030 Y53.73568
G01 X50.38815 Y53.64856
G01 X50.40112 Y53.56241
G01 X50.42886 Y53.47980
G01 X50.45970 Y53.40912
G01 X50.52711 Y53.29725
G01 X50.56998 Y53.24351
G01 X50.66739 Y53.07475
G01 X50.73859 Y52.89340
G01 X50.78195 Y52.70345
G01 X50.79650 Y52.50912
G01 X50.78449 Y52.34890
G01 X50.77997 Y52.35342
G01 X50.79046 Y52.46012
G01 X50.79046 Y52.55814
G01 X50.77509 Y52.71420
G01 X50.75596 Y52.81034
G01 X50.71045 Y52.96043
G01 X50.67293 Y53.05098
G01 X50.59902 Y53.18928
G01 X50.54456 Y53.27079
G01 X50.44507 Y53.39200
G01 X50.37575 Y53.46131
G01 X50.25452 Y53.56081
G01 X50.17303 Y53.61526
G01 X50.11837 Y53.64447
G04 P0 ( dwell for no time -- G64 should not smooth over this point )
G00 Z3.50000 ( retract )

G00 X48.92945 Y53.67767 ( rapid move to begin. )
G01 F200.00000
( Mill infeed pass 1/1 )
G01 Z-0.20000
G04 P0 ( dwell for no time -- G64 should not smooth over this point )
G01 F400.00000
G01 X48.92945 Y53.67767
G01 X48.87484 Y53.70688
G01 X48.79333 Y53.76134
G01 X48.67210 Y53.86083
G01 X48.60280 Y53.93012
G01 X48.59752 Y53.93655
G01 X48.50331 Y54.05136
G01 X48.44886 Y54.13286
G01 X48.37492 Y54.27117
G01 X48.33743 Y54.36172
G01 X48.29188 Y54.51181
G01 X48.27276 Y54.60792
G01 X48.25739 Y54.76400
G01 X48.25739 Y54.86202
G01 X48.27276 Y55.01811
G01 X48.29188 Y55.11422
G01 X48.33743 Y55.26431
G01 X48.37492 Y55.35486
G01 X48.38812 Y55.37960
G04 P0 ( dwell for no time -- G64 should not smooth over this point )
G00 Z3.50000 ( retract )

G00 X47.38282 Y56.28008 ( rapid move to begin. )
G01 F200.00000
( Mill infeed pass 1/1 )
G01 Z-0.20000
G04 P0 ( dwell for no time -- G64 should not smooth over this point )
G01 F400.00000
G01 X47.38282 Y56.28008
G01 X47.33313 Y56.24688
G01 X47.19483 Y56.17294
G01 X47.10428 Y56.13545
G01 X46.95419 Y56.08991
G01 X46.91945 Y56.08303
G01 X45.58640 Y56.08303
G01 X45.55178 Y56.08991
G01 X45.40169 Y56.13545
G01 X45.31114 Y56.17294
G01 X45.17284 Y56.24688
G01 X45.12311 Y56.28010
G01 X45.09964 Y56.31147
G04 P0 ( dwell for no time -- G64 should not smooth over this point )
G00 Z3.50000 ( retract )

G00 X45.58640 Y56.08303 ( rapid move to begin. )
G01 F200.00000
( Mill infeed pass 1/1 )
G01 Z-0.20000
G04 P0 ( dwell for no time -- G64 should not smooth over this point )
G01 F400.00000
G01 X45.58640 Y56.08303
G01 X45.55178 Y56.07612
G01 X45.40169 Y56.03057
G01 X45.31114 Y55.99308
G01 X45.17284 Y55.91914
G01 X45.12306 Y55.88590
G04 P0 ( dwell for no time -- G64 should not smooth over this point )
G00 Z3.50000 ( retract )

G00 X45.09964 Y53.77147 ( rapid move to begin. )
G01 F200.00000
( Mill infeed pass 1/1 )
G01 Z-0.20000
G04 P0 ( dwell for no time -- G64 should not smooth over this point )
G01 F400.00000
G01 X45.09964 Y53.77147
G01 X45.12311 Y53.74010
G01 X45.17284 Y53.70688
G01 X45.31114 Y53.63294
G01 X45.40169 Y53.59545
G01 X45.55178 Y53.54991
G01 X45.58640 Y53.54303
G01 X46.91945 Y53.54303
G01 X46.95419 Y53.54991
G01 X47.10428 Y53.59545
G01 X47.19483 Y53.63294
G01 X47.33313 Y53.70688
G01 X47.41464 Y53.76134
G01 X47.53588 Y53.86083
G01 X47.60517 Y53.93012
G01 X47.70466 Y54.05136
G01 X47.75912 Y54.13286
G01 X47.83306 Y54.27117
G01 X47.85396 Y54.32169
G01 X47.87057 Y54.36172
G01 X47.91609 Y54.51181
G01 X47.93522 Y54.60792
G01 X47.95058 Y54.76400
G01 X47.95058 Y54.86202
G01 X47.93522 Y55.01811
G01 X47.91609 Y55.11422
G01 X47.87057 Y55.26431
G01 X47.83306 Y55.35486
G01 X47.81850 Y55.38209
G01 X47.81241 Y55.38773
G01 X47.72747 Y55.47624
G01 X47.68640 Y55.52483
G01 X47.66869 Y55.54516
G01 X47.66252 Y55.55201
G01 X47.62706 Y55.59402
G01 X47.59277 Y55.63723
G01 X47.57372 Y55.65821
G01 X47.56760 Y55.66507
G01 X47.50839 Y55.73174
G01 X47.49465 Y55.74757
G01 X47.44396 Y55.80733
G01 X47.40631 Y55.85458
G01 X47.38287 Y55.88592
G01 X47.38066 Y55.88889
G01 X47.36224 Y55.95763
G01 X47.35462 Y56.04444
G01 X47.35462 Y56.12158
G01 X47.36224 Y56.20843
G01 X47.38066 Y56.27716
G01 X47.38282 Y56.28008
G01 X47.40631 Y56.31147
G01 X47.44396 Y56.35872
G01 X47.49465 Y56.41848
G01 X47.50839 Y56.43431
G01 X47.56760 Y56.50098
G01 X47.57372 Y56.50784
G01 X47.59277 Y56.52882
G01 X47.66697 Y56.62232
G01 X47.69364 Y56.65767
G01 X47.71612 Y56.69588
G01 X47.77405 Y56.80014
G01 X47.79013 Y56.83413
G01 X47.82399 Y56.91589
G01 X47.83664 Y56.95122
G01 X47.86941 Y57.06601
G01 X47.88050 Y57.10886
G01 X47.88665 Y57.15267
G01 X47.90029 Y57.27124
G01 X47.90215 Y57.30870
G01 X47.90215 Y57.39730
G01 X47.90029 Y57.43481
G01 X47.88665 Y57.55338
G01 X47.88050 Y57.59720
G01 X47.86941 Y57.64005
G01 X47.83664 Y57.75483
G01 X47.82399 Y57.79016
G01 X47.79013 Y57.87192
G01 X47.77405 Y57.90591
G01 X47.71612 Y58.01017
G01 X47.69364 Y58.04840
G01 X47.66697 Y58.08373
G01 X47.59277 Y58.17720
G01 X47.57372 Y58.19821
G01 X47.56760 Y58.20507
G01 X47.50839 Y58.27174
G01 X47.49465 Y58.28757
G01 X47.44396 Y58.34733
G01 X47.40631 Y58.39458
G01 X47.38287 Y58.42592
G01 X47.38066 Y58.42889
G01 X47.36224 Y58.49763
G01 X47.35462 Y58.58444
G01 X47.35462 Y58.66158
G01 X47.36224 Y58.74843
G01 X47.38066 Y58.81716
G01 X47.38282 Y58.82008
G01 X47.40631 Y58.85147
G01 X47.44396 Y58.89872
G01 X47.49465 Y58.95848
G01 X47.50839 Y58.97431
G01 X47.56760 Y59.04098
G01 X47.57372 Y59.04784
G01 X47.59277 Y59.06882
G01 X47.66697 Y59.16232
G01 X47.69364 Y59.19768
G01 X47.71612 Y59.23588
G01 X47.77405 Y59.34014
G01 X47.79013 Y59.37413
G01 X47.82399 Y59.45589
G01 X47.83664 Y59.49122
G01 X47.86941 Y59.60601
G01 X47.88050 Y59.64886
G01 X47.88665 Y59.69267
G01 X47.90029 Y59.81124
G01 X47.90215 Y59.84870
G01 X47.90215 Y59.93730
G01 X47.90029 Y59.97481
G01 X47.88665 Y60.09338
G01 X47.88050 Y60.13720
G01 X47.86941 Y60.18005
G01 X47.83664 Y60.29483
G01 X47.82399 Y60.33016
G01 X47.79013 Y60.41192
G01 X47.77405 Y60.44591
G01 X47.71612 Y60.55017
G01 X47.69364 Y60.58838
G01 X47.66697 Y60.62373
G01 X47.59277 Y60.71723
G01 X47.57372 Y60.73821
G01 X47.56760 Y60.74507
G01 X47.50839 Y60.81174
G01 X47.49465 Y60.82757
G01 X47.44396 Y60.88733
G01 X47.40631 Y60.93458
G01 X47.38287 Y60.96592
G01 X47.38066 Y60.96889
G01 X47.36224 Y61.03763
G01 X47.35462 Y61.12444
G01 X47.35462 Y61.20158
G01 X47.36224 Y61.28843
G01 X47.38066 Y61.35716
G01 X47.38282 Y61.36008
G01 X47.40631 Y61.39147
G01 X47.44396 Y61.43872
G01 X47.49465 Y61.49848
G01 X47.50839 Y61.51431
G01 X47.56760 Y61.58098
G01 X47.57372 Y61.58784
G01 X47.59277 Y61.60882
G01 X47.66697 Y61.70232
G01 X47.69364 Y61.73768
G01 X47.71612 Y61.77588
G01 X47.77405 Y61.88014
G01 X47.79013 Y61.91413
G01 X47.82399 Y61.99589
G01 X47.83664 Y62.03122
G01 X47.86941 Y62.14601
G01 X47.88050 Y62.18886
G01 X47.88665 Y62.23267
G01 X47.90029 Y62.35124
G01 X47.90215 Y62.38870
G01 X47.90215 Y62.47730
G01 X47.90029 Y62.51481
G01 X47.88665 Y62.63338
G01 X47.88050 Y62.67720
G01 X47.86941 Y62.72005
G01 X47.83664 Y62.83483
G01 X47.82399 Y62.87016
G01 X47.79013 Y62.95192
G01 X47.77405 Y62.98591
G01 X47.71612 Y63.09017
G01 X47.69364 Y63.12838
G01 X47.66697 Y63.16373
G01 X47.59277 Y63.25723
G01 X47.57372 Y63.27821
G01 X47.56760 Y63.28507
G01 X47.50839 Y63.35174
G01 X47.49465 Y63.36757
G01 X47.44396 Y63.42733
G01 X47.40631 Y63.47458
G01 X47.38287 Y63.50592
G01 X47.38066 Y63.50889
G01 X47.36224 Y63.57763
G01 X47.35462 Y63.66444
G01 X47.35462 Y63.74158
G01 X47.36224 Y63.82843
G01 X47.38066 Y63.89716
G01 X47.38282 Y63.90008
G01 X47.40631 Y63.93147
G01 X47.44396 Y63.97872
G01 X47.49465 Y64.03848
G01 X47.50839 Y64.05431
G01 X47.56760 Y64.12098
G01 X47.57372 Y64.12784
G01 X47.61411 Y64.17239
G01 X47.67626 Y64.23467
G01 X47.70098 Y64.25718
G01 X47.74535 Y64.30026
G01 X47.75777 Y64.31311
G01 X47.78119 Y64.33416
G01 X47.83306 Y64.43117
G01 X47.87057 Y64.52172
G01 X47.91609 Y64.67181
G01 X47.93522 Y64.76792
G01 X47.95058 Y64.92400
G01 X47.95058 Y65.02202
G01 X47.93522 Y65.17811
G01 X47.91609 Y65.27422
G01 X47.87057 Y65.42431
G01 X47.83306 Y65.51486
G01 X47.78155 Y65.61123
G01 X47.75328 Y65.63734
G01 X47.74464 Y65.64541
G01 X47.67550 Y65.71074
G01 X47.64347 Y65.74252
G01 X47.63186 Y65.75463
G01 X47.61411 Y65.77368
G01 X47.56755 Y65.82504
G01 X47.50499 Y65.88760
G01 X47.47713 Y65.91285
G01 X47.38368 Y65.98702
G01 X47.34832 Y66.01369
G01 X47.31012 Y66.03617
G01 X47.20583 Y66.09413
G01 X47.17187 Y66.11018
G01 X47.15028 Y66.12006
G01 X47.09011 Y66.14404
G01 X47.05480 Y66.15667
G01 X46.93999 Y66.18946
G01 X46.89714 Y66.20056
G01 X46.85333 Y66.20670
G01 X46.73474 Y66.22034
G01 X46.69730 Y66.22220
G01 X46.65300 Y66.22329
G01 X45.85295 Y66.22329
G01 X45.80865 Y66.22220
G01 X45.77119 Y66.22034
G01 X45.65262 Y66.20670
G01 X45.60881 Y66.20056
G01 X45.56596 Y66.18946
G01 X45.45117 Y66.15669
G01 X45.41584 Y66.14404
G01 X45.33408 Y66.11018
G01 X45.30009 Y66.09411
G01 X45.19583 Y66.03617
G01 X45.15762 Y66.01369
G01 X45.12227 Y65.98702
G01 X45.02877 Y65.91283
G01 X45.00096 Y65.88760
G01 X44.93840 Y65.82504
G01 X44.91318 Y65.79723
G01 X44.83898 Y65.70373
G01 X44.81231 Y65.66838
G01 X44.78983 Y65.63017
G01 X44.73190 Y65.52591
G01 X44.71582 Y65.49192
G01 X44.68196 Y65.41016
G01 X44.66934 Y65.37483
G01 X44.63654 Y65.26005
G01 X44.62544 Y65.21720
G01 X44.61930 Y65.17338
G01 X44.60566 Y65.05479
G01 X44.60380 Y65.01730
G01 X44.60380 Y64.92870
G01 X44.60566 Y64.89126
G01 X44.61930 Y64.77267
G01 X44.62544 Y64.72886
G01 X44.63654 Y64.68601
G01 X44.66934 Y64.57122
G01 X44.68196 Y64.53589
G01 X44.71582 Y64.45413
G01 X44.73190 Y64.42014
G01 X44.78983 Y64.31588
G01 X44.81231 Y64.27770
G01 X44.83898 Y64.24232
G01 X44.91323 Y64.14877
G01 X44.93223 Y64.12784
G01 X44.93835 Y64.12098
G01 X44.99755 Y64.05431
G01 X45.01130 Y64.03848
G01 X45.06199 Y63.97872
G01 X45.09964 Y63.93147
G01 X45.12529 Y63.89716
G01 X45.14371 Y63.82843
G01 X45.15133 Y63.74158
G01 X45.15133 Y63.66444
G01 X45.14371 Y63.57763
G01 X45.12529 Y63.50889
G01 X45.12306 Y63.50590
G01 X45.09964 Y63.47458
G01 X45.06199 Y63.42733
G01 X45.01130 Y63.36757
G01 X44.99755 Y63.35174
G01 X44.93835 Y63.28507
G01 X44.93223 Y63.27821
G01 X44.91318 Y63.25723
G01 X44.83898 Y63.16373
G01 X44.81231 Y63.12838
G01 X44.78983 Y63.09017
G01 X44.73190 Y62.98591
G01 X44.71582 Y62.95192
G01 X44.68196 Y62.87016
G01 X44.66934 Y62.83483
G01 X44.63654 Y62.72005
G01 X44.62544 Y62.67720
G01 X44.61930 Y62.63338
G01 X44.60566 Y62.51479
G01 X44.60380 Y62.47730
G01 X44.60380 Y62.38870
G01 X44.60566 Y62.35126
G01 X44.61930 Y62.23267
G01 X44.62544 Y62.18886
G01 X44.63654 Y62.14601
G01 X44.66934 Y62.03122
G01 X44.68196 Y61.99589
G01 X44.71582 Y61.91413
G01 X44.73190 Y61.88014
G01 X44.78983 Y61.77588
G01 X44.81231 Y61.73768
G01 X44.83898 Y61.70232
G01 X44.91318 Y61.60882
G01 X44.93223 Y61.58784
G01 X44.93835 Y61.58098
G01 X44.99755 Y61.51431
G01 X45.01130 Y61.49848
G01 X45.06199 Y61.43872
G01 X45.09964 Y61.39147
G01 X45.12529 Y61.35716
G01 X45.14371 Y61.28843
G01 X45.15133 Y61.20158
G01 X45.15133 Y61.12444
G01 X45.14371 Y61.03763
G01 X45.12529 Y60.96889
G01 X45.12306 Y60.96590
G01 X45.09964 Y60.93458
G01 X45.06199 Y60.88733
G01 X45.01130 Y60.82757
G01 X44.99755 Y60.81174
G01 X44.93835 Y60.74507
G01 X44.93223 Y60.73821
G01 X44.91318 Y60.71723
G01 X44.83898 Y60.62373
G01 X44.81231 Y60.58838
G01 X44.78983 Y60.55017
G01 X44.73190 Y60.44591
G01 X44.71582 Y60.41192
G01 X44.68196 Y60.33016
G01 X44.66934 Y60.29483
G01 X44.63654 Y60.18005
G01 X44.62544 Y60.13720
G01 X44.61930 Y60.09338
G01 X44.60566 Y59.97479
G01 X44.60380 Y59.93730
G01 X44.60380 Y59.84870
G01 X44.60566 Y59.81126
G01 X44.61930 Y59.69267
G01 X44.62544 Y59.64886
G01 X44.63654 Y59.60601
G01 X44.66934 Y59.49122
G01 X44.68196 Y59.45589
G01 X44.71582 Y59.37413
G01 X44.73190 Y59.34014
G01 X44.78983 Y59.23588
G01 X44.81231 Y59.19768
G01 X44.83898 Y59.16232
G01 X44.91315 Y59.06885
G01 X44.93223 Y59.04784
G01 X44.93835 Y59.04098
G01 X44.99755 Y58.97431
G01 X45.01130 Y58.95848
G01 X45.06199 Y58.89872
G01 X45.09964 Y58.85147
G01 X45.12529 Y58.81716
G01 X45.14371 Y58.74843
G01 X45.15133 Y58.66158
G01 X45.15133 Y58.58444
G01 X45.14371 Y58.49763
G01 X45.12529 Y58.42889
G01 X45.12306 Y58.42590
G01 X45.09964 Y58.39458
G01 X45.06199 Y58.34733
G01 X45.01130 Y58.28757
G01 X44.99755 Y58.27174
G01 X44.93835 Y58.20507
G01 X44.93223 Y58.19821
G01 X44.91318 Y58.17723
G01 X44.83898 Y58.08373
G01 X44.81231 Y58.04838
G01 X44.78983 Y58.01017
G01 X44.73190 Y57.90591
G01 X44.71582 Y57.87192
G01 X44.68196 Y57.79016
G01 X44.66934 Y57.75483
G01 X44.63654 Y57.64005
G01 X44.62544 Y57.59720
G01 X44.61930 Y57.55338
G01 X44.60566 Y57.43479
G01 X44.60380 Y57.39730
G01 X44.60380 Y57.30870
G01 X44.60566 Y57.27126
G01 X44.61930 Y57.15267
G01 X44.62544 Y57.10886
G01 X44.63654 Y57.06601
G01 X44.66931 Y56.95122
G01 X44.68196 Y56.91589
G01 X44.71582 Y56.83413
G01 X44.73192 Y56.80009
G01 X44.78983 Y56.69588
G01 X44.81231 Y56.65767
G01 X44.83898 Y56.62232
G01 X44.91315 Y56.52885
G01 X44.93223 Y56.50784
G01 X44.93835 Y56.50098
G01 X44.99755 Y56.43431
G01 X45.01130 Y56.41848
G01 X45.06199 Y56.35872
G01 X45.09964 Y56.31147
G01 X45.12529 Y56.27716
G01 X45.14371 Y56.20843
G01 X45.15133 Y56.12158
G01 X45.15133 Y56.04444
G01 X45.14371 Y55.95763
G01 X45.12529 Y55.88889
G01 X45.12306 Y55.88590
G01 X45.09964 Y55.85458
G01 X45.06199 Y55.80733
G01 X45.01130 Y55.74757
G01 X44.99755 Y55.73174
G01 X44.93835 Y55.66507
G01 X44.93223 Y55.65821
G01 X44.91318 Y55.63723
G01 X44.83898 Y55.54373
G01 X44.81231 Y55.50838
G01 X44.78983 Y55.47017
G01 X44.73190 Y55.36591
G01 X44.71582 Y55.33192
G01 X44.68196 Y55.25016
G01 X44.66934 Y55.21483
G01 X44.63654 Y55.10005
G01 X44.62544 Y55.05720
G01 X44.61930 Y55.01338
G01 X44.60566 Y54.89479
G01 X44.60380 Y54.85730
G01 X44.60380 Y54.76870
G01 X44.60566 Y54.73126
G01 X44.61930 Y54.61267
G01 X44.62544 Y54.56886
G01 X44.63654 Y54.52601
G01 X44.66934 Y54.41120
G01 X44.68196 Y54.37589
G01 X44.71582 Y54.29413
G01 X44.73187 Y54.26019
G01 X44.78983 Y54.15588
G01 X44.81229 Y54.11770
G01 X44.83898 Y54.08232
G01 X44.91325 Y53.98874
G01 X44.93223 Y53.96784
G01 X44.93835 Y53.96098
G01 X44.99755 Y53.89431
G01 X45.01130 Y53.87848
G01 X45.06199 Y53.81872
G01 X45.09964 Y53.77147
G01 X45.12529 Y53.73716
G01 X45.14371 Y53.66843
G01 X45.15133 Y53.58158
G01 X45.15133 Y53.50444
G01 X45.14371 Y53.41763
G01 X45.12529 Y53.34889
G01 X45.12306 Y53.34590
G01 X45.09964 Y53.31458
G01 X45.06199 Y53.26733
G01 X45.01130 Y53.20757
G01 X44.99755 Y53.19174
G01 X44.93835 Y53.12507
G01 X44.93223 Y53.11821
G01 X44.91318 Y53.09723
G01 X44.83898 Y53.00373
G01 X44.81231 Y52.96838
G01 X44.78983 Y52.93017
G01 X44.73190 Y52.82591
G01 X44.71582 Y52.79192
G01 X44.68196 Y52.71016
G01 X44.66934 Y52.67483
G01 X44.63654 Y52.56005
G01 X44.62544 Y52.51720
G01 X44.61930 Y52.47338
G01 X44.60566 Y52.35479
G01 X44.60380 Y52.31730
G01 X44.60380 Y52.22870
G01 X44.60566 Y52.19126
G01 X44.61930 Y52.07267
G01 X44.62544 Y52.02886
G01 X44.63654 Y51.98601
G01 X44.66931 Y51.87122
G01 X44.68196 Y51.83589
G01 X44.71163 Y51.76315
G01 X44.71582 Y51.75413
G01 X44.73187 Y51.72017
G01 X44.78983 Y51.61588
G01 X44.81231 Y51.57770
G01 X44.83898 Y51.54232
G01 X44.91780 Y51.44300
G01 X44.93611 Y51.41915
G01 X44.99032 Y51.34600
G01 X44.99052 Y51.34572
G01 X45.03769 Y51.28212
G01 X45.06291 Y51.24504
G04 P0 ( dwell for no time -- G64 should not smooth over this point )
G00 Z3.50000 ( retract )

G00 X45.12306 Y53.34590 ( rapid move to begin. )
G01 F200.00000
( Mill infeed pass 1/1 )
G01 Z-0.20000
G04 P0 ( dwell for no time -- G64 should not smooth over this point )
G01 F400.00000
G01 X45.12306 Y53.34590
G01 X45.17284 Y53.37914
G01 X45.31114 Y53.45308
G01 X45.40169 Y53.49057
G01 X45.55178 Y53.53612
G01 X45.58640 Y53.54303
G04 P0 ( dwell for no time -- G64 should not smooth over this point )
G00 Z3.50000 ( retract )

G00 X46.91945 Y53.54303 ( rapid move to begin. )
G01 F200.00000
( Mill infeed pass 1/1 )
G01 Z-0.20000
G04 P0 ( dwell for no time -- G64 should not smooth over this point )
G01 F400.00000
G01 X46.91945 Y53.54303
G01 X46.95419 Y53.53612
G01 X47.10428 Y53.49057
G01 X47.19483 Y53.45308
G01 X47.33313 Y53.37914
G01 X47.41464 Y53.32469
G01 X47.45323 Y53.29301
G01 X47.53588 Y53.22520
G01 X47.60517 Y53.15590
G01 X47.70466 Y53.03467
G01 X47.75912 Y52.95316
G01 X47.83306 Y52.81486
G01 X47.87057 Y52.72431
G01 X47.91609 Y52.57422
G01 X47.93522 Y52.47811
G01 X47.95058 Y52.32202
G01 X47.95058 Y52.22400
G01 X47.93682 Y52.08446
G01 X47.92925 Y52.06845
G01 X47.92686 Y52.06345
G01 X47.88713 Y51.98062
G01 X47.88498 Y51.97607
G01 X47.85983 Y51.92294
G01 X47.82541 Y51.83988
G01 X47.82399 Y51.83589
G01 X47.79013 Y51.75413
G01 X47.77405 Y51.72014
G01 X47.71612 Y51.61588
G01 X47.69364 Y51.57770
G01 X47.66697 Y51.54232
G01 X47.58815 Y51.44300
