( pcb2gcode 2.5.0 )
( Software-independent Gcode )

G94 ( Millimeters per minute feed rate. )
G21 ( Units == Millimeters. )

G90 ( Absolute coordinates. )
G00 S10000 ( RPM spindle speed. )
G64 P0.05000 ( set maximum deviation from commanded toolpath )
G01 F200.00000 ( Feedrate. )


G00 Z30.00000 (Retract to tool change height)
T1
M5      (Spindle stop.)
G04 P1.00000 (Wait for spindle to stop)
(MSG, Change tool bit to cutter diameter 0.00000mm)
M6      (Tool change.)
M0      (Temporary machine stop.)
M3 ( Spindle on clockwise. )
G04 P1.00000 (Wait for spindle to get up to speed)
G04 P0 ( dwell for no time -- G64 should not smooth over this point )
G00 Z3.50000 ( retract )

G00 X-0.02500 Y0.02502 ( rapid move to begin. )
G01 Z-0.45000 F60.00000 ( plunge. )
G04 P0 ( dwell for no time -- G64 should not smooth over this point )
G01 F200.00000
G01 X-0.02500 Y49.52501
G01 X-0.02500 Y50.52501
G01 X-0.02500 Y100.02500
G01 X-160.02498 Y100.02500
G01 X-160.02498 Y50.52501
G01 X-160.02498 Y49.52501
G01 X-160.02498 Y0.02502
G01 X-0.02500 Y0.02502
G01 Z-0.90000 F60.00000 ( plunge. )
G04 P0 ( dwell for no time -- G64 should not smooth over this point )
G01 F200.00000
G01 X-0.02500 Y49.52501
G00 Z-0.60000
G01 X-0.02500 Y50.52501
G01 Z-0.90000 F60.00000
G01 F200.00000
G01 X-0.02500 Y100.02500
G01 X-160.02498 Y100.02500
G01 X-160.02498 Y50.52501
G00 Z-0.60000
G01 X-160.02498 Y49.52501
G01 Z-0.90000 F60.00000
G01 F200.00000
G01 X-160.02498 Y0.02502
G01 X-0.02500 Y0.02502
G01 Z-1.35000 F60.00000 ( plunge. )
G04 P0 ( dwell for no time -- G64 should not smooth over this point )
G01 F200.00000
G01 X-0.02500 Y49.52501
G00 Z-0.60000
G01 X-0.02500 Y50.52501
G01 Z-1.35000 F60.00000
G01 F200.00000
G01 X-0.02500 Y100.02500
G01 X-160.02498 Y100.02500
G01 X-160.02498 Y50.52501
G00 Z-0.60000
G01 X-160.02498 Y49.52501
G01 Z-1.35000 F60.00000
G01 F200.00000
G01 X-160.02498 Y0.02502
G01 X-0.02500 Y0.02502
G01 Z-1.80000 F60.00000 ( plunge. )
G04 P0 ( dwell for no time -- G64 should not smooth over this point )
G01 F200.00000
G01 X-0.02500 Y49.52501
G00 Z-0.60000
G01 X-0.02500 Y50.52501
G01 Z-1.80000 F60.00000
G01 F200.00000
G01 X-0.02500 Y100.02500
G01 X-160.02498 Y100.02500
G01 X-160.02498 Y50.52501
G00 Z-0.60000
G01 X-160.02498 Y49.52501
G01 Z-1.80000 F60.00000
G01 F200.00000
G01 X-160.02498 Y0.02502
G01 X-0.02500 Y0.02502
G01 Z-2.25000 F60.00000 ( plunge. )
G04 P0 ( dwell for no time -- G64 should not smooth over this point )
G01 F200.00000
G01 X-0.02500 Y49.52501
G00 Z-0.60000
G01 X-0.02500 Y50.52501
G01 Z-2.25000 F60.00000
G01 F200.00000
G01 X-0.02500 Y100.02500
G01 X-160.02498 Y100.02500
G01 X-160.02498 Y50.52501
G00 Z-0.60000
G01 X-160.02498 Y49.52501
G01 Z-2.25000 F60.00000
G01 F200.00000
G01 X-160.02498 Y0.02502
G01 X-0.02500 Y0.02502
G01 Z-2.70000 F60.00000 ( plunge. )
G04 P0 ( dwell for no time -- G64 should not smooth over this point )
G01 F200.00000
G01 X-0.02500 Y49.52501
G00 Z-0.60000
G01 X-0.02500 Y50.52501
G01 Z-2.70000 F60.00000
G01 F200.00000
G01 X-0.02500 Y100.02500
G01 X-160.02498 Y100.02500
G01 X-160.02498 Y50.52501
G00 Z-0.60000
G01 X-160.02498 Y49.52501
G01 Z-2.70000 F60.00000
G01 F200.00000
G01 X-160.02498 Y0.02502
G01 X-0.02500 Y0.02502

G04 P0 ( dwell for no time -- G64 should not smooth over this point )
G00 Z30.000000 ( retract )

M5 ( Spindle off. )
G04 P1.000000
M9 ( Coolant off. )
M2 ( Program end. )

