( pcb2gcode 2.5.0 )
( Software-independent Gcode )

G94 ( Millimeters per minute feed rate. )
G21 ( Units == Millimeters. )

G90 ( Absolute coordinates. )
G00 S20000 ( RPM spindle speed. )
G64 P0.05000 ( set maximum deviation from commanded toolpath )
G01 F400.00000 ( Feedrate. )


G00 Z30.00000 (Retract to tool change height)
T1
M5      (Spindle stop.)
G04 P1.00000 (Wait for spindle to stop)
(MSG, Change tool bit to mill diameter 1.00000mm)
M6      (Tool change.)
M0      (Temporary machine stop.)
M3 ( Spindle on clockwise. )
G04 P1.00000 (Wait for spindle to get up to speed)
G04 P0 ( dwell for no time -- G64 should not smooth over this point )
G00 Z3.50000 ( retract )

G00 X-13.02129 Y86.26094 ( rapid move to begin. )
G01 F200.00000
( Mill infeed pass 1/1 )
G01 Z-0.20000
G04 P0 ( dwell for no time -- G64 should not smooth over this point )
G01 F400.00000
G01 X-13.02129 Y86.26094
G01 X-12.87272 Y86.19069
G01 X-12.79472 Y86.14906
G01 X-12.53470 Y85.99320
G01 X-12.47844 Y85.95564
G01 X-12.23968 Y85.77857
G01 X-12.19614 Y85.74288
G01 X-11.97803 Y85.54517
G01 X-11.94082 Y85.50796
G01 X-11.74308 Y85.28982
G01 X-11.70742 Y85.24631
G01 X-11.53036 Y85.00755
G01 X-11.49279 Y84.95129
G01 X-11.33694 Y84.69127
G01 X-11.29531 Y84.61327
G01 X-11.22500 Y84.46463
G01 X-11.21139 Y84.32602
G01 X-11.21139 Y84.22800
G01 X-11.24022 Y83.93537
G01 X-11.25934 Y83.83923
G01 X-11.34469 Y83.55785
G01 X-11.38220 Y83.46730
G01 X-11.52081 Y83.20796
G01 X-11.57527 Y83.12646
G01 X-11.76180 Y82.89915
G01 X-11.79477 Y82.86280
G01 X-13.70257 Y80.95501
G01 X-12.85078 Y80.10322
G01 X-12.81781 Y80.06687
G01 X-12.63127 Y79.83957
G01 X-12.57681 Y79.75806
G01 X-12.43821 Y79.49873
G01 X-12.40069 Y79.40818
G01 X-12.31535 Y79.12679
G01 X-12.29622 Y79.03066
G01 X-12.26739 Y78.73802
G01 X-12.26498 Y78.68900
G01 X-12.26498 Y72.53649
G01 X-12.23714 Y72.44466
G01 X-12.21799 Y72.34852
G01 X-12.18916 Y72.05582
G01 X-12.18672 Y72.00679
G01 X-12.18672 Y52.78100
G01 X-12.18916 Y52.73200
G01 X-12.21799 Y52.43937
G01 X-12.23711 Y52.34323
G01 X-12.32246 Y52.06185
G01 X-12.35997 Y51.97130
G01 X-12.48677 Y51.73409
G01 X-12.48677 Y51.58100
G01 X-12.49637 Y51.48347
G01 X-12.52482 Y51.38966
G01 X-12.57102 Y51.30323
G01 X-12.63320 Y51.22746
G01 X-12.70897 Y51.16528
G01 X-12.79543 Y51.11908
G01 X-12.88923 Y51.09063
G01 X-12.98677 Y51.08100
G01 X-13.05832 Y51.08100
G01 X-17.34498 Y46.79437
G01 X-17.34498 Y35.00100
G01 X-17.34739 Y34.95200
G01 X-17.37622 Y34.65937
G01 X-17.39535 Y34.56323
G01 X-17.48069 Y34.28185
G01 X-17.51821 Y34.19130
G01 X-17.65681 Y33.93196
G01 X-17.71127 Y33.85046
G01 X-17.89781 Y33.62315
G01 X-17.93078 Y33.58680
G01 X-22.50278 Y29.01480
G01 X-22.53913 Y28.98184
G01 X-22.70593 Y28.84495
G01 X-22.76643 Y28.79530
G01 X-22.84794 Y28.74084
G01 X-23.10727 Y28.60223
G01 X-23.19782 Y28.56472
G01 X-23.47921 Y28.47937
G01 X-23.57534 Y28.46025
G01 X-23.86798 Y28.43142
G01 X-23.91700 Y28.42900
G01 X-36.49000 Y28.42900
G01 X-36.53900 Y28.43142
G01 X-36.83163 Y28.46025
G01 X-36.92777 Y28.47937
G01 X-37.20915 Y28.56472
G01 X-37.29970 Y28.60223
G01 X-37.55904 Y28.74084
G01 X-37.64054 Y28.79530
G01 X-37.86785 Y28.98184
G01 X-37.93717 Y29.05115
G01 X-38.12370 Y29.27846
G01 X-38.17816 Y29.35996
G01 X-38.18794 Y29.37825
G01 X-38.31677 Y29.61930
G01 X-38.35428 Y29.70985
G01 X-38.43963 Y29.99123
G01 X-38.45875 Y30.08737
G01 X-38.48758 Y30.38000
G01 X-38.48758 Y30.47802
G01 X-38.45875 Y30.77066
G01 X-38.43963 Y30.86679
G01 X-38.35428 Y31.14818
G01 X-38.31677 Y31.23873
G01 X-38.17816 Y31.49806
G01 X-38.12370 Y31.57957
G01 X-37.93717 Y31.80687
G01 X-37.86785 Y31.87619
G01 X-37.64054 Y32.06273
G01 X-37.55904 Y32.11719
G01 X-37.29970 Y32.25579
G01 X-37.20915 Y32.29331
G01 X-36.92777 Y32.37865
G01 X-36.83163 Y32.39778
G01 X-36.53900 Y32.42661
G01 X-36.49000 Y32.42902
G01 X-24.74542 Y32.42902
G01 X-21.34500 Y35.82945
G01 X-21.34500 Y46.79437
G01 X-22.02963 Y47.47900
G01 X-22.90100 Y47.47900
G01 X-22.95000 Y47.48142
G01 X-23.24263 Y47.51025
G01 X-23.33877 Y47.52937
G01 X-23.62015 Y47.61472
G01 X-23.71070 Y47.65223
G01 X-23.88944 Y47.74779
G01 X-23.97004 Y47.79084
G01 X-24.05154 Y47.84530
G01 X-24.27885 Y48.03184
G01 X-24.32246 Y48.07550
G01 X-24.33696 Y48.11037
G01 X-24.44214 Y48.40443
G01 X-24.46414 Y48.47677
G01 X-24.53783 Y48.77082
G01 X-24.54872 Y48.82553
G01 X-24.59236 Y49.11959
G01 X-24.59678 Y49.16424
G01 X-24.61121 Y49.45830
G01 X-24.61121 Y49.49973
G01 X-24.59678 Y49.79381
G01 X-24.59236 Y49.83849
G01 X-24.54872 Y50.13252
G01 X-24.53783 Y50.18723
G01 X-24.46414 Y50.48128
G01 X-24.44214 Y50.55365
G01 X-24.33696 Y50.84770
G01 X-24.32249 Y50.88253
G01 X-24.27885 Y50.92619
G01 X-24.05154 Y51.11273
G01 X-23.97004 Y51.16719
G01 X-23.71070 Y51.30579
G01 X-23.62015 Y51.34331
G01 X-23.33877 Y51.42865
G01 X-23.24263 Y51.44778
G01 X-22.95000 Y51.47661
G01 X-22.90100 Y51.47902
G01 X-21.20121 Y51.47902
G01 X-21.15218 Y51.47661
G01 X-20.85955 Y51.44778
G01 X-20.76341 Y51.42865
G01 X-20.48203 Y51.34331
G01 X-20.39148 Y51.30579
G01 X-20.13215 Y51.16719
G01 X-20.05064 Y51.11273
G01 X-19.82333 Y50.92619
G01 X-19.78699 Y50.89322
G01 X-19.34497 Y50.45124
G01 X-16.18676 Y53.60945
G01 X-16.18676 Y71.55533
G01 X-16.21460 Y71.64715
G01 X-16.23375 Y71.74329
G01 X-16.26258 Y72.03600
G01 X-16.26500 Y72.08500
G01 X-16.26500 Y77.86058
G01 X-19.15742 Y80.75300
G01 X-21.63699 Y80.75300
G01 X-21.68599 Y80.75542
G01 X-21.97862 Y80.78425
G01 X-22.07476 Y80.80337
G01 X-22.35614 Y80.88872
G01 X-22.44672 Y80.92623
G01 X-22.70603 Y81.06484
G01 X-22.78754 Y81.11930
G01 X-23.01484 Y81.30584
G01 X-23.08416 Y81.37515
G01 X-23.27070 Y81.60246
G01 X-23.32515 Y81.68396
G01 X-23.46376 Y81.94330
G01 X-23.50128 Y82.03385
G01 X-23.58665 Y82.31523
G01 X-23.60575 Y82.41137
G01 X-23.63458 Y82.70400
G01 X-23.63458 Y82.80202
G01 X-23.60575 Y83.09466
G01 X-23.58665 Y83.19079
G01 X-23.50128 Y83.47218
G01 X-23.46376 Y83.56273
G01 X-23.32515 Y83.82206
G01 X-23.27070 Y83.90357
G01 X-23.08416 Y84.13087
G01 X-23.01484 Y84.20019
G01 X-22.78754 Y84.38673
G01 X-22.70603 Y84.44119
G01 X-22.44672 Y84.57979
G01 X-22.35614 Y84.61731
G01 X-22.07476 Y84.70265
G01 X-21.97862 Y84.72178
G01 X-21.68599 Y84.75061
G01 X-21.63699 Y84.75302
G01 X-18.32900 Y84.75302
G01 X-18.27998 Y84.75061
G01 X-17.98734 Y84.72178
G01 X-17.89121 Y84.70265
G01 X-17.60982 Y84.61731
G01 X-17.51927 Y84.57979
G01 X-17.25994 Y84.44119
G01 X-17.17843 Y84.38673
G01 X-16.95113 Y84.20019
G01 X-16.91478 Y84.16722
G01 X-16.53098 Y83.78343
G01 X-14.62319 Y85.69122
G01 X-14.58684 Y85.72419
G01 X-14.35954 Y85.91073
G01 X-14.27803 Y85.96519
G01 X-14.01870 Y86.10379
G01 X-13.92815 Y86.14131
G01 X-13.64676 Y86.22665
G01 X-13.62129 Y86.23173
G01 X-13.55062 Y86.24578
G01 X-13.25799 Y86.27461
G01 X-13.15997 Y86.27461
G01 X-13.02129 Y86.26094
G01 X-18.42240 Y91.66202
G01 X-18.45536 Y91.69837
G01 X-18.64190 Y91.92568
G01 X-18.69636 Y92.00719
G01 X-18.83497 Y92.26652
G01 X-18.87248 Y92.35707
G01 X-18.89674 Y92.43700
G01 X-23.58820 Y92.43700
G01 X-23.68573 Y92.44663
G01 X-23.77954 Y92.47508
G01 X-23.86597 Y92.52128
G01 X-23.94174 Y92.58346
G01 X-24.00392 Y92.65923
G01 X-24.05012 Y92.74566
G01 X-24.07857 Y92.83947
G01 X-24.08820 Y92.93700
G01 X-24.08820 Y95.93702
G01 X-24.07857 Y96.03456
G01 X-24.05012 Y96.12836
G01 X-24.00392 Y96.21480
G01 X-23.94174 Y96.29057
G01 X-23.86597 Y96.35274
G01 X-23.77954 Y96.39895
G01 X-23.68573 Y96.42739
G01 X-23.58820 Y96.43702
G01 X-17.00820 Y96.43702
G01 X-16.95918 Y96.43461
G01 X-16.66654 Y96.40578
G01 X-16.57041 Y96.38665
G01 X-16.28902 Y96.30131
G01 X-16.19847 Y96.26379
G01 X-15.93914 Y96.12519
G01 X-15.85763 Y96.07073
G01 X-15.63033 Y95.88419
G01 X-15.56101 Y95.81487
G01 X-15.37447 Y95.58757
G01 X-15.32001 Y95.50606
G01 X-15.18141 Y95.24673
G01 X-15.14389 Y95.15618
G01 X-15.05855 Y94.87479
G01 X-15.03942 Y94.77866
G01 X-15.01059 Y94.48602
G01 X-15.00818 Y94.43700
G01 X-15.00818 Y93.90467
G01 X-5.35077 Y84.24723
G01 X-5.31780 Y84.21088
G01 X-5.13126 Y83.98358
G01 X-5.07680 Y83.90207
G01 X-4.93820 Y83.64274
G01 X-4.90068 Y83.55219
G01 X-4.81534 Y83.27080
G01 X-4.79621 Y83.17467
G01 X-4.76738 Y82.88203
G01 X-4.76497 Y82.83301
G01 X-4.76497 Y72.53649
G01 X-4.73713 Y72.44466
G01 X-4.71798 Y72.34852
G01 X-4.68915 Y72.05582
G01 X-4.68674 Y72.00679
G01 X-4.68674 Y53.60945
G01 X-2.69078 Y51.61346
G01 X-2.65781 Y51.57712
G01 X-2.47127 Y51.34981
G01 X-2.41681 Y51.26830
G01 X-2.27821 Y51.00897
G01 X-2.24067 Y50.91842
G01 X-2.15535 Y50.63704
G01 X-2.13622 Y50.54090
G01 X-2.10739 Y50.24826
G01 X-2.10498 Y50.19924
G01 X-2.10498 Y39.57300
G01 X-2.10739 Y39.52400
G01 X-2.13622 Y39.23137
G01 X-2.15535 Y39.13523
G01 X-2.24067 Y38.85385
G01 X-2.27821 Y38.76330
G01 X-2.30498 Y38.71318
G01 X-2.30498 Y38.27300
G01 X-2.31458 Y38.17547
G01 X-2.34305 Y38.08166
G01 X-2.38926 Y37.99523
G01 X-2.45143 Y37.91946
G01 X-2.52720 Y37.85728
G01 X-2.61364 Y37.81108
G01 X-2.70744 Y37.78263
G01 X-2.73998 Y37.77940
G01 X-2.73998 Y26.49200
G01 X-2.74239 Y26.44300
G01 X-2.77122 Y26.15037
G01 X-2.79035 Y26.05423
G01 X-2.87569 Y25.77285
G01 X-2.91321 Y25.68230
G01 X-3.05181 Y25.42296
G01 X-3.10627 Y25.34146
G01 X-3.29281 Y25.11415
G01 X-3.36213 Y25.04484
G01 X-3.58943 Y24.85830
G01 X-3.67094 Y24.80384
G01 X-3.93027 Y24.66523
G01 X-4.02082 Y24.62772
G01 X-4.30221 Y24.54237
G01 X-4.39834 Y24.52325
G01 X-4.69098 Y24.49442
G01 X-4.78900 Y24.49442
G01 X-5.08163 Y24.52325
G01 X-5.17777 Y24.54237
G01 X-5.45915 Y24.62772
G01 X-5.54970 Y24.66523
G01 X-5.80904 Y24.80384
G01 X-5.89054 Y24.85830
G01 X-6.11785 Y25.04484
G01 X-6.18716 Y25.11415
G01 X-6.37370 Y25.34146
G01 X-6.42816 Y25.42296
G01 X-6.56677 Y25.68230
G01 X-6.60428 Y25.77285
G01 X-6.68963 Y26.05423
G01 X-6.70875 Y26.15037
G01 X-6.73758 Y26.44300
G01 X-6.74000 Y26.49200
G01 X-6.74000 Y38.07300
G01 X-7.03967 Y38.07300
G01 X-19.30032 Y25.81235
G01 X-19.33669 Y25.77940
G01 X-19.48823 Y25.65504
G01 X-19.56971 Y25.60059
G01 X-19.74261 Y25.50818
G01 X-19.83316 Y25.47067
G01 X-20.02077 Y25.41374
G01 X-20.11688 Y25.39464
G01 X-20.31198 Y25.37542
G01 X-20.36100 Y25.37300
G01 X-55.80767 Y25.37300
G01 X-58.92432 Y22.25635
G01 X-58.96069 Y22.22340
G01 X-59.11223 Y22.09904
G01 X-59.19371 Y22.04459
G01 X-59.36661 Y21.95218
G01 X-59.45716 Y21.91467
G01 X-59.64477 Y21.85774
G01 X-59.74088 Y21.83864
G01 X-59.93598 Y21.81942
G01 X-59.98500 Y21.81700
G01 X-63.30699 Y21.81700
G01 X-63.30699 Y16.45788
G01 X-63.31077 Y16.38072
G01 X-63.31077 Y16.28331
G01 X-63.30699 Y16.20617
G01 X-63.30699 Y13.89901
G01 X-55.16875 Y13.89901
G01 X-53.56177 Y15.50599
G01 X-53.54795 Y15.55156
G01 X-53.51044 Y15.64214
G01 X-53.48798 Y15.68412
G01 X-53.48798 Y17.05402
G01 X-53.48557 Y17.10304
G01 X-53.47117 Y17.24937
G01 X-53.45204 Y17.34549
G01 X-53.40937 Y17.48620
G01 X-53.37186 Y17.57675
G01 X-53.30254 Y17.70642
G01 X-53.24808 Y17.78790
G01 X-53.15481 Y17.90157
G01 X-53.12187 Y17.93792
G01 X-51.48667 Y19.57309
G01 X-51.02469 Y20.03504
G01 X-50.85545 Y20.10517
G01 X-50.79990 Y20.13844
G01 X-50.72617 Y20.17799
G01 X-50.56932 Y20.25216
G01 X-50.51608 Y20.27428
G01 X-50.35924 Y20.33039
G01 X-50.32027 Y20.34223
G01 X-50.16348 Y20.38152
G01 X-50.13394 Y20.38739
G01 X-49.97712 Y20.41066
G01 X-49.95302 Y20.41304
G01 X-49.79620 Y20.42077
G01 X-49.77377 Y20.42077
G01 X-49.61692 Y20.41304
G01 X-49.59279 Y20.41066
G01 X-49.43597 Y20.38739
G01 X-49.40648 Y20.38152
G01 X-49.24966 Y20.34225
G01 X-49.21068 Y20.33039
G01 X-49.05386 Y20.27428
G01 X-49.00064 Y20.25216
G01 X-48.84380 Y20.17799
G01 X-48.77009 Y20.13847
G01 X-48.61324 Y20.04446
G01 X-48.59915 Y20.03502
G01 X-48.56742 Y19.95831
G01 X-48.52188 Y19.80822
G01 X-48.50278 Y19.71211
G01 X-48.48739 Y19.55602
G01 X-48.48739 Y19.45800
G01 X-48.50278 Y19.30192
G01 X-48.52188 Y19.20581
G01 X-48.56742 Y19.05572
G01 X-48.60491 Y18.96517
G01 X-48.67885 Y18.82686
G01 X-48.73331 Y18.74536
G01 X-48.83280 Y18.62412
G01 X-48.90212 Y18.55483
G01 X-49.02333 Y18.45534
G01 X-49.10483 Y18.40088
G01 X-49.14461 Y18.37962
G01 X-50.98796 Y16.53627
G01 X-50.98796 Y16.31201
G01 X-50.20600 Y16.31201
G01 X-50.15698 Y16.30960
G01 X-50.01062 Y16.29520
G01 X-49.91451 Y16.27607
G01 X-49.77384 Y16.23340
G01 X-49.68327 Y16.19588
G01 X-49.55360 Y16.12656
G01 X-49.47212 Y16.07213
G01 X-49.35845 Y15.97884
G01 X-49.32211 Y15.94589
G01 X-43.74988 Y10.37367
G01 X-41.43762 Y8.06143
G01 X-41.39784 Y8.04014
G01 X-41.31633 Y7.98569
G01 X-41.19510 Y7.88620
G01 X-41.12580 Y7.81690
G01 X-41.02631 Y7.69567
G01 X-40.97186 Y7.61416
G01 X-40.89792 Y7.47586
G01 X-40.86043 Y7.38531
G01 X-40.81488 Y7.23522
G01 X-40.79576 Y7.13911
G01 X-40.78039 Y6.98302
G01 X-40.78039 Y6.88500
G01 X-40.79576 Y6.72892
G01 X-40.81488 Y6.63281
G01 X-40.86043 Y6.48272
G01 X-40.89792 Y6.39217
G01 X-40.97186 Y6.25386
G01 X-41.02631 Y6.17236
G01 X-41.12580 Y6.05112
G01 X-41.19510 Y5.98183
G01 X-41.31633 Y5.88234
G01 X-41.39784 Y5.82788
G01 X-41.53614 Y5.75394
G01 X-41.62669 Y5.71645
G01 X-41.77678 Y5.67091
G01 X-41.87289 Y5.65178
G01 X-42.02898 Y5.63642
G01 X-42.12700 Y5.63642
G01 X-42.28308 Y5.65178
G01 X-42.37919 Y5.67091
G01 X-42.52928 Y5.71645
G01 X-42.61983 Y5.75394
G01 X-42.75814 Y5.82788
G01 X-42.83964 Y5.88234
G01 X-42.96088 Y5.98183
G01 X-43.03017 Y6.05112
G01 X-43.12966 Y6.17236
G01 X-43.18412 Y6.25386
G01 X-43.20540 Y6.29364
G01 X-50.72375 Y13.81202
G01 X-51.61588 Y13.81202
G01 X-51.65784 Y13.78956
G01 X-51.74844 Y13.75205
G01 X-51.79398 Y13.73823
G01 X-52.86228 Y12.66996
G01 X-53.76711 Y11.76513
G01 X-53.80345 Y11.73219
G01 X-53.91712 Y11.63889
G01 X-53.99860 Y11.58446
G01 X-54.12827 Y11.51514
G01 X-54.21884 Y11.47763
G01 X-54.35953 Y11.43496
G01 X-54.45565 Y11.41583
G01 X-54.60198 Y11.40143
G01 X-54.65100 Y11.39902
G01 X-66.98288 Y11.39902
G01 X-67.02486 Y11.37656
G01 X-67.11544 Y11.33905
G01 X-67.28427 Y11.28784
G01 X-67.38039 Y11.26871
G01 X-67.55598 Y11.25142
G01 X-67.65400 Y11.25142
G01 X-67.82959 Y11.26871
G01 X-67.92570 Y11.28784
G01 X-68.09453 Y11.33905
G01 X-68.18511 Y11.37656
G01 X-68.22710 Y11.39902
G01 X-70.77022 Y11.39902
G01 X-76.76457 Y5.40464
G01 X-76.78586 Y5.36486
G01 X-76.84031 Y5.28336
G01 X-76.93980 Y5.16212
G01 X-77.00910 Y5.09283
G01 X-77.13033 Y4.99334
G01 X-77.21184 Y4.93888
G01 X-77.35014 Y4.86494
G01 X-77.44069 Y4.82745
G01 X-77.59078 Y4.78191
G01 X-77.68689 Y4.76278
G01 X-77.84298 Y4.74742
G01 X-77.94100 Y4.74742
G01 X-78.09708 Y4.76278
G01 X-78.19319 Y4.78191
G01 X-78.23637 Y4.79502
G01 X-85.06816 Y4.79502
G01 X-85.10171 Y4.77259
G01 X-85.27461 Y4.68018
G01 X-85.36516 Y4.64267
G01 X-85.55277 Y4.58574
G01 X-85.64888 Y4.56664
G01 X-85.84398 Y4.54742
G01 X-85.89300 Y4.54500
G01 X-111.29300 Y4.54500
G01 X-111.34200 Y4.54742
G01 X-111.53709 Y4.56664
G01 X-111.63321 Y4.58574
G01 X-111.82081 Y4.64267
G01 X-111.91136 Y4.68018
G01 X-112.08426 Y4.77259
G01 X-112.16574 Y4.82704
G01 X-112.31728 Y4.95140
G01 X-112.35365 Y4.98435
G01 X-114.89365 Y7.52435
G01 X-114.92660 Y7.56072
G01 X-115.05096 Y7.71226
G01 X-115.10541 Y7.79374
G01 X-115.19782 Y7.96664
G01 X-115.23533 Y8.05719
G01 X-115.29226 Y8.24479
G01 X-115.31136 Y8.34091
G01 X-115.33058 Y8.53600
G01 X-115.33300 Y8.58500
G01 X-115.33300 Y15.44300
G01 X-115.33058 Y15.49202
G01 X-115.31136 Y15.68712
G01 X-115.29226 Y15.78323
G01 X-115.23533 Y15.97084
G01 X-115.19782 Y16.06139
G01 X-115.10541 Y16.23429
G01 X-115.05096 Y16.31577
G01 X-114.92660 Y16.46731
G01 X-114.89365 Y16.50368
G01 X-111.84565 Y19.55168
G01 X-111.80928 Y19.58462
G01 X-111.65774 Y19.70898
G01 X-111.57626 Y19.76344
G01 X-111.40336 Y19.85584
G01 X-111.31281 Y19.89336
G01 X-111.12521 Y19.95028
G01 X-111.02909 Y19.96938
G01 X-110.83400 Y19.98861
G01 X-110.78500 Y19.99102
G01 X-105.56431 Y19.99102
G01 X-103.64897 Y21.90633
G01 X-103.64897 Y22.64088
G01 X-103.64229 Y22.65083
G01 X-103.54829 Y22.80765
G01 X-103.50843 Y22.88195
G01 X-103.43427 Y23.03877
G01 X-103.41196 Y23.09249
G01 X-103.35586 Y23.24931
G01 X-103.34387 Y23.28868
G01 X-103.30457 Y23.44550
G01 X-103.29860 Y23.47542
G01 X-103.27536 Y23.63226
G01 X-103.27295 Y23.65678
G01 X-103.26525 Y23.81360
G01 X-103.26525 Y23.83643
G01 X-103.27295 Y23.99328
G01 X-103.27536 Y24.01779
G01 X-103.29860 Y24.17463
G01 X-103.30457 Y24.20455
G01 X-103.34387 Y24.36137
G01 X-103.35586 Y24.40074
G01 X-103.41196 Y24.55756
G01 X-103.43427 Y24.61128
G01 X-103.50843 Y24.76810
G01 X-103.54829 Y24.84240
G01 X-103.64229 Y24.99922
G01 X-103.64895 Y25.00912
G01 X-103.72969 Y25.04257
G01 X-103.87978 Y25.08812
G01 X-103.97589 Y25.10724
G01 X-104.03094 Y25.11265
G01 X-104.13198 Y25.12261
G01 X-104.23000 Y25.12261
G01 X-104.38608 Y25.10724
G01 X-104.48219 Y25.08812
G01 X-104.52537 Y25.07501
G01 X-113.23600 Y25.07501
G01 X-113.28499 Y25.07260
G01 X-113.43132 Y25.05820
G01 X-113.52744 Y25.03907
G01 X-113.66813 Y24.99640
G01 X-113.75870 Y24.95888
G01 X-113.88837 Y24.88956
G01 X-113.96986 Y24.83513
G01 X-114.08352 Y24.74184
G01 X-114.11987 Y24.70889
G01 X-116.18994 Y22.63882
G01 X-116.19604 Y22.61449
G01 X-116.22573 Y22.51614
G01 X-116.29881 Y22.31195
G01 X-116.32573 Y22.24675
G01 X-116.41473 Y22.05856
G01 X-116.43800 Y22.01497
G01 X-116.54188 Y21.84162
G01 X-116.54821 Y21.83143
G01 X-116.55210 Y21.82790
G01 X-116.56764 Y21.81441
G01 X-116.65852 Y21.73981
G01 X-116.67742 Y21.72272
G01 X-116.72428 Y21.67586
G01 X-116.73873 Y21.66275
G01 X-116.77424 Y21.63359
G01 X-116.78659 Y21.62244
G01 X-116.87711 Y21.53191
G01 X-116.88202 Y21.52673
G01 X-116.88646 Y21.52183
G01 X-116.89134 Y21.51670
G01 X-116.97683 Y21.43118
G01 X-116.98791 Y21.41896
G01 X-117.02634 Y21.37215
G01 X-117.03975 Y21.35736
G01 X-117.07569 Y21.32142
G01 X-117.09248 Y21.30286
G01 X-117.17749 Y21.19928
G01 X-117.18001 Y21.19625
G01 X-117.20378 Y21.16786
G01 X-117.20683 Y21.16417
G01 X-117.30406 Y21.04573
G01 X-117.34790 Y20.98645
G01 X-117.35362 Y20.98645
G01 X-117.38953 Y20.98741
G01 X-117.41750 Y20.98891
G01 X-117.45105 Y20.98983
G01 X-117.61458 Y20.98983
G01 X-117.64795 Y20.99079
G01 X-117.67117 Y20.99214
G01 X-117.70454 Y20.99310
G01 X-117.86804 Y20.99310
G01 X-117.90160 Y20.99402
G01 X-117.92956 Y20.99552
G01 X-117.96548 Y20.99648
G01 X-118.13413 Y20.99648
G01 X-118.17058 Y20.99732
G01 X-118.21531 Y20.99938
G01 X-118.25740 Y21.00032
G01 X-118.42435 Y21.00032
G01 X-118.43426 Y21.00560
G01 X-118.51574 Y21.06006
G01 X-118.66728 Y21.18442
G01 X-118.70365 Y21.21736
G01 X-120.31930 Y22.83300
G01 X-126.30392 Y22.83300
G01 X-126.30826 Y22.83483
G01 X-126.60229 Y22.94004
G01 X-126.67709 Y22.96277
G01 X-126.97112 Y23.03643
G01 X-127.02812 Y23.04779
G01 X-127.32218 Y23.09142
G01 X-127.36909 Y23.09605
G01 X-127.66317 Y23.11050
G01 X-127.68499 Y23.11103
G01 X-130.49299 Y23.11103
G01 X-130.51478 Y23.11050
G01 X-130.59700 Y23.10646
G01 X-130.61938 Y23.10590
G01 X-130.80980 Y23.10590
G01 X-130.81635 Y23.10588
G01 X-130.85997 Y23.10529
G01 X-130.86698 Y23.10524
G01 X-131.07183 Y23.10524
G01 X-131.14028 Y23.10867
G01 X-131.16913 Y23.11151
G01 X-131.24897 Y23.11532
G01 X-131.35897 Y23.11532
G01 X-131.46512 Y23.12071
G01 X-131.47820 Y23.12200
G01 X-131.62128 Y23.23940
G01 X-131.65765 Y23.27235
G01 X-137.24565 Y28.86035
G01 X-137.27860 Y28.89672
G01 X-137.40296 Y29.04826
G01 X-137.45741 Y29.12974
G01 X-137.54982 Y29.30264
G01 X-137.58733 Y29.39319
G01 X-137.64426 Y29.58079
G01 X-137.66336 Y29.67691
G01 X-137.68258 Y29.87200
G01 X-137.68500 Y29.92100
G01 X-137.68500 Y33.92323
G01 X-145.50274 Y33.92323
G01 X-146.22016 Y33.20580
G01 X-146.25651 Y33.17283
G01 X-146.48381 Y32.98630
G01 X-146.56532 Y32.93184
G01 X-146.82465 Y32.79323
G01 X-146.91520 Y32.75572
G01 X-147.19659 Y32.67037
G01 X-147.29272 Y32.65125
G01 X-147.58536 Y32.62242
G01 X-147.63438 Y32.62000
G01 X-155.46500 Y32.62000
G01 X-155.56253 Y32.62963
G01 X-155.65634 Y32.65808
G01 X-155.74277 Y32.70428
G01 X-155.81854 Y32.76646
G01 X-155.88072 Y32.84223
G01 X-155.92692 Y32.92866
G01 X-155.95537 Y33.02247
G01 X-155.96500 Y33.12000
G01 X-155.96500 Y34.49869
G01 X-157.72565 Y36.25937
G01 X-157.75859 Y36.29574
G01 X-157.88295 Y36.44728
G01 X-157.93741 Y36.52876
G01 X-158.02981 Y36.70166
G01 X-158.06733 Y36.79221
G01 X-158.12425 Y36.97981
G01 X-158.14335 Y37.07593
G01 X-158.16258 Y37.27102
G01 X-158.16499 Y37.32002
G01 X-158.16499 Y49.06503
G01 X-158.16258 Y49.11405
G01 X-158.14335 Y49.30915
G01 X-158.12422 Y49.40529
G01 X-158.06733 Y49.59287
G01 X-158.02981 Y49.68342
G01 X-157.93741 Y49.85632
G01 X-157.88295 Y49.93783
G01 X-157.75859 Y50.08936
G01 X-157.72565 Y50.12571
G01 X-155.74529 Y52.10605
G01 X-157.81965 Y54.18036
G01 X-157.85260 Y54.21671
G01 X-157.97696 Y54.36825
G01 X-158.03141 Y54.44975
G01 X-158.12382 Y54.62265
G01 X-158.16133 Y54.71320
G01 X-158.21823 Y54.90078
G01 X-158.23736 Y54.99692
G01 X-158.25658 Y55.19202
G01 X-158.25900 Y55.24102
G01 X-158.25900 Y68.27500
G01 X-158.25658 Y68.32402
G01 X-158.23736 Y68.51912
G01 X-158.21826 Y68.61523
G01 X-158.16133 Y68.80284
G01 X-158.12382 Y68.89339
G01 X-158.03141 Y69.06629
G01 X-157.97696 Y69.14777
G01 X-157.85260 Y69.29931
G01 X-157.81965 Y69.33568
G01 X-149.78563 Y77.36970
G01 X-149.74926 Y77.40264
G01 X-149.59772 Y77.52700
G01 X-149.51624 Y77.58146
G01 X-149.34334 Y77.67386
G01 X-149.25279 Y77.71138
G01 X-149.06519 Y77.76830
G01 X-148.96907 Y77.78740
G01 X-148.77398 Y77.80663
G01 X-148.72498 Y77.80904
G01 X-145.56481 Y77.80904
G01 X-141.66939 Y81.70444
G01 X-141.63305 Y81.73741
G01 X-141.44364 Y81.89285
G01 X-141.36213 Y81.94731
G01 X-141.14603 Y82.06283
G01 X-141.05548 Y82.10032
G01 X-140.82098 Y82.17147
G01 X-140.72484 Y82.19059
G01 X-140.48098 Y82.21460
G01 X-140.43198 Y82.21701
G01 X-131.82987 Y82.21701
G01 X-130.31498 Y83.73189
G01 X-130.31498 Y88.63213
G01 X-134.20830 Y92.52545
G01 X-134.36415 Y92.57272
G01 X-134.45470 Y92.61023
G01 X-134.71404 Y92.74884
G01 X-134.79554 Y92.80330
G01 X-135.02285 Y92.98983
G01 X-135.09216 Y93.05915
G01 X-135.27870 Y93.28646
G01 X-135.33316 Y93.36796
G01 X-135.47177 Y93.62730
G01 X-135.50928 Y93.71785
G01 X-135.59463 Y93.99923
G01 X-135.61375 Y94.09537
G01 X-135.64258 Y94.38800
G01 X-135.64258 Y94.48602
G01 X-135.61375 Y94.77866
G01 X-135.59463 Y94.87479
G01 X-135.50928 Y95.15618
G01 X-135.47177 Y95.24673
G01 X-135.33316 Y95.50606
G01 X-135.27870 Y95.58757
G01 X-135.09216 Y95.81487
G01 X-135.02285 Y95.88419
G01 X-134.79554 Y96.07073
G01 X-134.71404 Y96.12519
G01 X-134.45470 Y96.26379
G01 X-134.36415 Y96.30131
G01 X-134.08277 Y96.38665
G01 X-133.98663 Y96.40578
G01 X-133.69400 Y96.43461
G01 X-133.59598 Y96.43461
G01 X-133.30334 Y96.40578
G01 X-133.20721 Y96.38665
G01 X-132.92582 Y96.30131
G01 X-132.83527 Y96.26379
G01 X-132.57594 Y96.12519
G01 X-132.49443 Y96.07073
G01 X-132.26713 Y95.88419
G01 X-132.19781 Y95.81487
G01 X-132.01127 Y95.58757
G01 X-131.95681 Y95.50606
G01 X-131.81821 Y95.24673
G01 X-131.78069 Y95.15618
G01 X-131.73342 Y95.00032
G01 X-128.26122 Y91.52812
G01 X-128.10165 Y91.68768
G01 X-128.06528 Y91.72062
G01 X-127.91374 Y91.84498
G01 X-127.83226 Y91.89944
G01 X-127.65936 Y91.99184
G01 X-127.56881 Y92.02936
G01 X-127.38121 Y92.08628
G01 X-127.28509 Y92.10538
G01 X-127.09000 Y92.12461
G01 X-127.04100 Y92.12702
G01 X-121.19900 Y92.12702
G01 X-121.14998 Y92.12461
G01 X-120.95488 Y92.10538
G01 X-120.85877 Y92.08628
G01 X-120.67116 Y92.02936
G01 X-120.58061 Y91.99184
G01 X-120.40771 Y91.89944
G01 X-120.32623 Y91.84498
G01 X-120.17469 Y91.72062
G01 X-120.13832 Y91.68768
G01 X-116.29225 Y87.84161
G01 X-115.29266 Y86.84204
G01 X-115.17328 Y86.84204
G01 X-115.12535 Y86.82746
G01 X-114.92934 Y86.77837
G01 X-114.84544 Y86.76163
G01 X-114.64938 Y86.73255
G01 X-114.57364 Y86.72510
G01 X-114.37760 Y86.71543
G01 X-114.30437 Y86.71543
G01 X-114.10834 Y86.72510
G01 X-114.03257 Y86.73255
G01 X-113.83651 Y86.76163
G01 X-113.75261 Y86.77837
G01 X-113.55660 Y86.82746
G01 X-113.50859 Y86.84210
G01 X-113.46823 Y86.86904
G01 X-113.31669 Y86.99340
G01 X-113.24738 Y87.06275
G01 X-113.12302 Y87.21426
G01 X-113.06856 Y87.29574
G01 X-112.97616 Y87.46864
G01 X-112.93864 Y87.55919
G01 X-112.88172 Y87.74679
G01 X-112.86262 Y87.84291
G01 X-112.84339 Y88.03800
G01 X-112.84098 Y88.08700
G01 X-112.84098 Y93.12354
G01 X-112.70727 Y93.28646
G01 X-112.65281 Y93.36796
G01 X-112.51421 Y93.62730
G01 X-112.47669 Y93.71785
G01 X-112.39135 Y93.99923
G01 X-112.37222 Y94.09537
G01 X-112.34339 Y94.38800
G01 X-112.34339 Y94.48602
G01 X-112.37222 Y94.77866
G01 X-112.39135 Y94.87479
G01 X-112.47669 Y95.15618
G01 X-112.51421 Y95.24673
G01 X-112.65281 Y95.50606
G01 X-112.70727 Y95.58757
G01 X-112.74781 Y95.63702
G01 X-112.97791 Y95.74586
G01 X-113.05154 Y95.77644
G01 X-113.34560 Y95.88165
G01 X-113.39419 Y95.89643
G01 X-113.68825 Y95.97007
G01 X-113.72033 Y95.97647
G01 X-114.01438 Y96.02011
G01 X-114.03709 Y96.02234
G01 X-114.33117 Y96.03679
G01 X-114.35080 Y96.03679
G01 X-114.64486 Y96.02234
G01 X-114.66757 Y96.02011
G01 X-114.96162 Y95.97647
G01 X-114.99370 Y95.97007
G01 X-115.28776 Y95.89643
G01 X-115.33635 Y95.88165
G01 X-115.63041 Y95.77644
G01 X-115.70404 Y95.74586
G01 X-115.77689 Y95.71139
G01 X-115.92560 Y95.54731
G01 X-115.98067 Y95.48018
G01 X-116.15776 Y95.24139
G01 X-116.18992 Y95.19321
G01 X-116.20528 Y95.15618
G01 X-116.29063 Y94.87479
G01 X-116.30975 Y94.77866
G01 X-116.33858 Y94.48602
G01 X-116.33858 Y94.38800
G01 X-116.30975 Y94.09537
G01 X-116.29063 Y93.99923
G01 X-116.20528 Y93.71785
G01 X-116.16777 Y93.62730
G01 X-116.02916 Y93.36796
G01 X-115.97470 Y93.28646
G01 X-115.84100 Y93.12354
G01 X-115.84100 Y88.08700
G01 X-115.83858 Y88.03800
G01 X-115.81936 Y87.84291
G01 X-115.80026 Y87.74679
G01 X-115.74333 Y87.55919
G01 X-115.70582 Y87.46864
G01 X-115.61341 Y87.29574
G01 X-115.55896 Y87.21426
G01 X-115.43460 Y87.06275
G01 X-115.36528 Y86.99340
G01 X-115.21374 Y86.86904
G01 X-115.17328 Y86.84204
G04 P0 ( dwell for no time -- G64 should not smooth over this point )
G00 Z3.50000 ( retract )

G00 X-121.99257 Y82.81952 ( rapid move to begin. )
G01 F200.00000
( Mill infeed pass 1/1 )
G01 Z-0.20000
G04 P0 ( dwell for no time -- G64 should not smooth over this point )
G01 F400.00000
G01 X-121.99257 Y82.81952
G01 X-121.97383 Y82.81764
G01 X-121.87566 Y82.81752
G01 X-121.68023 Y82.83654
G01 X-121.64820 Y82.84289
G01 X-121.58391 Y82.85562
G01 X-121.39598 Y82.91246
G01 X-121.30525 Y82.94998
G01 X-121.13205 Y83.04243
G01 X-121.05038 Y83.09697
G01 X-120.89859 Y83.22150
G01 X-120.86217 Y83.25450
G01 X-118.40497 Y85.71169
G01 X-116.97465 Y84.28137
G01 X-116.93828 Y84.24842
G01 X-116.78674 Y84.12407
G01 X-116.70526 Y84.06961
G01 X-116.53236 Y83.97720
G01 X-116.44181 Y83.93969
G01 X-116.25420 Y83.88277
G01 X-116.15809 Y83.86367
G01 X-115.96299 Y83.84444
G01 X-115.91400 Y83.84203
G01 X-113.22216 Y83.84205
G01 X-113.17590 Y83.85363
G01 X-113.08197 Y83.87238
G01 X-112.88594 Y83.90144
G01 X-112.82835 Y83.90807
G01 X-112.79838 Y83.92046
G01 X-112.75777 Y83.93616
G01 X-112.61073 Y83.98876
G01 X-112.54349 Y84.00921
G01 X-112.39648 Y84.04601
G01 X-112.33963 Y84.05734
G01 X-112.19262 Y84.07916
G01 X-112.14154 Y84.08421
G01 X-111.99452 Y84.09143
G01 X-111.96996 Y84.09204
G01 X-110.66491 Y84.09204
G01 X-110.66069 Y84.09074
G01 X-110.51370 Y84.04616
G01 X-110.49394 Y84.04068
G01 X-110.39595 Y84.01614
G01 X-110.37903 Y84.01233
G01 X-110.23194 Y83.98307
G01 X-110.21822 Y83.98068
G01 X-110.12021 Y83.96615
G01 X-110.10812 Y83.96466
G01 X-109.96130 Y83.95020
G01 X-109.95074 Y83.94942
G01 X-109.85272 Y83.94459
G01 X-109.84266 Y83.94434
G01 X-109.69534 Y83.94434
G01 X-109.68526 Y83.94459
G01 X-109.58721 Y83.94942
G01 X-109.57667 Y83.95020
G01 X-109.42981 Y83.96466
G01 X-109.41772 Y83.96615
G01 X-109.31970 Y83.98068
G01 X-109.30598 Y83.98307
G01 X-109.15889 Y84.01233
G01 X-109.14198 Y84.01614
G01 X-109.04398 Y84.04068
G01 X-109.02422 Y84.04616
G01 X-108.87723 Y84.09074
G01 X-108.87301 Y84.09204
G01 X-107.77500 Y84.09204
G01 X-107.75041 Y84.09265
G01 X-107.55437 Y84.10227
G01 X-107.50289 Y84.10735
G01 X-107.30685 Y84.13644
G01 X-107.24797 Y84.14817
G01 X-107.05194 Y84.19727
G01 X-106.98018 Y84.21911
G01 X-106.78412 Y84.28927
G01 X-106.73944 Y84.30651
G01 X-106.65364 Y84.34205
G01 X-106.19171 Y84.80400
G01 X-105.91432 Y85.08137
G01 X-103.13866 Y87.85700
G01 X-99.97631 Y87.85700
G01 X-97.20065 Y85.08137
G01 X-97.16428 Y85.04842
G01 X-97.01274 Y84.92406
G01 X-96.93126 Y84.86961
G01 X-96.75836 Y84.77720
G01 X-96.66781 Y84.73969
G01 X-96.48020 Y84.68277
G01 X-96.38409 Y84.66366
G01 X-96.18899 Y84.64444
G01 X-96.13999 Y84.64202
G01 X-69.54998 Y84.64202
G01 X-69.50096 Y84.64444
G01 X-69.30586 Y84.66366
G01 X-69.20975 Y84.68277
G01 X-69.02214 Y84.73969
G01 X-68.93159 Y84.77720
G01 X-68.75869 Y84.86961
G01 X-68.72514 Y84.89204
G01 X-62.17016 Y84.89206
G01 X-62.18187 Y84.88787
G01 X-62.36307 Y84.81281
G01 X-62.40745 Y84.79183
G01 X-62.49388 Y84.74563
G01 X-62.53595 Y84.72041
G01 X-62.69891 Y84.61152
G01 X-62.73833 Y84.58228
G01 X-62.81410 Y84.52010
G01 X-62.85048 Y84.48716
G01 X-62.90834 Y84.42927
G01 X-62.98911 Y84.34853
G01 X-62.99498 Y84.34202
G01 X-106.65364 Y84.34205
G04 P0 ( dwell for no time -- G64 should not smooth over this point )
G00 Z3.50000 ( retract )

G00 X-105.55364 Y81.84203 ( rapid move to begin. )
G01 F200.00000
( Mill infeed pass 1/1 )
G01 Z-0.20000
G04 P0 ( dwell for no time -- G64 should not smooth over this point )
G01 F400.00000
G01 X-105.55364 Y81.84203
G01 X-104.40866 Y80.69702
G01 X-95.54500 Y80.69702
G01 X-95.49598 Y80.69461
G01 X-95.30088 Y80.67538
G01 X-95.20477 Y80.65628
G01 X-95.01716 Y80.59936
G01 X-94.92661 Y80.56184
G01 X-94.75371 Y80.46944
G01 X-94.67223 Y80.41498
G01 X-94.52069 Y80.29062
G01 X-94.45138 Y80.22131
G01 X-94.32702 Y80.06977
G01 X-94.27256 Y79.98829
G01 X-94.18016 Y79.81539
G01 X-94.14264 Y79.72484
G01 X-94.08572 Y79.53723
G01 X-94.06662 Y79.44112
G01 X-94.04739 Y79.24602
G01 X-94.04498 Y79.19700
G01 X-94.04498 Y76.02200
G01 X-94.04739 Y75.97300
G01 X-94.06662 Y75.77791
G01 X-94.08572 Y75.68179
G01 X-94.14264 Y75.49419
G01 X-94.18016 Y75.40364
G01 X-94.27256 Y75.23074
G01 X-94.32702 Y75.14926
G01 X-94.45138 Y74.99772
G01 X-94.52069 Y74.92840
G01 X-94.67223 Y74.80404
G01 X-94.75371 Y74.74959
G01 X-94.92661 Y74.65718
G01 X-95.01716 Y74.61967
G01 X-95.20477 Y74.56274
G01 X-95.30088 Y74.54364
G01 X-95.49598 Y74.52442
G01 X-95.59400 Y74.52442
G01 X-95.78909 Y74.54364
G01 X-95.88521 Y74.56274
G01 X-96.07281 Y74.61967
G01 X-96.16336 Y74.65718
G01 X-96.33626 Y74.74959
G01 X-96.41774 Y74.80404
G01 X-96.56928 Y74.92840
G01 X-96.63860 Y74.99772
G01 X-96.76296 Y75.14926
G01 X-96.81741 Y75.23074
G01 X-96.90982 Y75.40364
G01 X-96.94733 Y75.49419
G01 X-97.00426 Y75.68179
G01 X-97.02336 Y75.77791
G01 X-97.04258 Y75.97300
G01 X-97.04500 Y76.02200
G01 X-97.04500 Y77.69700
G01 X-98.48998 Y77.69700
G01 X-98.48998 Y75.38700
G01 X-98.49239 Y75.33800
G01 X-98.51162 Y75.14291
G01 X-98.53072 Y75.04679
G01 X-98.58764 Y74.85919
G01 X-98.62516 Y74.76864
G01 X-98.71756 Y74.59574
G01 X-98.77202 Y74.51428
G01 X-98.89638 Y74.36272
G01 X-98.96569 Y74.29340
G01 X-99.11723 Y74.16904
G01 X-99.19871 Y74.11459
G01 X-99.37161 Y74.02218
G01 X-99.46216 Y73.98467
G01 X-99.64977 Y73.92777
G01 X-99.74588 Y73.90864
G01 X-99.94098 Y73.88942
G01 X-100.03900 Y73.88942
G01 X-100.23409 Y73.90864
G01 X-100.33021 Y73.92777
G01 X-100.51781 Y73.98467
G01 X-100.60836 Y74.02218
G01 X-100.78126 Y74.11459
G01 X-100.86274 Y74.16904
G01 X-101.01428 Y74.29340
G01 X-101.08360 Y74.36272
G01 X-101.20796 Y74.51428
G01 X-101.26241 Y74.59574
G01 X-101.35482 Y74.76864
G01 X-101.39233 Y74.85919
G01 X-101.44926 Y75.04679
G01 X-101.46836 Y75.14291
G01 X-101.48758 Y75.33800
G01 X-101.49000 Y75.38700
G01 X-101.49000 Y77.69700
G01 X-105.02999 Y77.69700
G01 X-105.07897 Y77.69942
G01 X-105.27409 Y77.71864
G01 X-105.37020 Y77.73774
G01 X-105.55781 Y77.79467
G01 X-105.64836 Y77.83218
G01 X-105.82126 Y77.92459
G01 X-105.90274 Y77.97904
G01 X-106.05428 Y78.10340
G01 X-106.09065 Y78.13635
G01 X-108.03565 Y80.08135
G01 X-108.06860 Y80.11772
G01 X-108.11030 Y80.16855
G01 X-108.13161 Y80.27564
G01 X-108.13977 Y80.31287
G01 X-108.14208 Y80.32250
G01 X-108.15696 Y80.39911
G01 X-108.16860 Y80.47746
G01 X-108.17502 Y80.51457
G01 X-108.19247 Y80.60241
G01 X-108.19486 Y80.61501
G01 X-108.20068 Y80.64737
G01 X-108.20385 Y80.66685
G01 X-108.22283 Y80.79466
G01 X-108.22785 Y80.82374
G01 X-108.23550 Y80.86210
G01 X-108.24388 Y80.91854
G01 X-108.24409 Y80.92067
G01 X-108.24757 Y80.94886
G01 X-108.26916 Y81.09428
G01 X-108.27218 Y81.11272
G01 X-108.27408 Y81.12323
G01 X-108.28089 Y81.17215
G01 X-108.28579 Y81.22209
G01 X-108.28975 Y81.25415
G01 X-108.30718 Y81.37175
G01 X-108.31129 Y81.40441
G01 X-108.31523 Y81.44254
G01 X-108.31559 Y81.44625
G01 X-108.32564 Y81.54810
G01 X-108.33123 Y81.59329
G01 X-108.34094 Y81.65879
G01 X-108.34914 Y81.73951
G01 X-108.35775 Y81.75239
G01 X-108.38696 Y81.79179
G01 X-108.42816 Y81.84203
G04 P0 ( dwell for no time -- G64 should not smooth over this point )
G00 Z3.50000 ( retract )

G00 X-108.29618 Y81.84205 ( rapid move to begin. )
G01 F200.00000
( Mill infeed pass 1/1 )
G01 Z-0.20000
G04 P0 ( dwell for no time -- G64 should not smooth over this point )
G01 F400.00000
G01 X-108.29618 Y81.84205
G01 X-108.33982 Y81.76039
G01 X-108.34899 Y81.73824
G01 X-108.34094 Y81.65879
G04 P0 ( dwell for no time -- G64 should not smooth over this point )
G00 Z3.50000 ( retract )

G00 X-108.34901 Y81.73824 ( rapid move to begin. )
G01 F200.00000
( Mill infeed pass 1/1 )
G01 Z-0.20000
G04 P0 ( dwell for no time -- G64 should not smooth over this point )
G01 F400.00000
G01 X-108.34901 Y81.73824
G01 X-108.34899 Y81.73824
G04 P0 ( dwell for no time -- G64 should not smooth over this point )
G00 Z3.50000 ( retract )

G00 X-108.11030 Y80.16855 ( rapid move to begin. )
G01 F200.00000
( Mill infeed pass 1/1 )
G01 Z-0.20000
G04 P0 ( dwell for no time -- G64 should not smooth over this point )
G01 F400.00000
G01 X-108.11030 Y80.16855
G01 X-108.11084 Y80.16690
G01 X-108.12737 Y80.12067
G01 X-108.18366 Y79.98478
G01 X-108.20464 Y79.94041
G01 X-108.25084 Y79.85397
G01 X-108.27606 Y79.81191
G01 X-108.35775 Y79.68966
G01 X-108.38696 Y79.65026
G01 X-108.44914 Y79.57449
G01 X-108.48211 Y79.53812
G01 X-108.51899 Y79.50124
G01 X-108.51899 Y77.17478
G01 X-107.06210 Y75.71791
G01 X-106.72473 Y75.38052
G04 P0 ( dwell for no time -- G64 should not smooth over this point )
G00 Z3.50000 ( retract )

G00 X-105.20340 Y73.85924 ( rapid move to begin. )
G01 F200.00000
( Mill infeed pass 1/1 )
G01 Z-0.20000
G04 P0 ( dwell for no time -- G64 should not smooth over this point )
G01 F400.00000
G01 X-105.20340 Y73.85924
G01 X-102.28108 Y70.93689
G01 X-96.76583 Y65.42161
G01 X-96.75981 Y65.41158
G01 X-96.70570 Y65.33053
G01 X-96.61127 Y65.20320
G01 X-96.55498 Y65.13457
G01 X-96.44954 Y65.01824
G01 X-96.38876 Y64.95746
G01 X-96.27243 Y64.85202
G01 X-96.21886 Y64.80714
G01 X-96.20377 Y64.79568
G01 X-96.16263 Y64.76518
G01 X-93.98922 Y62.59178
G01 X-93.95631 Y62.56041
G01 X-93.84721 Y62.46155
G01 X-93.77482 Y62.40219
G01 X-93.66479 Y62.32058
G01 X-93.50322 Y62.15901
G01 X-78.27300 Y62.15901
G01 X-78.22398 Y62.15660
G01 X-78.07767 Y62.14220
G01 X-77.98153 Y62.12307
G01 X-77.84084 Y62.08040
G01 X-77.75027 Y62.04288
G01 X-77.62060 Y61.97356
G01 X-77.53912 Y61.91913
G01 X-77.42545 Y61.82584
G01 X-77.38911 Y61.79289
G01 X-70.57108 Y54.97490
G01 X-70.53814 Y54.93855
G01 X-70.44487 Y54.82489
G01 X-70.39041 Y54.74340
G01 X-70.32110 Y54.61374
G01 X-70.28358 Y54.52319
G01 X-70.24091 Y54.38247
G01 X-70.22178 Y54.28636
G01 X-70.20738 Y54.14003
G01 X-70.20497 Y54.09101
G01 X-70.20497 Y48.14484
G01 X-70.18254 Y48.11129
G01 X-70.12496 Y48.00354
G01 X-70.10644 Y47.92968
G01 X-70.08798 Y47.83712
G01 X-70.05892 Y47.64106
G01 X-70.05059 Y47.55685
G01 X-70.04096 Y47.36084
G01 X-70.03997 Y47.32003
G01 X-70.03997 Y44.24180
G01 X-70.04853 Y44.18407
G01 X-70.05630 Y44.10522
G01 X-70.06402 Y43.94840
G01 X-70.06496 Y43.91002
G01 X-70.06496 Y43.83134
G01 X-70.06288 Y43.81729
G01 X-70.05546 Y43.74198
G01 X-70.04586 Y43.54594
G01 X-70.04586 Y43.47322
G01 X-70.05554 Y43.27721
G01 X-70.06298 Y43.20187
G01 X-70.07662 Y43.11000
G01 X-70.08158 Y43.06992
G01 X-70.08803 Y43.00459
G01 X-70.10088 Y42.91831
G01 X-70.10248 Y42.91028
G01 X-70.11648 Y42.81541
G01 X-70.12227 Y42.75666
G01 X-70.09255 Y42.65872
G01 X-70.05506 Y42.56817
G01 X-69.98112 Y42.42987
G01 X-69.92666 Y42.34836
G01 X-69.82717 Y42.22712
G01 X-69.75788 Y42.15783
G01 X-69.67398 Y42.08902
G04 P0 ( dwell for no time -- G64 should not smooth over this point )
G00 Z3.50000 ( retract )

G00 X-70.61594 Y42.08902 ( rapid move to begin. )
G01 F200.00000
( Mill infeed pass 1/1 )
G01 Z-0.20000
G04 P0 ( dwell for no time -- G64 should not smooth over this point )
G01 F400.00000
G01 X-70.61594 Y42.08902
G01 X-70.53210 Y42.15783
G01 X-70.46280 Y42.22712
G01 X-70.36331 Y42.34836
G01 X-70.30886 Y42.42987
G01 X-70.23492 Y42.56817
G01 X-70.21582 Y42.61429
G01 X-70.19730 Y42.63685
G01 X-70.14282 Y42.71833
G01 X-70.12227 Y42.75666
G04 P0 ( dwell for no time -- G64 should not smooth over this point )
G00 Z3.50000 ( retract )

G00 X-68.07594 Y42.08902 ( rapid move to begin. )
G01 F200.00000
( Mill infeed pass 1/1 )
G01 Z-0.20000
G04 P0 ( dwell for no time -- G64 should not smooth over this point )
G01 F400.00000
G01 X-68.07594 Y42.08902
G01 X-67.99210 Y42.15783
G01 X-67.92280 Y42.22712
G01 X-67.82331 Y42.34836
G01 X-67.76886 Y42.42987
G01 X-67.69492 Y42.56817
G01 X-67.65743 Y42.65872
G01 X-67.61188 Y42.80881
G01 X-67.60497 Y42.84343
G04 P0 ( dwell for no time -- G64 should not smooth over this point )
G00 Z3.50000 ( retract )

G00 X-67.13398 Y42.08902 ( rapid move to begin. )
G01 F200.00000
( Mill infeed pass 1/1 )
G01 Z-0.20000
G04 P0 ( dwell for no time -- G64 should not smooth over this point )
G01 F400.00000
G01 X-67.13398 Y42.08902
G01 X-67.21788 Y42.15783
G01 X-67.28717 Y42.22712
G01 X-67.38666 Y42.34836
G01 X-67.44112 Y42.42987
G01 X-67.51506 Y42.56817
G01 X-67.55255 Y42.65872
G01 X-67.59809 Y42.80881
G01 X-67.60497 Y42.84343
G01 X-67.60497 Y44.17647
G01 X-67.59809 Y44.21122
G01 X-67.58498 Y44.25440
G01 X-67.58498 Y55.56525
G01 X-76.63175 Y64.61202
G01 X-76.80452 Y64.61202
G01 X-76.82601 Y64.61628
G01 X-76.97303 Y64.63810
G01 X-77.06513 Y64.64722
G01 X-77.21217 Y64.65443
G01 X-77.25700 Y64.65553
G01 X-81.87205 Y64.65553
G01 X-81.92364 Y64.64788
G01 X-82.01069 Y64.63927
G01 X-82.16753 Y64.63157
G01 X-82.25244 Y64.63157
G01 X-82.40926 Y64.63927
G01 X-82.49631 Y64.64788
G01 X-82.65315 Y64.67112
G01 X-82.74754 Y64.68994
G01 X-82.78371 Y64.69901
G01 X-82.89014 Y64.75588
G01 X-82.97164 Y64.81034
G01 X-83.09288 Y64.90983
G01 X-83.16217 Y64.97912
G01 X-83.26166 Y65.10036
G01 X-83.31612 Y65.18186
G01 X-83.39006 Y65.32017
G01 X-83.42755 Y65.41072
G01 X-83.47309 Y65.56081
G01 X-83.49222 Y65.65692
G01 X-83.50758 Y65.81300
G01 X-83.50758 Y65.91102
G01 X-83.49222 Y66.06711
G01 X-83.47309 Y66.16322
G01 X-83.42755 Y66.31331
G01 X-83.39006 Y66.40386
G01 X-83.31612 Y66.54216
G01 X-83.26166 Y66.62367
G01 X-83.16217 Y66.74490
G01 X-83.09288 Y66.81420
G01 X-82.97164 Y66.91369
G01 X-82.89014 Y66.96814
G01 X-82.75183 Y67.04208
G01 X-82.66128 Y67.07957
G01 X-82.51119 Y67.12512
G01 X-82.41508 Y67.14424
G01 X-82.25900 Y67.15961
G01 X-82.16098 Y67.15961
G01 X-82.00489 Y67.14424
G01 X-81.90878 Y67.12512
G01 X-81.86560 Y67.11201
G01 X-76.11400 Y67.11201
G01 X-76.06498 Y67.10960
G01 X-75.91865 Y67.09520
G01 X-75.82253 Y67.07607
G01 X-75.68184 Y67.03340
G01 X-75.59127 Y66.99588
G01 X-75.46160 Y66.92656
G01 X-75.38012 Y66.87213
G01 X-75.26645 Y66.77884
G01 X-75.23011 Y66.74589
G01 X-65.50777 Y57.02359
G01 X-65.45111 Y56.96689
G01 X-65.41816 Y56.93055
G01 X-65.32487 Y56.81688
G01 X-65.27044 Y56.73540
G01 X-65.20112 Y56.60573
G01 X-65.16360 Y56.51516
G01 X-65.12093 Y56.37447
G01 X-65.10180 Y56.27835
G01 X-65.08740 Y56.13202
G01 X-65.08499 Y56.08300
G01 X-65.08499 Y44.25440
G01 X-65.07188 Y44.21122
G01 X-65.06497 Y44.17647
G04 P0 ( dwell for no time -- G64 should not smooth over this point )
G00 Z3.50000 ( retract )

G00 X-62.52497 Y44.17647 ( rapid move to begin. )
G01 F200.00000
( Mill infeed pass 1/1 )
G01 Z-0.20000
G04 P0 ( dwell for no time -- G64 should not smooth over this point )
G01 F400.00000
G01 X-62.52497 Y44.17647
G01 X-62.51809 Y44.21122
G01 X-62.50498 Y44.25440
G01 X-62.50498 Y52.94463
G01 X-62.51809 Y52.98781
G01 X-62.53722 Y53.08392
G01 X-62.54496 Y53.16269
G01 X-62.54877 Y53.24031
G04 P0 ( dwell for no time -- G64 should not smooth over this point )
G00 Z3.50000 ( retract )

G00 X-62.54877 Y53.33772 ( rapid move to begin. )
G01 F200.00000
( Mill infeed pass 1/1 )
G01 Z-0.20000
G04 P0 ( dwell for no time -- G64 should not smooth over this point )
G01 F400.00000
G01 X-62.54877 Y53.33772
G01 X-62.54499 Y53.41488
G01 X-62.54499 Y63.95700
G01 X-62.54740 Y64.00602
G01 X-62.56180 Y64.15235
G01 X-62.58093 Y64.24847
G01 X-62.62360 Y64.38916
G01 X-62.66112 Y64.47973
G01 X-62.73044 Y64.60940
G01 X-62.78487 Y64.69088
G01 X-62.87816 Y64.80455
G01 X-62.91111 Y64.84089
G01 X-64.94311 Y66.87289
G01 X-64.97945 Y66.90584
G01 X-65.09312 Y66.99913
G01 X-65.17460 Y67.05356
G01 X-65.30427 Y67.12288
G01 X-65.39484 Y67.16040
G01 X-65.53553 Y67.20307
G01 X-65.63165 Y67.22220
G01 X-65.77798 Y67.23660
G01 X-65.82700 Y67.23901
G01 X-65.99060 Y67.23901
G01 X-66.03378 Y67.25212
G01 X-66.12989 Y67.27124
G01 X-66.20917 Y67.27904
G04 P0 ( dwell for no time -- G64 should not smooth over this point )
G00 Z3.50000 ( retract )

G00 X-66.46081 Y67.27904 ( rapid move to begin. )
G01 F200.00000
( Mill infeed pass 1/1 )
G01 Z-0.20000
G04 P0 ( dwell for no time -- G64 should not smooth over this point )
G01 F400.00000
G01 X-66.46081 Y67.27904
G01 X-66.54008 Y67.27124
G01 X-66.63619 Y67.25212
G01 X-66.78628 Y67.20657
G01 X-66.87683 Y67.16908
G01 X-67.01514 Y67.09514
G01 X-67.09664 Y67.04069
G01 X-67.21788 Y66.94120
G01 X-67.28717 Y66.87190
G01 X-67.32789 Y66.82230
G01 X-67.38666 Y66.75067
G01 X-67.44112 Y66.66916
G01 X-67.51506 Y66.53086
G01 X-67.55255 Y66.44031
G01 X-67.59809 Y66.29022
G01 X-67.61722 Y66.19411
G01 X-67.63258 Y66.03802
G01 X-67.63258 Y65.94000
G01 X-67.61722 Y65.78392
G01 X-67.59809 Y65.68781
G01 X-67.55255 Y65.53772
G01 X-67.51506 Y65.44717
G01 X-67.44112 Y65.30886
G01 X-67.38666 Y65.22736
G01 X-67.28717 Y65.10612
G01 X-67.21788 Y65.03683
G01 X-67.09664 Y64.93734
G01 X-67.01514 Y64.88288
G01 X-66.87683 Y64.80894
G01 X-66.78628 Y64.77145
G01 X-66.63619 Y64.72591
G01 X-66.54008 Y64.70678
G01 X-66.38400 Y64.69142
G01 X-66.29715 Y64.69142
G01 X-65.04498 Y63.43925
G01 X-65.04498 Y44.25440
G01 X-65.05809 Y44.21122
G01 X-65.06497 Y44.17647
G01 X-65.06497 Y42.84343
G01 X-65.05809 Y42.80881
G01 X-65.01255 Y42.65872
G01 X-64.97506 Y42.56817
G01 X-64.90112 Y42.42987
G01 X-64.84666 Y42.34836
G01 X-64.74717 Y42.22712
G01 X-64.67788 Y42.15783
G01 X-64.59398 Y42.08902
G01 X-64.54565 Y42.07173
G01 X-64.45377 Y42.04378
G01 X-64.29695 Y42.00449
G01 X-64.21710 Y41.98857
G01 X-64.06025 Y41.96532
G01 X-63.98728 Y41.95811
G01 X-63.83046 Y41.95039
G01 X-63.75952 Y41.95039
G01 X-63.60267 Y41.95811
G01 X-63.52970 Y41.96532
G01 X-63.37285 Y41.98857
G01 X-63.29299 Y42.00449
G01 X-63.13617 Y42.04378
G01 X-63.04430 Y42.07173
G01 X-62.99594 Y42.08902
G01 X-62.05398 Y42.08902
G04 P0 ( dwell for no time -- G64 should not smooth over this point )
G00 Z3.50000 ( retract )

G00 X-62.52497 Y42.84343 ( rapid move to begin. )
G01 F200.00000
( Mill infeed pass 1/1 )
G01 Z-0.20000
G04 P0 ( dwell for no time -- G64 should not smooth over this point )
G01 F400.00000
G01 X-62.52497 Y42.84343
G01 X-62.53188 Y42.80881
G01 X-62.57743 Y42.65872
G01 X-62.61492 Y42.56817
G01 X-62.68886 Y42.42987
G01 X-62.74331 Y42.34836
G01 X-62.84280 Y42.22712
G01 X-62.91210 Y42.15783
G01 X-62.99594 Y42.08902
G04 P0 ( dwell for no time -- G64 should not smooth over this point )
G00 Z3.50000 ( retract )

G00 X-65.06497 Y42.84343 ( rapid move to begin. )
G01 F200.00000
( Mill infeed pass 1/1 )
G01 Z-0.20000
G04 P0 ( dwell for no time -- G64 should not smooth over this point )
G01 F400.00000
G01 X-65.06497 Y42.84343
G01 X-65.07188 Y42.80881
G01 X-65.11743 Y42.65872
G01 X-65.15492 Y42.56817
G01 X-65.22886 Y42.42987
G01 X-65.28331 Y42.34836
G01 X-65.38280 Y42.22712
G01 X-65.45210 Y42.15783
G01 X-65.53594 Y42.08902
G04 P0 ( dwell for no time -- G64 should not smooth over this point )
G00 Z3.50000 ( retract )

G00 X-64.59398 Y42.08902 ( rapid move to begin. )
G01 F200.00000
( Mill infeed pass 1/1 )
G01 Z-0.20000
G04 P0 ( dwell for no time -- G64 should not smooth over this point )
G01 F400.00000
G01 X-64.59398 Y42.08902
G01 X-65.53594 Y42.08902
G01 X-65.58430 Y42.07173
G01 X-65.67617 Y42.04378
G01 X-65.83299 Y42.00449
G01 X-65.91285 Y41.98857
G01 X-66.06970 Y41.96532
G01 X-66.14267 Y41.95811
G01 X-66.29952 Y41.95039
G01 X-66.37046 Y41.95039
G01 X-66.52728 Y41.95811
G01 X-66.60025 Y41.96532
G01 X-66.75710 Y41.98857
G01 X-66.83695 Y42.00449
G01 X-66.99377 Y42.04378
G01 X-67.08565 Y42.07173
G01 X-67.13398 Y42.08902
G01 X-68.07594 Y42.08902
G01 X-68.12430 Y42.07173
G01 X-68.21617 Y42.04378
G01 X-68.37299 Y42.00449
G01 X-68.45285 Y41.98857
G01 X-68.60970 Y41.96532
G01 X-68.68267 Y41.95811
G01 X-68.83952 Y41.95039
G01 X-68.91046 Y41.95039
G01 X-69.06728 Y41.95811
G01 X-69.14025 Y41.96532
G01 X-69.29710 Y41.98857
G01 X-69.37695 Y42.00449
G01 X-69.53377 Y42.04378
G01 X-69.62565 Y42.07173
G01 X-69.67398 Y42.08902
G01 X-70.61594 Y42.08902
G01 X-70.66430 Y42.07173
G01 X-70.75617 Y42.04378
G01 X-70.91299 Y42.00449
G01 X-70.99285 Y41.98857
G01 X-71.14970 Y41.96532
G01 X-71.22267 Y41.95811
G01 X-71.37952 Y41.95039
G01 X-71.45046 Y41.95039
G01 X-71.60728 Y41.95811
G01 X-71.68025 Y41.96532
G01 X-71.83710 Y41.98857
G01 X-71.91695 Y42.00449
G01 X-72.07377 Y42.04378
G01 X-72.16565 Y42.07173
G01 X-72.21398 Y42.08902
G01 X-72.29788 Y42.15783
G01 X-72.36717 Y42.22712
G01 X-72.46666 Y42.34836
G01 X-72.52112 Y42.42987
G01 X-72.59506 Y42.56817
G01 X-72.60689 Y42.59677
G01 X-72.67316 Y42.67757
G01 X-72.71340 Y42.73781
G01 X-72.71738 Y42.76451
G01 X-72.72267 Y42.81818
G01 X-72.73636 Y42.91114
G01 X-72.74812 Y42.97028
G01 X-72.76026 Y43.05183
G01 X-72.76217 Y43.07127
G01 X-72.76694 Y43.11000
G01 X-72.78746 Y43.24835
G01 X-72.79450 Y43.31970
G01 X-72.80413 Y43.51564
G01 X-72.80496 Y43.55003
G01 X-72.80496 Y43.91002
G01 X-72.80580 Y43.94447
G01 X-72.81352 Y44.10129
G01 X-72.82053 Y44.17218
G01 X-72.84378 Y44.32902
G01 X-72.85929 Y44.40675
G01 X-72.89856 Y44.56357
G01 X-72.92582 Y44.65318
G01 X-72.95493 Y44.73458
G01 X-72.95498 Y47.32000
G01 X-72.95256 Y47.36902
G01 X-72.93334 Y47.56412
G01 X-72.91423 Y47.66023
G01 X-72.85731 Y47.84786
G01 X-72.81980 Y47.93839
G01 X-72.72739 Y48.11129
G01 X-72.70496 Y48.14484
G01 X-72.70496 Y53.57325
G01 X-78.79075 Y59.65902
G01 X-85.48348 Y59.65902
G01 X-85.52711 Y59.67586
G01 X-85.62513 Y59.71093
G01 X-85.66841 Y59.72523
G01 X-85.81540 Y59.76981
G01 X-85.85307 Y59.78025
G01 X-85.95106 Y59.80481
G01 X-85.98546 Y59.81253
G01 X-86.13255 Y59.84179
G01 X-86.16343 Y59.84715
G01 X-86.26145 Y59.86168
G01 X-86.29041 Y59.86526
G01 X-86.43725 Y59.87972
G01 X-86.46450 Y59.88175
G01 X-86.56252 Y59.88657
G01 X-86.58929 Y59.88721
G01 X-86.73661 Y59.88721
G01 X-86.76336 Y59.88657
G01 X-86.86137 Y59.88175
G01 X-86.88865 Y59.87972
G01 X-87.03549 Y59.86526
G01 X-87.06447 Y59.86168
G01 X-87.16249 Y59.84715
G01 X-87.19338 Y59.84179
G01 X-87.34047 Y59.81253
G01 X-87.37486 Y59.80481
G01 X-87.47285 Y59.78025
G01 X-87.51052 Y59.76981
G01 X-87.65751 Y59.72523
G01 X-87.70079 Y59.71093
G01 X-87.79881 Y59.67586
G01 X-87.84242 Y59.65902
G01 X-94.02100 Y59.65902
G01 X-94.07000 Y59.66143
G01 X-94.21633 Y59.67583
G01 X-94.31244 Y59.69496
G01 X-94.45313 Y59.73763
G01 X-94.54371 Y59.77514
G01 X-94.67337 Y59.84446
G01 X-94.75486 Y59.89889
G01 X-94.86852 Y59.99219
G01 X-94.90487 Y60.02513
G01 X-97.95287 Y63.07313
G01 X-104.04884 Y69.16913
G01 X-110.65287 Y75.77313
G01 X-110.68581 Y75.80948
G01 X-110.77908 Y75.92314
G01 X-110.83354 Y76.00463
G01 X-110.90286 Y76.13429
G01 X-110.94037 Y76.22484
G01 X-110.98304 Y76.36556
G01 X-111.00217 Y76.46167
G01 X-111.01657 Y76.60800
G01 X-111.01898 Y76.65644
G01 X-111.02229 Y79.50457
G01 X-111.05584 Y79.53812
G01 X-111.06295 Y79.54597
G01 X-111.07753 Y79.58377
G01 X-111.11261 Y79.68176
G01 X-111.12699 Y79.72527
G01 X-111.17156 Y79.87226
G01 X-111.18205 Y79.91013
G01 X-111.20661 Y80.00815
G01 X-111.21439 Y80.04274
G01 X-111.24365 Y80.18981
G01 X-111.24903 Y80.22090
G01 X-111.26356 Y80.31894
G01 X-111.26717 Y80.34810
G01 X-111.28165 Y80.49491
G01 X-111.28365 Y80.52237
G01 X-111.28848 Y80.62039
G01 X-111.28916 Y80.64737
G01 X-111.28916 Y80.79466
G01 X-111.28848 Y80.82163
G01 X-111.28365 Y80.91965
G01 X-111.28165 Y80.94714
G01 X-111.26717 Y81.09397
G01 X-111.26356 Y81.12313
G01 X-111.24903 Y81.22118
G01 X-111.24365 Y81.25227
G01 X-111.21439 Y81.39933
G01 X-111.20661 Y81.43393
G01 X-111.18205 Y81.53195
G01 X-111.17156 Y81.56982
G01 X-111.12699 Y81.71681
G01 X-111.11261 Y81.76032
G01 X-111.07799 Y81.85707
G01 X-111.07672 Y81.85765
G01 X-111.03021 Y81.87830
G01 X-110.88315 Y81.93921
G01 X-110.84433 Y81.95420
G01 X-110.74634 Y81.98925
G01 X-110.71225 Y82.00053
G01 X-110.56526 Y82.04510
G01 X-110.53654 Y82.05305
G01 X-110.43852 Y82.07761
G01 X-110.41286 Y82.08338
G01 X-110.26577 Y82.11264
G01 X-110.24342 Y82.11650
G01 X-110.14540 Y82.13106
G01 X-110.12485 Y82.13360
G01 X-109.97804 Y82.14805
G01 X-109.95909 Y82.14945
G01 X-109.86110 Y82.15427
G01 X-109.84266 Y82.15473
G01 X-109.69534 Y82.15473
G01 X-109.67690 Y82.15427
G01 X-109.57886 Y82.14945
G01 X-109.55991 Y82.14805
G01 X-109.41307 Y82.13360
G01 X-109.39252 Y82.13106
G01 X-109.29450 Y82.11650
G01 X-109.27215 Y82.11264
G01 X-109.12506 Y82.08338
G01 X-109.09941 Y82.07761
G01 X-109.00139 Y82.05305
G01 X-108.97266 Y82.04510
G01 X-108.82567 Y82.00053
G01 X-108.79158 Y81.98925
G01 X-108.69359 Y81.95420
G01 X-108.65478 Y81.93921
G01 X-108.50771 Y81.87830
G01 X-108.46120 Y81.85765
G01 X-108.42816 Y81.84203
G01 X-108.29618 Y81.84205
G01 X-108.19273 Y81.90406
G01 X-108.11122 Y81.94774
G01 X-107.91518 Y82.04045
G01 X-107.85846 Y82.06403
G01 X-107.66243 Y82.13418
G01 X-107.62285 Y82.14622
G01 X-107.42684 Y82.19532
G01 X-107.39862 Y82.20093
G01 X-107.20258 Y82.23001
G01 X-107.18084 Y82.23217
G01 X-106.98483 Y82.24180
G01 X-106.96514 Y82.24180
G01 X-106.76911 Y82.23217
G01 X-106.74737 Y82.23001
G01 X-106.55133 Y82.20093
G01 X-106.52311 Y82.19532
G01 X-106.32710 Y82.14622
G01 X-106.28752 Y82.13418
G01 X-106.09149 Y82.06403
G01 X-106.06370 Y82.05331
G01 X-105.55364 Y81.84203
G01 X-79.18628 Y81.84205
G01 X-78.67628 Y82.05331
G01 X-78.64846 Y82.06403
G01 X-78.45243 Y82.13418
G01 X-78.41290 Y82.14619
G01 X-78.21684 Y82.19532
G01 X-78.18862 Y82.20093
G01 X-77.99258 Y82.23001
G01 X-77.97084 Y82.23217
G01 X-77.77483 Y82.24180
G01 X-77.75514 Y82.24180
G01 X-77.55911 Y82.23217
G01 X-77.53737 Y82.23001
G01 X-77.34133 Y82.20093
G01 X-77.31311 Y82.19532
G01 X-77.11710 Y82.14622
G01 X-77.07755 Y82.13418
G01 X-76.88151 Y82.06405
G01 X-76.82474 Y82.04045
G01 X-76.62873 Y81.94774
G01 X-76.54730 Y81.90408
G01 X-76.44374 Y81.84203
G01 X-63.13013 Y81.84203
G01 X-63.11347 Y81.81709
G01 X-63.08423 Y81.77767
G01 X-63.02205 Y81.70190
G01 X-62.98911 Y81.66552
G01 X-62.85048 Y81.52689
G01 X-62.81410 Y81.49395
G01 X-62.73833 Y81.43177
G01 X-62.69891 Y81.40253
G01 X-62.53595 Y81.29364
G01 X-62.49388 Y81.26842
G01 X-62.40745 Y81.22222
G01 X-62.36307 Y81.20124
G01 X-62.18187 Y81.12618
G01 X-62.13567 Y81.10965
G01 X-62.04187 Y81.08120
G01 X-61.99432 Y81.06928
G01 X-61.80232 Y81.03108
G01 X-61.75386 Y81.02389
G01 X-61.65632 Y81.01427
G01 X-61.60722 Y81.01186
G01 X-61.41080 Y81.01186
G01 X-61.36171 Y81.01427
G01 X-61.26414 Y81.02389
G01 X-61.21566 Y81.03108
G01 X-61.02363 Y81.06928
G01 X-60.97608 Y81.08120
G01 X-60.88228 Y81.10965
G01 X-60.83608 Y81.12618
G01 X-60.83158 Y81.12803
G01 X-60.65487 Y81.20124
G01 X-60.61050 Y81.22222
G01 X-60.52406 Y81.26842
G01 X-60.48200 Y81.29364
G01 X-60.31904 Y81.40253
G01 X-60.27961 Y81.43177
G01 X-60.20385 Y81.49395
G01 X-60.16747 Y81.52689
G01 X-60.02884 Y81.66552
G01 X-59.99590 Y81.70190
G01 X-59.93372 Y81.77767
G01 X-59.90448 Y81.81709
G01 X-59.79559 Y81.98005
G01 X-59.77037 Y82.02211
G01 X-59.72417 Y82.10855
G01 X-59.70319 Y82.15292
G01 X-59.62813 Y82.33413
G01 X-59.61159 Y82.38033
G01 X-59.58315 Y82.47413
G01 X-59.57123 Y82.52168
G01 X-59.53303 Y82.71368
G01 X-59.52584 Y82.76214
G01 X-59.51622 Y82.85968
G01 X-59.51380 Y82.90878
G01 X-59.51378 Y83.05404
G01 X-59.53496 Y83.10522
G01 X-59.55503 Y83.15048
G01 X-59.59955 Y83.24459
G01 X-59.61899 Y83.28323
G01 X-59.71543 Y83.46369
G01 X-59.73290 Y83.49450
G01 X-59.78485 Y83.58119
G01 X-59.80182 Y83.60799
G01 X-59.91289 Y83.77426
G01 X-59.92843 Y83.79631
G01 X-59.98744 Y83.87588
G01 X-60.00281 Y83.89557
G01 X-60.12777 Y84.04782
G01 X-60.14258 Y84.06499
G01 X-60.20847 Y84.13771
G01 X-60.22368 Y84.15368
G01 X-60.36232 Y84.29232
G01 X-60.37829 Y84.30753
G01 X-60.45101 Y84.37342
G01 X-60.46818 Y84.38823
G01 X-60.62043 Y84.51319
G01 X-60.64012 Y84.52856
G01 X-60.71969 Y84.58757
G01 X-60.74174 Y84.60311
G01 X-60.90801 Y84.71418
G01 X-60.93481 Y84.73115
G01 X-61.02150 Y84.78310
G01 X-61.05231 Y84.80057
G01 X-61.23277 Y84.89701
G01 X-61.27141 Y84.91647
G01 X-61.33011 Y84.94423
G01 X-61.36699 Y84.94606
G01 X-61.41080 Y84.94713
G01 X-61.60720 Y84.94713
G01 X-61.65099 Y84.94606
G01 X-61.74900 Y84.94124
G01 X-61.79333 Y84.93796
G01 X-61.98911 Y84.91865
G01 X-62.03580 Y84.91291
G01 X-62.13381 Y84.89836
G01 X-62.17016 Y84.89206
G04 P0 ( dwell for no time -- G64 should not smooth over this point )
G00 Z3.50000 ( retract )

G00 X-59.51378 Y83.05404 ( rapid move to begin. )
G01 F200.00000
( Mill infeed pass 1/1 )
G01 Z-0.20000
G04 P0 ( dwell for no time -- G64 should not smooth over this point )
G01 F400.00000
G01 X-59.51378 Y83.05404
G01 X-59.09834 Y82.63862
G01 X-58.69498 Y82.23525
G01 X-58.69498 Y74.38080
G01 X-60.50275 Y72.57301
G01 X-69.19458 Y72.57301
G01 X-70.57718 Y73.95568
G01 X-70.66552 Y74.00859
G01 X-70.74299 Y74.06031
G01 X-70.86811 Y74.15312
G01 X-70.94497 Y74.18494
G01 X-71.18767 Y74.34433
G01 X-71.34705 Y74.58700
G01 X-71.37891 Y74.66389
G01 X-71.44482 Y74.75276
G01 X-71.45600 Y74.79739
G01 X-71.47284 Y74.88182
G01 X-71.49897 Y75.05807
G01 X-71.49897 Y75.07875
G01 X-71.49785 Y75.12101
G01 X-71.49603 Y75.15545
G01 X-71.49498 Y75.19498
G01 X-71.49498 Y75.38700
G01 X-71.49582 Y75.42139
G01 X-71.50352 Y75.57824
G01 X-71.51053 Y75.64918
G01 X-71.53380 Y75.80602
G01 X-71.54932 Y75.88380
G01 X-71.58858 Y76.04064
G01 X-71.61584 Y76.13018
G01 X-71.64497 Y76.21161
G01 X-71.69280 Y76.26990
G01 X-71.76212 Y76.33920
G01 X-71.88333 Y76.43869
G01 X-71.96483 Y76.49314
G01 X-72.07471 Y76.55189
G01 X-72.10314 Y76.56708
G01 X-72.19369 Y76.60457
G01 X-72.34378 Y76.65012
G01 X-72.43992 Y76.66924
G01 X-72.59597 Y76.68461
G01 X-72.69399 Y76.68461
G01 X-72.85007 Y76.66924
G01 X-72.94621 Y76.65012
G01 X-73.09628 Y76.60457
G01 X-73.18683 Y76.56708
G01 X-73.32513 Y76.49314
G01 X-73.40664 Y76.43869
G01 X-73.52787 Y76.33920
G01 X-73.59719 Y76.26990
G01 X-73.69666 Y76.14867
G01 X-73.75111 Y76.06716
G01 X-73.82505 Y75.92886
G01 X-73.86257 Y75.83831
G01 X-73.90809 Y75.68822
G01 X-73.92721 Y75.59211
G01 X-73.94258 Y75.43602
G01 X-73.94258 Y75.33800
G01 X-73.92721 Y75.18192
G01 X-73.90809 Y75.08581
G01 X-73.89498 Y75.04260
G01 X-73.89498 Y74.25563
G01 X-73.89257 Y74.20666
G01 X-73.87816 Y74.06031
G01 X-73.85904 Y73.96419
G01 X-73.81637 Y73.82350
G01 X-73.77885 Y73.73293
G01 X-73.70953 Y73.60326
G01 X-73.65510 Y73.52178
G01 X-73.56181 Y73.40811
G01 X-73.52886 Y73.37176
G01 X-70.59623 Y70.43913
G01 X-70.55988 Y70.40619
G01 X-70.44622 Y70.31289
G01 X-70.36474 Y70.25846
G01 X-70.23507 Y70.18914
G01 X-70.14449 Y70.15163
G01 X-70.00380 Y70.10896
G01 X-69.90769 Y70.08983
G01 X-69.76136 Y70.07543
G01 X-69.71236 Y70.07302
G01 X-59.98500 Y70.07302
G01 X-59.93598 Y70.07543
G01 X-59.78965 Y70.08983
G01 X-59.69353 Y70.10896
G01 X-59.55284 Y70.15163
G01 X-59.46227 Y70.18914
G01 X-59.33260 Y70.25846
G01 X-59.25112 Y70.31289
G01 X-59.13745 Y70.40619
G01 X-59.10111 Y70.43913
G01 X-56.56111 Y72.97913
G01 X-56.52816 Y73.01548
G01 X-56.43487 Y73.12914
G01 X-56.38044 Y73.21063
G01 X-56.31112 Y73.34029
G01 X-56.27360 Y73.43087
G01 X-56.23093 Y73.57156
G01 X-56.21180 Y73.66767
G01 X-56.19740 Y73.81400
G01 X-56.19499 Y73.86300
G01 X-56.19499 Y82.75300
G01 X-56.19740 Y82.80202
G01 X-56.21180 Y82.94833
G01 X-56.23093 Y83.04447
G01 X-56.27360 Y83.18516
G01 X-56.31112 Y83.27573
G01 X-56.38044 Y83.40537
G01 X-56.43487 Y83.48688
G01 X-56.52816 Y83.60055
G01 X-56.56111 Y83.63689
G01 X-59.95010 Y87.02591
G01 X-59.98645 Y87.05886
G01 X-60.10011 Y87.15213
G01 X-60.18160 Y87.20659
G01 X-60.31126 Y87.27593
G01 X-60.40181 Y87.31342
G01 X-60.54253 Y87.35609
G01 X-60.63864 Y87.37522
G01 X-60.78497 Y87.38962
G01 X-60.83399 Y87.39203
G01 X-65.08499 Y87.39203
G01 X-65.08499 Y88.73490
G01 X-65.06254 Y88.77689
G01 X-65.02502 Y88.86747
G01 X-64.97381 Y89.03630
G01 X-64.95469 Y89.13241
G01 X-64.93739 Y89.30800
G01 X-64.93739 Y89.40602
G01 X-64.95469 Y89.58161
G01 X-64.97381 Y89.67773
G01 X-65.02502 Y89.84656
G01 X-65.06254 Y89.93714
G01 X-65.14570 Y90.09274
G01 X-65.20015 Y90.17422
G01 X-65.31209 Y90.31062
G01 X-65.38138 Y90.37991
G01 X-65.51778 Y90.49185
G01 X-65.59926 Y90.54630
G01 X-65.75486 Y90.62946
G01 X-65.84544 Y90.66698
G01 X-66.01427 Y90.71819
G01 X-66.11039 Y90.73731
G01 X-66.28598 Y90.75461
G01 X-66.38400 Y90.75461
G01 X-66.55959 Y90.73731
G01 X-66.65570 Y90.71819
G01 X-66.82453 Y90.66698
G01 X-66.91511 Y90.62946
G01 X-67.07071 Y90.54630
G01 X-67.15219 Y90.49185
G01 X-67.28859 Y90.37991
G01 X-67.35788 Y90.31062
G01 X-67.46982 Y90.17422
G01 X-67.52428 Y90.09274
G01 X-67.60744 Y89.93714
G01 X-67.64495 Y89.84656
G01 X-67.69616 Y89.67773
G01 X-67.71529 Y89.58161
G01 X-67.73258 Y89.40602
G01 X-67.73258 Y89.30800
G01 X-67.71529 Y89.13241
G01 X-67.69616 Y89.03630
G01 X-67.64495 Y88.86747
G01 X-67.60744 Y88.77689
G01 X-67.58498 Y88.73490
G01 X-67.58498 Y87.39203
G01 X-68.72514 Y87.39203
G01 X-68.75869 Y87.41446
G01 X-68.93159 Y87.50686
G01 X-69.02214 Y87.54438
G01 X-69.20975 Y87.60130
G01 X-69.30586 Y87.62040
G01 X-69.50096 Y87.63963
G01 X-69.54998 Y87.64204
G01 X-80.32499 Y87.64204
G01 X-80.32499 Y88.10851
G01 X-80.30678 Y88.10943
G01 X-80.16045 Y88.12383
G01 X-80.06433 Y88.14296
G01 X-79.92364 Y88.18563
G01 X-79.83307 Y88.22314
G01 X-79.70340 Y88.29246
G01 X-79.62192 Y88.34689
G01 X-79.50825 Y88.44019
G01 X-79.47191 Y88.47313
G01 X-75.50803 Y92.43700
G01 X-73.77578 Y92.43700
G01 X-73.67824 Y92.44663
G01 X-73.58444 Y92.47508
G01 X-73.49800 Y92.52128
G01 X-73.42224 Y92.58346
G01 X-73.36006 Y92.65923
G01 X-73.31385 Y92.74566
G01 X-73.28541 Y92.83947
G01 X-73.27578 Y92.93700
G01 X-73.27575 Y95.63702
G01 X-73.57578 Y95.93705
G01 X-73.77578 Y96.03705
G01 X-76.77580 Y96.03705
G01 X-76.97580 Y95.93705
G01 X-77.27580 Y95.63702
G01 X-77.27580 Y94.20477
G01 X-80.87355 Y90.60701
G01 X-80.95288 Y90.60701
G01 X-80.99486 Y90.62946
G01 X-81.08544 Y90.66698
G01 X-81.25427 Y90.71819
G01 X-81.35039 Y90.73731
G01 X-81.52598 Y90.75461
G01 X-81.62400 Y90.75461
G01 X-81.79959 Y90.73731
G01 X-81.89570 Y90.71819
G01 X-82.06453 Y90.66698
G01 X-82.15511 Y90.62946
G01 X-82.31071 Y90.54630
G01 X-82.39219 Y90.49185
G01 X-82.52859 Y90.37991
G01 X-82.59788 Y90.31062
G01 X-82.70982 Y90.17422
G01 X-82.76428 Y90.09274
G01 X-82.84744 Y89.93714
G01 X-82.88495 Y89.84656
G01 X-82.93616 Y89.67773
G01 X-82.95529 Y89.58161
G01 X-82.97258 Y89.40602
G01 X-82.97258 Y89.30800
G01 X-82.95529 Y89.13241
G01 X-82.93616 Y89.03630
G01 X-82.88495 Y88.86747
G01 X-82.84744 Y88.77689
G01 X-82.82498 Y88.73490
G01 X-82.82498 Y87.64204
G01 X-95.51866 Y87.64204
G01 X-96.02999 Y88.15340
G01 X-96.08114 Y88.18753
G01 X-96.20847 Y88.28197
G01 X-96.27860 Y88.33948
G01 X-96.39493 Y88.44494
G01 X-96.45706 Y88.50707
G01 X-96.56252 Y88.62340
G01 X-96.62003 Y88.69353
G01 X-96.71447 Y88.82086
G01 X-96.74850 Y88.87186
G01 X-96.76255 Y88.90572
G01 X-96.80809 Y89.05581
G01 X-96.82722 Y89.15192
G01 X-96.84258 Y89.30800
G01 X-96.84258 Y89.40602
G01 X-96.82722 Y89.56211
G01 X-96.80809 Y89.65822
G01 X-96.79498 Y89.70140
G01 X-96.79498 Y92.43700
G01 X-96.89260 Y92.43700
G01 X-96.99013 Y92.44663
G01 X-97.08394 Y92.47508
G01 X-97.17037 Y92.52128
G01 X-97.24614 Y92.58346
G01 X-97.30832 Y92.65923
G01 X-97.35452 Y92.74566
G01 X-97.38297 Y92.83947
G01 X-97.39260 Y92.93700
G01 X-97.39260 Y95.63702
G01 X-97.09257 Y95.93702
G01 X-96.89260 Y96.03705
G01 X-93.89258 Y96.03705
G01 X-93.69255 Y95.93702
G01 X-93.39255 Y95.63702
G01 X-92.06258 Y95.63702
G01 X-92.06258 Y95.39039
G01 X-92.13937 Y95.24673
G01 X-92.17688 Y95.15618
G01 X-92.26223 Y94.87479
G01 X-92.28135 Y94.77866
G01 X-92.31018 Y94.48602
G01 X-92.31018 Y94.38800
G01 X-92.28135 Y94.09537
G01 X-92.26223 Y93.99923
G01 X-92.17688 Y93.71785
G01 X-92.13937 Y93.62730
G01 X-92.00076 Y93.36796
G01 X-91.94630 Y93.28646
G01 X-91.75976 Y93.05915
G01 X-91.69045 Y92.98983
G01 X-91.46314 Y92.80330
G01 X-91.38164 Y92.74884
G01 X-91.12230 Y92.61023
G01 X-91.03175 Y92.57272
G01 X-90.75037 Y92.48737
G01 X-90.65423 Y92.46825
G01 X-90.36160 Y92.43942
G01 X-90.26358 Y92.43942
G01 X-89.97094 Y92.46825
G01 X-89.87481 Y92.48737
G01 X-89.59342 Y92.57272
G01 X-89.50287 Y92.61023
G01 X-89.24354 Y92.74884
G01 X-89.16203 Y92.80330
G01 X-88.93473 Y92.98983
G01 X-88.86541 Y93.05915
G01 X-88.67887 Y93.28646
G01 X-88.62441 Y93.36796
G01 X-88.48581 Y93.62730
G01 X-88.44829 Y93.71785
G01 X-88.36295 Y93.99923
G01 X-88.34382 Y94.09537
G01 X-88.31499 Y94.38800
G01 X-88.31499 Y94.48602
G01 X-88.34382 Y94.77866
G01 X-88.36295 Y94.87479
G01 X-88.44829 Y95.15618
G01 X-88.48581 Y95.24673
G01 X-88.56259 Y95.39039
G01 X-88.56259 Y95.63702
G01 X-87.33420 Y95.63702
G01 X-87.03420 Y95.93702
G01 X-86.83420 Y96.03705
G01 X-83.83415 Y96.03705
G01 X-83.63418 Y95.93702
G01 X-83.33415 Y95.63702
G01 X-82.00418 Y95.63702
G01 X-82.00418 Y95.39039
G01 X-82.08097 Y95.24673
G01 X-82.11848 Y95.15618
G01 X-82.20383 Y94.87479
G01 X-82.22295 Y94.77866
G01 X-82.25178 Y94.48602
G01 X-82.25178 Y94.38800
G01 X-82.22295 Y94.09537
G01 X-82.20383 Y93.99923
G01 X-82.11848 Y93.71785
G01 X-82.08097 Y93.62730
G01 X-81.94236 Y93.36796
G01 X-81.88790 Y93.28646
G01 X-81.70136 Y93.05915
G01 X-81.63205 Y92.98983
G01 X-81.40474 Y92.80330
G01 X-81.32324 Y92.74884
G01 X-81.06390 Y92.61023
G01 X-80.97335 Y92.57272
G01 X-80.69197 Y92.48737
G01 X-80.59583 Y92.46825
G01 X-80.30320 Y92.43942
G01 X-80.20518 Y92.43942
G01 X-79.91254 Y92.46825
G01 X-79.81641 Y92.48737
G01 X-79.53502 Y92.57272
G01 X-79.44447 Y92.61023
G01 X-79.18514 Y92.74884
G01 X-79.10363 Y92.80330
G01 X-78.87633 Y92.98983
G01 X-78.80701 Y93.05915
G01 X-78.62047 Y93.28646
G01 X-78.56601 Y93.36796
G01 X-78.42741 Y93.62730
G01 X-78.38989 Y93.71785
G01 X-78.30455 Y93.99923
G01 X-78.28542 Y94.09537
G01 X-78.25659 Y94.38800
G01 X-78.25659 Y94.48602
G01 X-78.28542 Y94.77866
G01 X-78.30455 Y94.87479
G01 X-78.38989 Y95.15618
G01 X-78.42741 Y95.24673
G01 X-78.50419 Y95.39039
G01 X-78.50419 Y95.63702
G01 X-77.27580 Y95.63702
G04 P0 ( dwell for no time -- G64 should not smooth over this point )
G00 Z3.50000 ( retract )

G00 X-83.33415 Y95.63702 ( rapid move to begin. )
G01 F200.00000
( Mill infeed pass 1/1 )
G01 Z-0.20000
G04 P0 ( dwell for no time -- G64 should not smooth over this point )
G01 F400.00000
G01 X-83.33415 Y95.63702
G01 X-83.33418 Y92.93700
G01 X-83.34381 Y92.83947
G01 X-83.37225 Y92.74566
G01 X-83.41846 Y92.65923
G01 X-83.48063 Y92.58346
G01 X-83.55640 Y92.52128
G01 X-83.64284 Y92.47508
G01 X-83.73664 Y92.44663
G01 X-83.83418 Y92.43700
G01 X-84.13499 Y92.43700
G01 X-84.13499 Y89.70140
G01 X-84.12188 Y89.65822
G01 X-84.10276 Y89.56211
G01 X-84.08739 Y89.40602
G01 X-84.08739 Y89.30800
G01 X-84.10276 Y89.15192
G01 X-84.12188 Y89.05581
G01 X-84.16743 Y88.90572
G01 X-84.20492 Y88.81517
G01 X-84.27886 Y88.67686
G01 X-84.33331 Y88.59536
G01 X-84.43280 Y88.47412
G01 X-84.50210 Y88.40483
G01 X-84.62333 Y88.30534
G01 X-84.70484 Y88.25088
G01 X-84.84314 Y88.17694
G01 X-84.93369 Y88.13945
G01 X-84.94289 Y88.13666
G01 X-85.08378 Y88.09391
G01 X-85.17989 Y88.07478
G01 X-85.33598 Y88.05942
G01 X-85.43400 Y88.05942
G01 X-85.59008 Y88.07478
G01 X-85.68619 Y88.09391
G01 X-85.83628 Y88.13945
G01 X-85.92683 Y88.17694
G01 X-86.06514 Y88.25088
G01 X-86.14664 Y88.30534
G01 X-86.26788 Y88.40483
G01 X-86.33717 Y88.47412
G01 X-86.43666 Y88.59536
G01 X-86.49112 Y88.67686
G01 X-86.56506 Y88.81517
G01 X-86.60255 Y88.90572
G01 X-86.64809 Y89.05581
G01 X-86.66722 Y89.15192
G01 X-86.68258 Y89.30800
G01 X-86.68258 Y89.40602
G01 X-86.66722 Y89.56211
G01 X-86.64809 Y89.65822
G01 X-86.63498 Y89.70140
G01 X-86.63498 Y92.43700
G01 X-86.83420 Y92.43700
G01 X-86.93173 Y92.44663
G01 X-87.02554 Y92.47508
G01 X-87.11197 Y92.52128
G01 X-87.18774 Y92.58346
G01 X-87.24992 Y92.65923
G01 X-87.29612 Y92.74566
G01 X-87.32457 Y92.83947
G01 X-87.33420 Y92.93700
G01 X-87.33420 Y95.63702
G04 P0 ( dwell for no time -- G64 should not smooth over this point )
G00 Z3.50000 ( retract )

G00 X-79.18628 Y81.84205 ( rapid move to begin. )
G01 F200.00000
( Mill infeed pass 1/1 )
G01 Z-0.20000
G04 P0 ( dwell for no time -- G64 should not smooth over this point )
G01 F400.00000
G01 X-79.18628 Y81.84205
G01 X-79.64821 Y81.38010
G01 X-80.33129 Y80.69702
G01 X-85.38500 Y80.69702
G01 X-85.43400 Y80.69461
G01 X-85.62909 Y80.67538
G01 X-85.72521 Y80.65628
G01 X-85.91281 Y80.59936
G01 X-86.00336 Y80.56184
G01 X-86.17626 Y80.46944
G01 X-86.25774 Y80.41498
G01 X-86.40928 Y80.29062
G01 X-86.47860 Y80.22131
G01 X-86.60296 Y80.06977
G01 X-86.65741 Y79.98829
G01 X-86.74982 Y79.81539
G01 X-86.78733 Y79.72484
G01 X-86.84426 Y79.53723
G01 X-86.86336 Y79.44112
G01 X-86.88258 Y79.24602
G01 X-86.88500 Y79.19700
G01 X-86.88500 Y75.38700
G01 X-86.88258 Y75.33800
G01 X-86.86336 Y75.14291
G01 X-86.84426 Y75.04679
G01 X-86.78733 Y74.85919
G01 X-86.74982 Y74.76864
G01 X-86.65741 Y74.59574
G01 X-86.60296 Y74.51428
G01 X-86.47860 Y74.36272
G01 X-86.40928 Y74.29340
G01 X-86.25774 Y74.16904
G01 X-86.17626 Y74.11459
G01 X-86.00336 Y74.02218
G01 X-85.91281 Y73.98467
G01 X-85.72521 Y73.92777
G01 X-85.62909 Y73.90864
G01 X-85.43400 Y73.88942
G01 X-85.33598 Y73.88942
G01 X-85.14088 Y73.90864
G01 X-85.04477 Y73.92777
G01 X-84.85716 Y73.98467
G01 X-84.76661 Y74.02218
G01 X-84.59371 Y74.11459
G01 X-84.51223 Y74.16904
G01 X-84.36069 Y74.29340
G01 X-84.29138 Y74.36272
G01 X-84.16702 Y74.51428
G01 X-84.11256 Y74.59574
G01 X-84.02016 Y74.76864
G01 X-83.98264 Y74.85919
G01 X-83.92572 Y75.04679
G01 X-83.90662 Y75.14291
G01 X-83.88739 Y75.33800
G01 X-83.88498 Y75.38700
G01 X-83.88498 Y77.69700
G01 X-83.71000 Y77.69700
G01 X-83.71000 Y76.02200
G01 X-83.70758 Y75.97300
G01 X-83.68836 Y75.77791
G01 X-83.66926 Y75.68179
G01 X-83.61233 Y75.49419
G01 X-83.57482 Y75.40364
G01 X-83.48241 Y75.23074
G01 X-83.42796 Y75.14926
G01 X-83.30360 Y74.99772
G01 X-83.23428 Y74.92840
G01 X-83.08274 Y74.80404
G01 X-83.00126 Y74.74959
G01 X-82.82836 Y74.65718
G01 X-82.73781 Y74.61967
G01 X-82.55021 Y74.56274
G01 X-82.45409 Y74.54364
G01 X-82.25900 Y74.52442
G01 X-82.16098 Y74.52442
G01 X-81.96588 Y74.54364
G01 X-81.86977 Y74.56274
G01 X-81.68216 Y74.61967
G01 X-81.59161 Y74.65718
G01 X-81.41871 Y74.74959
G01 X-81.33723 Y74.80404
G01 X-81.18569 Y74.92840
G01 X-81.11638 Y74.99772
G01 X-80.99202 Y75.14926
G01 X-80.93756 Y75.23074
G01 X-80.84516 Y75.40364
G01 X-80.80764 Y75.49419
G01 X-80.75072 Y75.68179
G01 X-80.73162 Y75.77791
G01 X-80.71239 Y75.97300
G01 X-80.70998 Y76.02200
G01 X-80.70998 Y77.69700
G01 X-79.70998 Y77.69700
G01 X-79.66096 Y77.69942
G01 X-79.46586 Y77.71864
G01 X-79.36972 Y77.73777
G01 X-79.18214 Y77.79467
G01 X-79.09159 Y77.83218
G01 X-78.91869 Y77.92459
G01 X-78.83718 Y77.97904
G01 X-78.68565 Y78.10340
G01 X-78.64930 Y78.13635
G01 X-76.70432 Y80.08135
G01 X-76.67138 Y80.11772
G01 X-76.54702 Y80.26926
G01 X-76.49256 Y80.35077
G01 X-76.40013 Y80.52364
G01 X-76.36264 Y80.61419
G01 X-76.30572 Y80.80180
G01 X-76.28662 Y80.89794
G01 X-76.26739 Y81.09301
G01 X-76.26739 Y81.19103
G01 X-76.28662 Y81.38612
G01 X-76.30574 Y81.48226
G01 X-76.36264 Y81.66984
G01 X-76.40016 Y81.76042
G01 X-76.44374 Y81.84203
G04 P0 ( dwell for no time -- G64 should not smooth over this point )
G00 Z3.50000 ( retract )

G00 X-70.57718 Y73.95568 ( rapid move to begin. )
G01 F200.00000
( Mill infeed pass 1/1 )
G01 Z-0.20000
G04 P0 ( dwell for no time -- G64 should not smooth over this point )
G01 F400.00000
G01 X-70.57718 Y73.95568
G01 X-70.48521 Y73.92777
G01 X-70.38909 Y73.90864
G01 X-70.19400 Y73.88942
G01 X-70.09598 Y73.88942
G01 X-69.90088 Y73.90864
G01 X-69.80477 Y73.92777
G01 X-69.61716 Y73.98467
G01 X-69.52661 Y74.02218
G01 X-69.40530 Y74.08703
G01 X-69.34498 Y74.08703
G01 X-69.24744 Y74.09663
G01 X-69.15364 Y74.12508
G01 X-69.06720 Y74.17128
G01 X-68.99143 Y74.23346
G01 X-68.92925 Y74.30923
G01 X-68.88305 Y74.39566
G01 X-68.85460 Y74.48947
G01 X-68.84498 Y74.58700
G01 X-68.84498 Y74.64733
G01 X-68.78016 Y74.76864
G01 X-68.74264 Y74.85919
G01 X-68.68572 Y75.04679
G01 X-68.66662 Y75.14291
G01 X-68.64739 Y75.33800
G01 X-68.64498 Y75.38700
G01 X-68.64498 Y77.69700
G01 X-67.83500 Y77.69700
G01 X-67.83500 Y76.14900
G01 X-67.83258 Y76.10000
G01 X-67.81336 Y75.90491
G01 X-67.79426 Y75.80879
G01 X-67.73733 Y75.62119
G01 X-67.69982 Y75.53064
G01 X-67.60741 Y75.35774
G01 X-67.55296 Y75.27626
G01 X-67.42860 Y75.12472
G01 X-67.35928 Y75.05540
G01 X-67.20774 Y74.93104
G01 X-67.12626 Y74.87659
G01 X-66.95336 Y74.78418
G01 X-66.86281 Y74.74667
G01 X-66.67521 Y74.68974
G01 X-66.57909 Y74.67064
G01 X-66.38400 Y74.65142
G01 X-66.28598 Y74.65142
G01 X-66.09088 Y74.67064
G01 X-65.99477 Y74.68974
G01 X-65.80716 Y74.74667
G01 X-65.71661 Y74.78418
G01 X-65.54371 Y74.87659
G01 X-65.46223 Y74.93104
G01 X-65.31069 Y75.05540
G01 X-65.24138 Y75.12472
G01 X-65.11702 Y75.27626
G01 X-65.06256 Y75.35774
G01 X-64.97016 Y75.53064
G01 X-64.93264 Y75.62119
G01 X-64.87572 Y75.80879
G01 X-64.85662 Y75.90491
G01 X-64.83739 Y76.10000
G01 X-64.83498 Y76.14900
G01 X-64.83498 Y77.69700
G01 X-61.25500 Y77.69700
G01 X-61.20598 Y77.69942
G01 X-61.01088 Y77.71864
G01 X-60.91477 Y77.73774
G01 X-60.72716 Y77.79467
G01 X-60.63661 Y77.83218
G01 X-60.46371 Y77.92459
G01 X-60.38223 Y77.97904
G01 X-60.23069 Y78.10340
G01 X-60.16138 Y78.17272
G01 X-60.03702 Y78.32426
G01 X-59.98256 Y78.40574
G01 X-59.89016 Y78.57864
G01 X-59.85264 Y78.66919
G01 X-59.79572 Y78.85679
G01 X-59.77662 Y78.95291
G01 X-59.75739 Y79.14800
G01 X-59.75739 Y79.24602
G01 X-59.77662 Y79.44112
G01 X-59.79572 Y79.53723
G01 X-59.85264 Y79.72484
G01 X-59.89016 Y79.81539
G01 X-59.98256 Y79.98829
G01 X-60.03702 Y80.06977
G01 X-60.16138 Y80.22131
G01 X-60.23069 Y80.29062
G01 X-60.38223 Y80.41498
G01 X-60.46371 Y80.46944
G01 X-60.63661 Y80.56184
G01 X-60.72716 Y80.59936
G01 X-60.91477 Y80.65628
G01 X-61.01088 Y80.67538
G01 X-61.20598 Y80.69461
G01 X-61.25500 Y80.69702
G01 X-70.14500 Y80.69702
G01 X-70.19400 Y80.69461
G01 X-70.38909 Y80.67538
G01 X-70.48521 Y80.65628
G01 X-70.67281 Y80.59936
G01 X-70.76336 Y80.56184
G01 X-70.93626 Y80.46944
G01 X-71.01774 Y80.41498
G01 X-71.16928 Y80.29062
G01 X-71.23860 Y80.22131
G01 X-71.36296 Y80.06977
G01 X-71.41741 Y79.98829
G01 X-71.50982 Y79.81539
G01 X-71.54733 Y79.72484
G01 X-71.60426 Y79.53723
G01 X-71.62336 Y79.44112
G01 X-71.64258 Y79.24602
G01 X-71.64500 Y79.19700
G01 X-71.64497 Y76.21161
G04 P0 ( dwell for no time -- G64 should not smooth over this point )
G00 Z3.50000 ( retract )

G00 X-73.27575 Y95.63702 ( rapid move to begin. )
G01 F200.00000
( Mill infeed pass 1/1 )
G01 Z-0.20000
G04 P0 ( dwell for no time -- G64 should not smooth over this point )
G01 F400.00000
G01 X-73.27575 Y95.63702
G01 X-71.78889 Y95.63705
G04 P0 ( dwell for no time -- G64 should not smooth over this point )
G00 Z3.50000 ( retract )

G00 X-68.34678 Y95.19313 ( rapid move to begin. )
G01 F200.00000
( Mill infeed pass 1/1 )
G01 Z-0.20000
G04 P0 ( dwell for no time -- G64 should not smooth over this point )
G01 F400.00000
G01 X-68.34678 Y95.19313
G01 X-68.33149 Y95.15618
G01 X-68.24615 Y94.87479
G01 X-68.22702 Y94.77866
G01 X-68.19819 Y94.48602
G01 X-68.19819 Y94.38800
G01 X-68.22702 Y94.09537
G01 X-68.24615 Y93.99923
G01 X-68.33149 Y93.71785
G01 X-68.36901 Y93.62730
G01 X-68.50761 Y93.36796
G01 X-68.56207 Y93.28646
G01 X-68.74861 Y93.05915
G01 X-68.81793 Y92.98983
G01 X-68.89499 Y92.92661
G01 X-68.89499 Y89.70140
G01 X-68.88188 Y89.65822
G01 X-68.86276 Y89.56211
G01 X-68.84739 Y89.40602
G01 X-68.84739 Y89.30800
G01 X-68.86276 Y89.15192
G01 X-68.88188 Y89.05581
G01 X-68.92743 Y88.90572
G01 X-68.96492 Y88.81517
G01 X-69.03886 Y88.67686
G01 X-69.09331 Y88.59536
G01 X-69.19280 Y88.47412
G01 X-69.26210 Y88.40483
G01 X-69.38333 Y88.30534
G01 X-69.46484 Y88.25088
G01 X-69.60314 Y88.17694
G01 X-69.69369 Y88.13945
G01 X-69.70289 Y88.13666
G01 X-69.84378 Y88.09391
G01 X-69.93989 Y88.07478
G01 X-70.09598 Y88.05942
G01 X-70.19400 Y88.05942
G01 X-70.35008 Y88.07478
G01 X-70.44619 Y88.09391
G01 X-70.59628 Y88.13945
G01 X-70.68683 Y88.17694
G01 X-70.82514 Y88.25088
G01 X-70.90664 Y88.30534
G01 X-71.02788 Y88.40483
G01 X-71.09717 Y88.47412
G01 X-71.19666 Y88.59536
G01 X-71.25112 Y88.67686
G01 X-71.32506 Y88.81517
G01 X-71.36255 Y88.90572
G01 X-71.40809 Y89.05581
G01 X-71.42722 Y89.15192
G01 X-71.44258 Y89.30800
G01 X-71.44258 Y89.40602
G01 X-71.42722 Y89.56211
G01 X-71.40809 Y89.65822
G01 X-71.39498 Y89.70140
G01 X-71.39498 Y92.84323
G01 X-71.57365 Y92.98983
G01 X-71.64296 Y93.05915
G01 X-71.82950 Y93.28646
G01 X-71.88396 Y93.36796
G01 X-72.02257 Y93.62730
G01 X-72.06008 Y93.71785
G01 X-72.14543 Y93.99923
G01 X-72.16455 Y94.09537
G01 X-72.19338 Y94.38800
G01 X-72.19338 Y94.48602
G01 X-72.16455 Y94.77866
G01 X-72.14543 Y94.87479
G01 X-72.06008 Y95.15618
G01 X-72.03702 Y95.21185
G01 X-72.02257 Y95.24673
G01 X-71.88396 Y95.50606
G01 X-71.82950 Y95.58757
G01 X-71.78889 Y95.63705
G01 X-71.55884 Y95.74586
G01 X-71.48521 Y95.77644
G01 X-71.19115 Y95.88165
G01 X-71.14256 Y95.89643
G01 X-70.84850 Y95.97007
G01 X-70.81642 Y95.97647
G01 X-70.52237 Y96.02011
G01 X-70.49966 Y96.02234
G01 X-70.20560 Y96.03679
G01 X-70.18597 Y96.03679
G01 X-69.89189 Y96.02234
G01 X-69.86918 Y96.02011
G01 X-69.57513 Y95.97647
G01 X-69.54305 Y95.97007
G01 X-69.24899 Y95.89643
G01 X-69.20040 Y95.88165
G01 X-68.90634 Y95.77644
G01 X-68.83271 Y95.74586
G01 X-68.75984 Y95.71137
G01 X-68.61112 Y95.54731
G01 X-68.55605 Y95.48018
G01 X-68.37899 Y95.24139
G01 X-68.34678 Y95.19313
G01 X-67.73733 Y94.58369
G01 X-67.02735 Y93.87373
G01 X-66.98008 Y93.71785
G01 X-66.94257 Y93.62730
G01 X-66.80396 Y93.36796
G01 X-66.74950 Y93.28646
G01 X-66.56296 Y93.05915
G01 X-66.49365 Y92.98983
G01 X-66.26634 Y92.80330
G01 X-66.18484 Y92.74884
G01 X-65.92550 Y92.61023
G01 X-65.83495 Y92.57272
G01 X-65.55357 Y92.48737
G01 X-65.45743 Y92.46825
G01 X-65.16480 Y92.43942
G01 X-65.11580 Y92.43700
G01 X-55.13500 Y92.43700
G01 X-55.13497 Y61.85213
G01 X-55.16487 Y61.89688
G01 X-55.25816 Y62.01055
G01 X-55.29111 Y62.04689
G01 X-62.65711 Y69.41289
G01 X-62.69345 Y69.44584
G01 X-62.80712 Y69.53913
G01 X-62.88860 Y69.59356
G01 X-63.01827 Y69.66288
G01 X-63.10884 Y69.70040
G01 X-63.24953 Y69.74307
G01 X-63.34565 Y69.76220
G01 X-63.49198 Y69.77660
G01 X-63.54100 Y69.77901
G01 X-96.55122 Y69.77901
G01 X-101.94425 Y75.17204
G01 X-102.78908 Y76.01689
G01 X-102.82545 Y76.04984
G01 X-102.93912 Y76.14313
G01 X-103.02060 Y76.19756
G01 X-103.15027 Y76.26688
G01 X-103.24082 Y76.30440
G01 X-103.38153 Y76.34707
G01 X-103.47765 Y76.36620
G01 X-103.62398 Y76.38060
G01 X-103.67300 Y76.38301
G01 X-105.10658 Y76.38301
G01 X-105.14978 Y76.39612
G01 X-105.24587 Y76.41524
G01 X-105.40195 Y76.43061
G01 X-105.50000 Y76.43061
G01 X-105.65608 Y76.41524
G01 X-105.75219 Y76.39612
G01 X-105.90228 Y76.35057
G01 X-105.99283 Y76.31308
G01 X-106.13114 Y76.23914
G01 X-106.21264 Y76.18469
G01 X-106.33388 Y76.08520
G01 X-106.40317 Y76.01590
G01 X-106.50266 Y75.89467
G01 X-106.55712 Y75.81316
G01 X-106.63106 Y75.67486
G01 X-106.66855 Y75.58431
G01 X-106.71409 Y75.43422
G01 X-106.72473 Y75.38052
G01 X-106.71130 Y75.33600
G01 X-106.65285 Y75.17265
G01 X-106.62138 Y75.09647
G01 X-106.55016 Y74.94593
G01 X-106.52059 Y74.89053
G01 X-106.43749 Y74.75185
G01 X-106.40934 Y74.70968
G01 X-106.31490 Y74.58235
G01 X-106.28702 Y74.54834
G01 X-106.18158 Y74.43201
G01 X-106.15201 Y74.40242
G01 X-106.03566 Y74.29698
G01 X-106.00165 Y74.26912
G01 X-105.87432 Y74.17466
G01 X-105.83215 Y74.14654
G01 X-105.69347 Y74.06341
G01 X-105.63807 Y74.03384
G01 X-105.48753 Y73.96262
G01 X-105.41135 Y73.93115
G01 X-105.24798 Y73.87273
G01 X-105.20340 Y73.85924
G01 X-105.14978 Y73.86991
G01 X-105.10658 Y73.88302
G01 X-104.19075 Y73.88302
G01 X-97.95287 Y67.64513
G01 X-97.91652 Y67.61219
G01 X-97.80286 Y67.51889
G01 X-97.72137 Y67.46446
G01 X-97.59171 Y67.39514
G01 X-97.50113 Y67.35763
G01 X-97.36044 Y67.31496
G01 X-97.26433 Y67.29583
G01 X-97.11800 Y67.28143
G01 X-97.06900 Y67.27902
G01 X-66.46136 Y67.27902
G01 X-66.38369 Y67.28283
G01 X-66.28628 Y67.28283
G01 X-66.20861 Y67.27902
G01 X-64.05875 Y67.27902
G01 X-57.42498 Y60.64525
G01 X-57.42498 Y49.85939
G01 X-57.42117 Y49.78172
G01 X-57.42117 Y49.68431
G01 X-57.42498 Y49.60664
G01 X-57.42498 Y44.25440
G01 X-57.43809 Y44.21122
G01 X-57.44497 Y44.17647
G01 X-57.44497 Y42.84343
G01 X-57.43809 Y42.80881
G01 X-57.39255 Y42.65872
G01 X-57.35506 Y42.56817
G01 X-57.28112 Y42.42987
G01 X-57.22666 Y42.34836
G01 X-57.12717 Y42.22712
G01 X-57.05788 Y42.15783
G01 X-56.97398 Y42.08902
G01 X-56.92565 Y42.07173
G01 X-56.83377 Y42.04378
G01 X-56.67695 Y42.00449
G01 X-56.59710 Y41.98857
G01 X-56.44025 Y41.96532
G01 X-56.36728 Y41.95811
G01 X-56.23129 Y41.95143
G01 X-56.20959 Y41.95918
G01 X-56.14310 Y41.98666
G01 X-55.99253 Y42.05788
G01 X-55.94541 Y42.08303
G01 X-55.80670 Y42.16614
G01 X-55.77183 Y42.18943
G01 X-55.64447 Y42.28387
G01 X-55.61694 Y42.30645
G01 X-55.50060 Y42.41191
G01 X-55.47686 Y42.43566
G01 X-55.37139 Y42.55199
G01 X-55.34881 Y42.57952
G01 X-55.25438 Y42.70688
G01 X-55.23109 Y42.74175
G01 X-55.14798 Y42.88046
G01 X-55.12283 Y42.92758
G01 X-55.05161 Y43.07812
G01 X-55.03749 Y43.11000
G01 X-55.00497 Y43.18849
G01 X-55.00497 Y43.91002
G01 X-55.00586 Y43.94645
G01 X-55.01358 Y44.10327
G01 X-55.02098 Y44.17812
G01 X-55.02997 Y44.23883
G01 X-55.02997 Y61.16300
G01 X-55.03093 Y61.20179
G01 X-55.03815 Y61.34883
G01 X-55.04605 Y61.42871
G01 X-55.06786 Y61.57575
G01 X-55.08509 Y61.66216
G01 X-55.12192 Y61.80920
G01 X-55.13497 Y61.85213
G04 P0 ( dwell for no time -- G64 should not smooth over this point )
G00 Z3.50000 ( retract )

G00 X-52.13493 Y59.08718 ( rapid move to begin. )
G01 F200.00000
( Mill infeed pass 1/1 )
G01 Z-0.20000
G04 P0 ( dwell for no time -- G64 should not smooth over this point )
G01 F400.00000
G01 X-52.13493 Y59.08718
G01 X-52.13495 Y58.84149
G04 P0 ( dwell for no time -- G64 should not smooth over this point )
G00 Z3.50000 ( retract )

G00 X-51.90437 Y58.88002 ( rapid move to begin. )
G01 F200.00000
( Mill infeed pass 1/1 )
G01 Z-0.20000
G04 P0 ( dwell for no time -- G64 should not smooth over this point )
G01 F400.00000
G01 X-51.90437 Y58.88002
G01 X-51.99500 Y58.88002
G01 X-52.09253 Y58.87040
G01 X-52.12195 Y58.86148
G01 X-52.13495 Y58.84149
G01 X-52.13498 Y58.84149
G01 X-52.25443 Y58.65838
G01 X-52.31496 Y58.38005
G01 X-52.31496 Y56.58003
G01 X-52.23993 Y56.27015
G01 X-52.23993 Y53.61793
G01 X-52.24897 Y53.55710
G01 X-52.25636 Y53.48224
G01 X-52.26406 Y53.32542
G01 X-52.26406 Y53.25260
G01 X-52.25636 Y53.09578
G01 X-52.24897 Y53.02093
G01 X-52.22571 Y52.86411
G01 X-52.20940 Y52.78227
G01 X-52.17013 Y52.62548
G01 X-52.14156 Y52.53157
G01 X-52.13495 Y52.51308
G01 X-52.04714 Y52.40612
G01 X-51.97788 Y52.33683
G01 X-51.85664 Y52.23734
G01 X-51.77511 Y52.18288
G01 X-51.63683 Y52.10894
G01 X-51.54628 Y52.07145
G01 X-51.39619 Y52.02591
G01 X-51.30008 Y52.00678
G01 X-51.14400 Y51.99142
G01 X-51.04598 Y51.99142
G01 X-50.88989 Y52.00678
G01 X-50.79378 Y52.02591
G01 X-50.64369 Y52.07145
G01 X-50.55314 Y52.10894
G01 X-50.41484 Y52.18288
G01 X-50.33333 Y52.23734
G01 X-50.21210 Y52.33683
G01 X-50.14280 Y52.40612
G01 X-50.04331 Y52.52736
G01 X-49.98886 Y52.60886
G01 X-49.91492 Y52.74717
G01 X-49.87740 Y52.83772
G01 X-49.83188 Y52.98781
G01 X-49.81276 Y53.08392
G01 X-49.79739 Y53.24000
G01 X-49.79739 Y53.33802
G01 X-49.81276 Y53.49411
G01 X-49.83188 Y53.59022
G01 X-49.84496 Y53.63332
G01 X-49.84496 Y56.22356
G01 X-49.84141 Y56.22646
G01 X-49.77925 Y56.30223
G01 X-49.73305 Y56.38866
G01 X-49.70460 Y56.48247
G01 X-49.69498 Y56.58000
G01 X-49.69498 Y58.38002
G01 X-49.70460 Y58.47756
G01 X-49.73305 Y58.57136
G01 X-49.77925 Y58.65780
G01 X-49.84141 Y58.73357
G01 X-49.84682 Y58.73801
G01 X-49.97483 Y58.77002
G04 P0 ( dwell for no time -- G64 should not smooth over this point )
G00 Z3.50000 ( retract )

G00 X-52.13495 Y60.95282 ( rapid move to begin. )
G01 F200.00000
( Mill infeed pass 1/1 )
G01 Z-0.20000
G04 P0 ( dwell for no time -- G64 should not smooth over this point )
G01 F400.00000
G01 X-52.13495 Y60.95282
G01 X-52.13498 Y61.53290
G01 X-52.13498 Y73.63300
G01 X-38.40541 Y73.63300
G01 X-39.04720 Y72.99122
G01 X-39.08017 Y72.95487
G01 X-39.26670 Y72.72757
G01 X-39.32116 Y72.64606
G01 X-39.45977 Y72.38673
G01 X-39.49728 Y72.29618
G01 X-39.58263 Y72.01479
G01 X-39.60175 Y71.91866
G01 X-39.63058 Y71.62602
G01 X-39.63058 Y71.52800
G01 X-39.60175 Y71.23537
G01 X-39.58263 Y71.13923
G01 X-39.49728 Y70.85785
G01 X-39.45977 Y70.76730
G01 X-39.32116 Y70.50796
G01 X-39.26670 Y70.42646
G01 X-39.08017 Y70.19915
G01 X-39.01085 Y70.12983
G01 X-38.88298 Y70.02491
G01 X-38.88298 Y62.94100
G01 X-38.88057 Y62.89200
G01 X-38.86617 Y62.74567
G01 X-38.84704 Y62.64956
G01 X-38.80437 Y62.50884
G01 X-38.76686 Y62.41829
G01 X-38.69754 Y62.28863
G01 X-38.64308 Y62.20714
G01 X-38.54981 Y62.09348
G01 X-38.51687 Y62.05713
G01 X-32.64746 Y56.18775
G01 X-32.64744 Y55.13703
G04 P0 ( dwell for no time -- G64 should not smooth over this point )
G00 Z3.50000 ( retract )

G00 X-11.22500 Y84.46463 ( rapid move to begin. )
G01 F200.00000
( Mill infeed pass 1/1 )
G01 Z-0.20000
G04 P0 ( dwell for no time -- G64 should not smooth over this point )
G01 F400.00000
G01 X-11.22500 Y84.46463
G01 X-10.77791 Y84.01754
G01 X-8.76499 Y82.00459
G01 X-8.76499 Y72.08500
G01 X-8.76257 Y72.03600
G01 X-8.73374 Y71.74329
G01 X-8.71459 Y71.64715
G01 X-8.68675 Y71.55533
G01 X-8.68675 Y52.78100
G01 X-8.68434 Y52.73200
G01 X-8.65551 Y52.43937
G01 X-8.63639 Y52.34323
G01 X-8.55104 Y52.06185
G01 X-8.51353 Y51.97130
G01 X-8.37492 Y51.71196
G01 X-8.32046 Y51.63046
G01 X-8.13392 Y51.40315
G01 X-8.10095 Y51.36680
G01 X-6.10500 Y49.37082
G01 X-6.10500 Y41.07302
G01 X-7.66100 Y41.07302
G01 X-7.71000 Y41.07061
G01 X-7.90509 Y41.05138
G01 X-8.00121 Y41.03228
G01 X-8.18881 Y40.97536
G01 X-8.27936 Y40.93784
G01 X-8.45226 Y40.84544
G01 X-8.53374 Y40.79098
G01 X-8.68528 Y40.66662
G01 X-8.72165 Y40.63368
G01 X-20.98231 Y28.37302
G01 X-38.67298 Y28.37302
G01 X-38.67298 Y31.33169
G01 X-37.20252 Y32.80217
G01 X-34.72567 Y35.27900
G01 X-22.90100 Y35.27900
G01 X-22.85198 Y35.28142
G01 X-22.65688 Y35.30064
G01 X-22.56077 Y35.31974
G01 X-22.37316 Y35.37667
G01 X-22.28261 Y35.41418
G01 X-22.10971 Y35.50659
G01 X-22.02823 Y35.56104
G01 X-21.87669 Y35.68540
G01 X-21.80738 Y35.75472
G01 X-21.68302 Y35.90626
G01 X-21.62856 Y35.98774
G01 X-21.53616 Y36.16064
G01 X-21.49864 Y36.25119
G01 X-21.44172 Y36.43879
G01 X-21.42262 Y36.53491
G01 X-21.40339 Y36.73000
G01 X-21.40339 Y36.82802
G01 X-21.42262 Y37.02312
G01 X-21.44172 Y37.11923
G01 X-21.49864 Y37.30684
G01 X-21.53616 Y37.39739
G01 X-21.62856 Y37.57029
G01 X-21.68302 Y37.65177
G01 X-21.80738 Y37.80331
G01 X-21.81472 Y37.81067
G01 X-21.87669 Y37.87262
G01 X-22.02823 Y37.99698
G01 X-22.10971 Y38.05144
G01 X-22.28261 Y38.14384
G01 X-22.37316 Y38.18136
G01 X-22.56077 Y38.23828
G01 X-22.65688 Y38.25738
G01 X-22.85198 Y38.27661
G01 X-22.90100 Y38.27902
G01 X-30.46497 Y38.27902
G01 X-30.46497 Y45.41500
G01 X-30.46738 Y45.46402
G01 X-30.48661 Y45.65912
G01 X-30.50571 Y45.75523
G01 X-30.56263 Y45.94284
G01 X-30.60015 Y46.03339
G01 X-30.69255 Y46.20626
G01 X-30.74698 Y46.28777
G01 X-30.87137 Y46.43931
G01 X-30.90431 Y46.47565
G01 X-31.84746 Y47.41886
G01 X-31.84746 Y50.00702
G01 X-30.01300 Y50.00702
G01 X-29.96398 Y50.00943
G01 X-29.81765 Y50.02383
G01 X-29.72154 Y50.04296
G01 X-29.58084 Y50.08563
G01 X-29.49027 Y50.12314
G01 X-29.36060 Y50.19246
G01 X-29.27912 Y50.24689
G01 X-29.16545 Y50.34019
G01 X-29.09616 Y50.40948
G01 X-29.00287 Y50.52314
G01 X-28.94844 Y50.60463
G01 X-28.87912 Y50.73429
G01 X-28.84160 Y50.82487
G01 X-28.79893 Y50.96556
G01 X-28.77980 Y51.06167
G01 X-28.76540 Y51.20800
G01 X-28.76299 Y51.25700
G01 X-28.76299 Y52.13985
G01 X-28.68735 Y52.23200
G01 X-28.63292 Y52.31349
G01 X-28.57442 Y52.42289
G01 X-28.58626 Y52.46185
G01 X-28.61709 Y52.56129
G01 X-28.61890 Y52.56713
G01 X-28.66251 Y52.71097
G01 X-28.66812 Y52.73043
G01 X-28.68067 Y52.77622
G01 X-28.68532 Y52.79235
G01 X-28.71973 Y52.90582
G01 X-28.72977 Y52.94445
G01 X-28.73121 Y52.95118
G01 X-28.74026 Y52.98626
G01 X-28.76683 Y53.07384
G01 X-28.77587 Y53.10988
G01 X-28.77925 Y53.12690
G01 X-28.78054 Y53.13005
G01 X-28.78466 Y53.13960
G01 X-28.79504 Y53.16284
G01 X-28.79885 Y53.17170
G01 X-28.85171 Y53.29929
G01 X-28.85552 Y53.30810
G01 X-28.86439 Y53.32781
G01 X-28.86820 Y53.33662
G01 X-28.90368 Y53.42227
G01 X-28.91181 Y53.47704
G01 X-28.91488 Y53.50828
G01 X-28.92210 Y53.65529
G01 X-28.92248 Y53.67000
G01 X-28.92248 Y53.93251
G01 X-28.92283 Y53.94724
G01 X-28.92895 Y54.07223
G01 X-28.93203 Y54.10322
G01 X-28.95054 Y54.22819
G01 X-28.95766 Y54.26383
G01 X-28.98897 Y54.38879
G01 X-29.00226 Y54.43248
G01 X-29.04699 Y54.55745
G01 X-29.07025 Y54.61346
G01 X-29.12933 Y54.73843
G01 X-29.16893 Y54.81229
G01 X-29.24386 Y54.93728
G01 X-29.27244 Y54.97988
G01 X-29.32088 Y54.99994
G01 X-29.44048 Y55.03624
G01 X-29.53660 Y55.05537
G01 X-29.66098 Y55.06761
G01 X-29.75900 Y55.06761
G01 X-29.88336 Y55.05537
G01 X-29.97950 Y55.03624
G01 X-30.09908 Y54.99994
G01 X-30.14747 Y54.97990
G01 X-30.17609 Y54.93721
G01 X-30.25100 Y54.81224
G01 X-30.29057 Y54.73848
G01 X-30.34968 Y54.61348
G01 X-30.37294 Y54.55743
G01 X-30.41767 Y54.43248
G01 X-30.43096 Y54.38874
G01 X-30.46228 Y54.26378
G01 X-30.46936 Y54.22822
G01 X-30.48790 Y54.10325
G01 X-30.49098 Y54.07223
G01 X-30.49710 Y53.94724
G01 X-30.49748 Y53.93251
G01 X-30.49748 Y53.67000
G01 X-30.49784 Y53.65529
G01 X-30.50505 Y53.50828
G01 X-30.50812 Y53.47706
G01 X-30.51287 Y53.44503
G01 X-30.57383 Y53.34336
G01 X-30.58869 Y53.32111
G01 X-30.62915 Y53.26655
G01 X-30.63604 Y53.25679
G01 X-30.67398 Y53.19997
G01 X-30.68714 Y53.18222
G01 X-30.70462 Y53.16093
G01 X-30.71876 Y53.13447
G01 X-30.71965 Y53.13279
G01 X-30.72923 Y53.11450
G01 X-30.78813 Y53.00429
G01 X-30.79855 Y52.98689
G01 X-30.80939 Y52.96878
G01 X-30.85953 Y52.87498
G01 X-30.87327 Y52.85207
G01 X-30.88303 Y52.83749
G01 X-30.89860 Y52.81145
G01 X-30.93924 Y52.73541
G01 X-30.96075 Y52.69962
G01 X-30.97942 Y52.67165
G01 X-30.99291 Y52.65037
G01 X-31.03690 Y52.57696
G01 X-31.07535 Y52.51963
G01 X-31.16062 Y52.40467
G01 X-31.17060 Y52.40318
G01 X-31.24747 Y52.39558
G01 X-31.37246 Y52.38943
G01 X-31.44754 Y52.38943
G01 X-31.57248 Y52.39558
G01 X-31.64934 Y52.40318
G01 X-31.77429 Y52.42172
G01 X-31.85719 Y52.43825
G01 X-31.90441 Y52.45006
G01 X-31.95099 Y52.52781
G01 X-31.99057 Y52.60157
G01 X-32.04967 Y52.72657
G01 X-32.07294 Y52.78263
G01 X-32.11767 Y52.90757
G01 X-32.13095 Y52.95131
G01 X-32.16227 Y53.07627
G01 X-32.16936 Y53.11184
G01 X-32.18434 Y53.21280
G01 X-32.21084 Y53.31864
G01 X-32.21607 Y53.34485
G01 X-32.23789 Y53.49190
G01 X-32.24000 Y53.51318
G01 X-32.24721 Y53.66020
G01 X-32.24746 Y53.67000
G01 X-32.24769 Y53.67986
G01 X-32.25732 Y53.87589
G01 X-32.25745 Y53.87787
G01 X-32.25976 Y53.92489
G01 X-32.26194 Y53.94711
G01 X-32.29829 Y54.19215
G01 X-32.30431 Y54.22230
G01 X-32.36567 Y54.46738
G01 X-32.37909 Y54.51145
G01 X-32.46677 Y54.75649
G01 X-32.49384 Y54.82166
G01 X-32.60972 Y55.06670
G01 X-32.64744 Y55.13703
G01 X-32.66733 Y55.15031
G01 X-32.88343 Y55.26583
G01 X-32.97398 Y55.30332
G01 X-33.20847 Y55.37447
G01 X-33.30461 Y55.39359
G01 X-33.54848 Y55.41760
G01 X-33.59750 Y55.42001
G01 X-35.00311 Y55.42001
G01 X-41.41978 Y61.83668
G01 X-41.42725 Y61.87430
G01 X-41.51831 Y62.17445
G01 X-41.55583 Y62.26500
G01 X-41.70368 Y62.54164
G01 X-41.72499 Y62.57351
G01 X-41.72499 Y70.01015
G01 X-41.39555 Y70.33956
G01 X-41.36261 Y70.37591
G01 X-41.20716 Y70.56534
G01 X-41.15270 Y70.64683
G01 X-41.03718 Y70.86293
G01 X-40.99967 Y70.95348
G01 X-40.92852 Y71.18797
G01 X-40.90940 Y71.28411
G01 X-40.88539 Y71.52798
G01 X-40.88539 Y71.62600
G01 X-40.90940 Y71.86986
G01 X-40.92852 Y71.96600
G01 X-40.99964 Y72.20049
G01 X-41.03716 Y72.29104
G01 X-41.15268 Y72.50715
G01 X-41.20711 Y72.58866
G01 X-41.36256 Y72.77806
G01 X-41.43187 Y72.84738
G01 X-41.62131 Y73.00283
G01 X-41.70279 Y73.05729
G01 X-41.91889 Y73.17281
G01 X-42.00945 Y73.21032
G01 X-42.24394 Y73.28147
G01 X-42.34008 Y73.30059
G01 X-42.58394 Y73.32460
G01 X-42.68196 Y73.32460
G01 X-42.92583 Y73.30059
G01 X-43.02197 Y73.28147
G01 X-43.25646 Y73.21035
G01 X-43.34701 Y73.17283
G01 X-43.39560 Y73.14687
G01 X-43.56311 Y73.05731
G01 X-43.64462 Y73.00288
G01 X-43.83403 Y72.84743
G01 X-43.87040 Y72.81446
G01 X-44.71241 Y71.97248
G01 X-44.74536 Y71.93613
G01 X-44.90083 Y71.74670
G01 X-44.95529 Y71.66521
G01 X-45.07078 Y71.44909
G01 X-45.10830 Y71.35853
G01 X-45.17944 Y71.12404
G01 X-45.19857 Y71.02790
G01 X-45.22257 Y70.78404
G01 X-45.22498 Y70.73502
G01 X-45.22498 Y62.57351
G01 X-45.24629 Y62.54164
G01 X-45.39415 Y62.26500
G01 X-45.43166 Y62.17445
G01 X-45.52272 Y61.87430
G01 X-45.54185 Y61.77816
G01 X-45.57258 Y61.46602
G01 X-45.57258 Y61.36800
G01 X-45.56293 Y61.27001
G01 X-50.47288 Y61.27001
G01 X-50.51484 Y61.29246
G01 X-50.60544 Y61.32998
G01 X-50.77427 Y61.38119
G01 X-50.87039 Y61.40031
G01 X-51.04598 Y61.41761
G01 X-51.14400 Y61.41761
G01 X-51.31956 Y61.40031
G01 X-51.41568 Y61.38119
G01 X-51.58453 Y61.32998
G01 X-51.67511 Y61.29246
G01 X-51.83071 Y61.20930
G01 X-51.91219 Y61.15485
G01 X-52.04859 Y61.04291
G01 X-52.11788 Y60.97362
G01 X-52.13495 Y60.95282
G01 X-52.18844 Y60.80334
G01 X-52.21430 Y60.71832
G01 X-52.25850 Y60.54189
G01 X-52.27290 Y60.46955
G01 X-52.29909 Y60.29313
G01 X-52.30554 Y60.22790
G01 X-52.31420 Y60.05147
G01 X-52.31420 Y59.98855
G01 X-52.30554 Y59.81215
G01 X-52.29909 Y59.74692
G01 X-52.27290 Y59.57050
G01 X-52.25850 Y59.49816
G01 X-52.21430 Y59.32173
G01 X-52.18844 Y59.23671
G01 X-52.13493 Y59.08718
G01 X-52.11788 Y59.06641
G01 X-52.04859 Y58.99712
G01 X-51.91219 Y58.88518
G01 X-51.90437 Y58.88002
G01 X-51.81832 Y58.85384
G01 X-51.64186 Y58.80964
G01 X-51.55936 Y58.79318
G01 X-51.38291 Y58.76702
G01 X-51.30775 Y58.75958
G01 X-51.13130 Y58.75091
G01 X-51.05858 Y58.75091
G01 X-50.88217 Y58.75960
G01 X-50.80704 Y58.76702
G01 X-50.63056 Y58.79318
G01 X-50.54809 Y58.80964
G01 X-50.48664 Y58.82503
G01 X-50.19495 Y58.82503
G01 X-49.97489 Y58.77002
G01 X-44.87200 Y58.77002
G01 X-44.82298 Y58.77243
G01 X-44.67665 Y58.78683
G01 X-44.58053 Y58.80596
G01 X-44.43984 Y58.84863
G01 X-44.34927 Y58.88614
G01 X-44.21960 Y58.95546
G01 X-44.13812 Y59.00989
G01 X-44.02445 Y59.10319
G01 X-43.98811 Y59.13613
G01 X-43.82854 Y59.29569
G01 X-36.96541 Y52.43259
G01 X-36.92906 Y52.39962
G01 X-36.73966 Y52.24417
G01 X-36.65815 Y52.18971
G01 X-36.44204 Y52.07419
G01 X-36.35149 Y52.03670
G01 X-36.11700 Y51.96556
G01 X-36.02086 Y51.94643
G01 X-35.77700 Y51.92243
G01 X-35.72800 Y51.92002
G01 X-34.84748 Y51.92002
G01 X-34.84748 Y46.79752
G01 X-34.84507 Y46.74853
G01 X-34.82584 Y46.55343
G01 X-34.80674 Y46.45731
G01 X-34.74982 Y46.26971
G01 X-34.71230 Y46.17916
G01 X-34.61990 Y46.00629
G01 X-34.56547 Y45.92478
G01 X-34.44108 Y45.77324
G01 X-34.40814 Y45.73689
G01 X-33.46499 Y44.79369
G01 X-33.46499 Y38.27902
G01 X-35.34700 Y38.27902
G01 X-35.39600 Y38.27661
G01 X-35.59109 Y38.25738
G01 X-35.68721 Y38.23828
G01 X-35.87481 Y38.18136
G01 X-35.96536 Y38.14384
G01 X-36.13826 Y38.05144
G01 X-36.21974 Y37.99698
G01 X-36.37128 Y37.87262
G01 X-36.40765 Y37.83968
G01 X-36.41276 Y37.83455
G01 X-40.85090 Y42.27272
G01 X-40.93256 Y42.42547
G01 X-40.98702 Y42.50698
G01 X-41.11138 Y42.65852
G01 X-41.18069 Y42.72783
G01 X-41.33223 Y42.85219
G01 X-41.41371 Y42.90665
G01 X-41.58661 Y42.99905
G01 X-41.67716 Y43.03657
G01 X-41.86477 Y43.09347
G01 X-41.96088 Y43.11259
G01 X-42.15598 Y43.13179
G01 X-42.25400 Y43.13179
G01 X-42.44909 Y43.11259
G01 X-42.54521 Y43.09347
G01 X-42.73281 Y43.03657
G01 X-42.82336 Y42.99905
G01 X-42.99626 Y42.90665
G01 X-43.07774 Y42.85219
G01 X-43.22928 Y42.72783
G01 X-43.29860 Y42.65852
G01 X-43.42296 Y42.50698
G01 X-43.47741 Y42.42547
G01 X-43.56982 Y42.25260
G01 X-43.60733 Y42.16205
G01 X-43.66426 Y41.97444
G01 X-43.68336 Y41.87830
G01 X-43.70258 Y41.68323
G01 X-43.70258 Y41.58521
G01 X-43.68336 Y41.39012
G01 X-43.66426 Y41.29398
G01 X-43.60733 Y41.10640
G01 X-43.56982 Y41.01582
G01 X-43.47741 Y40.84295
G01 X-43.42296 Y40.76144
G01 X-43.29860 Y40.60990
G01 X-43.22928 Y40.54061
G01 X-43.07774 Y40.41623
G01 X-42.99626 Y40.36177
G01 X-42.82336 Y40.26937
G01 X-42.73281 Y40.23185
G01 X-42.54521 Y40.17495
G01 X-42.44909 Y40.15583
G01 X-42.25400 Y40.13663
G01 X-42.25034 Y40.13663
G01 X-38.18052 Y36.06678
G01 X-41.23365 Y33.01368
G01 X-41.26660 Y32.97731
G01 X-41.39096 Y32.82577
G01 X-41.44541 Y32.74429
G01 X-41.53782 Y32.57139
G01 X-41.57533 Y32.48084
G01 X-41.63226 Y32.29323
G01 X-41.65136 Y32.19712
G01 X-41.67058 Y32.00202
G01 X-41.67300 Y31.95300
G01 X-41.67300 Y28.37302
G01 X-56.42900 Y28.37302
G01 X-56.47800 Y28.37061
G01 X-56.67309 Y28.35138
G01 X-56.76921 Y28.33228
G01 X-56.95681 Y28.27536
G01 X-57.04736 Y28.23784
G01 X-57.22026 Y28.14544
G01 X-57.30174 Y28.09098
G01 X-57.45328 Y27.96662
G01 X-57.48965 Y27.93368
G01 X-60.60631 Y24.81702
G01 X-72.06367 Y24.81702
G01 X-72.47984 Y25.23323
G01 X-72.47984 Y26.65570
G01 X-72.54235 Y26.73902
G01 X-72.62983 Y27.08900
G01 X-72.62983 Y27.18694
G01 X-72.67370 Y27.36200
G01 X-72.68546 Y27.42088
G01 X-72.71451 Y27.61692
G01 X-72.71959 Y27.66840
G01 X-72.72925 Y27.86444
G01 X-72.72986 Y27.88900
G01 X-72.72986 Y28.11064
G01 X-72.72983 Y28.16576
G01 X-72.72983 Y28.61618
G01 X-72.74136 Y28.66215
G01 X-72.74850 Y28.68902
G01 X-72.76765 Y28.75707
G01 X-72.77123 Y28.77678
G01 X-72.77027 Y28.78656
G01 X-72.74182 Y28.88036
G01 X-72.69562 Y28.96680
G01 X-72.63344 Y29.04257
G01 X-72.55767 Y29.10475
G01 X-72.47121 Y29.15095
G01 X-72.37743 Y29.17940
G01 X-72.30352 Y29.18669
G01 X-71.64500 Y29.84523
G01 X-71.64500 Y31.83969
G01 X-72.47565 Y32.67035
G01 X-72.50860 Y32.70672
G01 X-72.63296 Y32.85826
G01 X-72.66115 Y32.90039
G01 X-72.66117 Y32.90045
G01 X-72.66359 Y32.95249
G01 X-72.66359 Y33.07192
G01 X-72.66773 Y33.15815
G01 X-72.66907 Y33.17182
G01 X-72.67283 Y33.24705
G01 X-72.67283 Y33.36455
G01 X-72.67586 Y33.42656
G01 X-72.67819 Y33.45028
G01 X-72.68104 Y33.50781
G01 X-72.68104 Y33.62402
G01 X-72.68170 Y33.65102
G01 X-72.68431 Y33.70446
G01 X-72.68497 Y33.73100
G01 X-72.68497 Y35.89000
G01 X-72.68563 Y35.91657
G01 X-72.69526 Y36.11261
G01 X-72.70075 Y36.16805
G01 X-72.72981 Y36.36409
G01 X-72.74235 Y36.42703
G01 X-72.79148 Y36.62307
G01 X-72.81459 Y36.69909
G01 X-72.82747 Y36.73511
G01 X-72.84055 Y36.79678
G01 X-72.87982 Y36.95357
G01 X-72.90839 Y37.04748
G01 X-72.91495 Y37.06587
G01 X-72.91500 Y39.08900
G01 X-75.97400 Y39.08900
G01 X-76.02299 Y39.09142
G01 X-76.21809 Y39.11064
G01 X-76.31420 Y39.12974
G01 X-76.50181 Y39.18667
G01 X-76.59236 Y39.22418
G01 X-76.76526 Y39.31659
G01 X-76.84674 Y39.37104
G01 X-76.99828 Y39.49540
G01 X-77.03465 Y39.52835
G01 X-77.55565 Y40.04935
G01 X-77.58860 Y40.08572
G01 X-77.71296 Y40.23726
G01 X-77.76741 Y40.31874
G01 X-77.85982 Y40.49164
G01 X-77.89733 Y40.58219
G01 X-77.95426 Y40.76980
G01 X-77.97336 Y40.86591
G01 X-77.99258 Y41.06101
G01 X-77.99500 Y41.11000
G01 X-77.99500 Y41.71524
G01 X-77.99497 Y42.33416
G01 X-77.98839 Y42.35257
G01 X-77.95982 Y42.44648
G01 X-77.92055 Y42.60327
G01 X-77.90424 Y42.68511
G01 X-77.88098 Y42.84193
G01 X-77.87358 Y42.91678
G01 X-77.86586 Y43.07360
G01 X-77.86497 Y43.11000
G01 X-77.86497 Y43.51000
G01 X-77.86409 Y43.54640
G01 X-77.85443 Y43.74244
G01 X-77.84702 Y43.81762
G01 X-77.84496 Y43.83146
G01 X-77.84496 Y43.91002
G01 X-77.84592 Y43.94840
G01 X-77.85362 Y44.10522
G01 X-77.86142 Y44.18404
G01 X-77.88468 Y44.34088
G01 X-77.90180 Y44.42679
G01 X-77.94107 Y44.58361
G01 X-77.95494 Y44.62923
G01 X-77.98331 Y44.67167
G01 X-78.03498 Y44.73464
G01 X-78.03498 Y50.74900
G01 X-78.03739 Y50.79802
G01 X-78.04699 Y50.89556
G01 X-78.06612 Y50.99170
G01 X-78.09456 Y51.08550
G01 X-78.13208 Y51.17605
G01 X-78.17828 Y51.26249
G01 X-78.23274 Y51.34400
G01 X-78.29492 Y51.41976
G01 X-78.32789 Y51.45611
G01 X-78.45225 Y51.58049
G01 X-80.35989 Y53.48811
G01 X-80.39624 Y53.52108
G01 X-80.47200 Y53.58326
G01 X-80.55351 Y53.63772
G01 X-80.63995 Y53.68392
G01 X-80.73050 Y53.72144
G01 X-80.82430 Y53.74988
G01 X-80.92044 Y53.76901
G01 X-81.01798 Y53.77861
G01 X-81.06700 Y53.78102
G01 X-95.54500 Y53.78102
G01 X-95.59400 Y53.77861
G01 X-95.69153 Y53.76901
G01 X-95.74914 Y53.75753
G01 X-95.78427 Y53.73881
G01 X-95.87096 Y53.68684
G01 X-95.94660 Y53.63634
G01 X-96.02618 Y53.57732
G01 X-96.09125 Y53.52395
G01 X-96.16397 Y53.45804
G01 X-96.19369 Y53.42974
G01 X-97.64769 Y51.97574
G01 X-97.67598 Y51.94603
G01 X-97.74190 Y51.87331
G01 X-97.79526 Y51.80823
G01 X-97.85429 Y51.72865
G01 X-97.90479 Y51.65301
G01 X-97.95676 Y51.56632
G01 X-97.97550 Y51.53117
G01 X-97.98698 Y51.47356
G01 X-97.99658 Y51.37602
G01 X-97.99900 Y51.32700
G01 X-97.99897 Y42.04554
G01 X-97.94157 Y41.94975
G01 X-97.91759 Y41.90749
G01 X-97.88091 Y41.83888
G01 X-97.86252 Y41.80233
G01 X-97.81617 Y41.70431
G01 X-97.80265 Y41.67386
G01 X-97.77423 Y41.60525
G01 X-97.76399 Y41.57874
G01 X-97.72892 Y41.48072
G01 X-97.72160 Y41.45854
G01 X-97.70077 Y41.38994
G01 X-97.69536 Y41.37038
G01 X-97.67080 Y41.27239
G01 X-97.66707 Y41.25570
G01 X-97.65340 Y41.18707
G01 X-97.65081 Y41.17203
G01 X-97.63626 Y41.07401
G01 X-97.63461 Y41.06063
G01 X-97.62788 Y40.99210
G01 X-97.62694 Y40.97953
G01 X-97.62211 Y40.88153
G01 X-97.62181 Y40.86942
G01 X-97.62181 Y40.80066
G01 X-97.62211 Y40.78857
G01 X-97.62694 Y40.69055
G01 X-97.62788 Y40.67798
G01 X-97.63461 Y40.60945
G01 X-97.63626 Y40.59606
G01 X-97.65081 Y40.49804
G01 X-97.65340 Y40.48301
G01 X-97.66707 Y40.41438
G01 X-97.67080 Y40.39769
G01 X-97.69536 Y40.29969
G01 X-97.70077 Y40.28014
G01 X-97.72160 Y40.21153
G01 X-97.72892 Y40.18936
G01 X-97.76399 Y40.09134
G01 X-97.77423 Y40.06482
G01 X-97.79597 Y40.01232
G01 X-97.79597 Y19.25303
G01 X-97.79668 Y19.22376
G01 X-97.80151 Y19.12577
G01 X-97.80743 Y19.06595
G01 X-97.82196 Y18.96794
G01 X-97.83484 Y18.90334
G01 X-97.85940 Y18.80535
G01 X-97.88152 Y18.73255
G01 X-97.91660 Y18.63454
G01 X-97.92582 Y18.60990
G01 X-97.93257 Y18.59263
G01 X-97.94248 Y18.56613
G01 X-97.97901 Y18.46405
G01 X-97.98226 Y18.45483
G01 X-98.01131 Y18.44327
G01 X-98.15866 Y18.38226
G01 X-98.19864 Y18.36453
G01 X-98.29272 Y18.32003
G01 X-98.32648 Y18.30304
G01 X-98.46178 Y18.23073
G01 X-98.48934 Y18.21511
G01 X-98.57601 Y18.16316
G01 X-98.59978 Y18.14813
G01 X-98.72447 Y18.06481
G01 X-98.74443 Y18.05074
G01 X-98.82401 Y17.99171
G01 X-98.84172 Y17.97792
G01 X-98.95589 Y17.88422
G01 X-98.97159 Y17.87068
G01 X-99.04431 Y17.80477
G01 X-99.05886 Y17.79093
G01 X-99.11086 Y17.73891
G01 X-99.16285 Y17.68694
G01 X-99.17669 Y17.67238
G01 X-99.24260 Y17.59966
G01 X-99.25614 Y17.58397
G01 X-99.34984 Y17.46979
G01 X-99.36364 Y17.45209
G01 X-99.42267 Y17.37251
G01 X-99.43671 Y17.35255
G01 X-99.52005 Y17.22786
G01 X-99.53509 Y17.20408
G01 X-99.58703 Y17.11742
G01 X-99.60265 Y17.08983
G01 X-99.67499 Y16.95450
G01 X-99.69196 Y16.92077
G01 X-99.73648 Y16.82664
G01 X-99.75419 Y16.78666
G01 X-99.81522 Y16.63937
G01 X-99.82952 Y16.60221
G01 X-99.82894 Y16.59024
G01 X-99.81931 Y16.49271
G01 X-99.81212 Y16.44424
G01 X-99.78347 Y16.30022
G01 X-99.77156 Y16.25270
G01 X-99.74311 Y16.15890
G01 X-99.72658 Y16.11267
G01 X-99.72376 Y16.10589
G01 X-99.67029 Y15.97678
G01 X-99.64931 Y15.93241
G01 X-99.60311 Y15.84597
G01 X-99.57788 Y15.80391
G01 X-99.49620 Y15.68166
G01 X-99.46699 Y15.64226
G01 X-99.40481 Y15.56649
G01 X-99.37184 Y15.53012
G01 X-99.26788 Y15.42616
G01 X-99.23151 Y15.39319
G01 X-99.15574 Y15.33101
G01 X-99.11634 Y15.30180
G01 X-98.99409 Y15.22012
G01 X-98.95203 Y15.19489
G01 X-98.86559 Y15.14869
G01 X-98.82122 Y15.12771
G01 X-98.68533 Y15.07142
G01 X-98.63910 Y15.05489
G01 X-98.54530 Y15.02644
G01 X-98.49778 Y15.01453
G01 X-98.35376 Y14.98588
G01 X-98.30529 Y14.97869
G01 X-98.20776 Y14.96906
G01 X-98.15866 Y14.96665
G01 X-98.06900 Y14.96665
G01 X-98.06900 Y12.53607
G01 X-98.16224 Y12.42243
G01 X-98.21670 Y12.34095
G01 X-98.29524 Y12.19398
G01 X-98.33275 Y12.10343
G01 X-98.33897 Y12.08286
G01 X-98.33897 Y11.18309
G01 X-98.33275 Y11.16259
G01 X-98.29524 Y11.07204
G01 X-98.21670 Y10.92508
G01 X-98.16224 Y10.84359
G01 X-98.08896 Y10.75431
G01 X-98.05653 Y10.71476
G01 X-97.98724 Y10.64547
G01 X-97.85841 Y10.53976
G01 X-97.77692 Y10.48530
G01 X-97.62996 Y10.40676
